(.../pcb-gcode-3.6.2.4/pcb-gcode.ulp)
(Copyright 2005 - 2012 by John Johnson)
(See readme.txt for licensing terms.)
(This file generated from the board:)
(.../Documents/eagle/H2/untitled.brd)
(Current profile is .../pcb-gcode-3.6.2.4/profiles/generic.pp  )
(This file generated 17.05.2017 16:52)
(Settings from pcb-machine.h)
(spindle on time = 3.0000)
(spindle speed = 20000.0000)
(tool change at 0.0000 0.0000 25.4000 )
(feed rate xy = F0.00  )
(feed rate z  = F508.00 )
(Z Axis Settings)
(  High     Up        Down     Drill)
(12.7000 	2.5400 	-0.1778 	-0.8128 )
(Settings from pcb-defaults.h)
(isolate min = 0.0000)
(isolate max = 0.3810)
(isolate step = 0.0240)
(Generated top outlines, top drill, bottom outlines, bottom drill, )
(Unit of measure: mm)
( Tool|       Size       |  Min Sub |  Max Sub |   Count )
( T01  0.600mm 0.0236in 0.0000in 0.0000in )
( T02  0.813mm 0.0320in 0.0000in 0.0000in )
( T03  1.016mm 0.0400in 0.0000in 0.0000in )
( T04  1.118mm 0.0440in 0.0000in 0.0000in )
( T05  1.321mm 0.0520in 0.0000in 0.0000in )
( T06  3.302mm 0.1300in 0.0000in 0.0000in )
(Metric Mode)
G21
(Absolute Coordinates)
G90
S20000
G00 Z12.7000 
G00 X0.0000 Y0.0000 
M03
G04 P3.000000
M05
G00 Z25.4000 
M06 T01  ; 0.6000 
G01 Z0.0000 F508.00 
M06 
G00 Z2.5400 
M03
G04 P3.000000
G00 Z2.540000
G00 X-7.5000 Y-14.5000 
G01 Z-0.8128 F508.00 
G01 Z2.540000
(R2.5400  P1.000000)
G00 X-18.0000 Y-3.4000 
G01 Z-0.812800
G01 Z2.540000
G00 X-22.9000 Y-3.4000 
G01 Z-0.812800
G01 Z2.540000
G00 X-20.0000 Y3.0000 
G01 Z-0.812800
G01 Z2.540000
G00 X-29.0000 Y5.5000 
G01 Z-0.812800
G01 Z2.540000
G00 X-29.0000 Y12.5000 
G01 Z-0.812800
G01 Z2.540000
G00 X-20.0000 Y16.0000 
G01 Z-0.812800
G01 Z2.540000
G00 X-18.5000 Y20.5000 
G01 Z-0.812800
G01 Z2.540000
G00 X-36.0000 Y20.5000 
G01 Z-0.812800
G01 Z2.540000
G00 X-34.0000 Y-8.0000 
G01 Z-0.812800
G01 Z2.540000
M05
G00 Z25.4000 
G00 X0.0000 Y0.0000 
M06 T02  ; 0.8128 
G01 Z0.0000 F508.00 
M06 
G00 Z2.5400 
M03
G04 P3.000000
G00 Z2.540000
G00 X-1.7800 Y19.9400 
G01 Z-0.8128 F508.00 
G01 Z2.540000
(R2.5400  P1.000000)
G00 X-1.8500 Y22.8200 
G01 Z-0.812800
G01 Z2.540000
G00 X-1.7900 Y16.6600 
G01 Z-0.812800
G01 Z2.540000
G00 X-9.4100 Y16.6600 
G01 Z-0.812800
G01 Z2.540000
G00 X-9.4000 Y19.9400 
G01 Z-0.812800
G01 Z2.540000
G00 X-9.4700 Y22.8200 
G01 Z-0.812800
G01 Z2.540000
G00 X-11.4100 Y25.5850 
G01 Z-0.812800
G01 Z2.540000
G00 X-11.4100 Y28.1250 
G01 Z-0.812800
G01 Z2.540000
G00 X-8.3500 Y31.4000 
G01 Z-0.812800
G01 Z2.540000
G00 X-15.9700 Y31.4000 
G01 Z-0.812800
G01 Z2.540000
G00 X-19.0300 Y28.1250 
G01 Z-0.812800
G01 Z2.540000
G00 X-19.0300 Y25.5850 
G01 Z-0.812800
G01 Z2.540000
G00 X-15.7800 Y21.6000 
G01 Z-0.812800
G01 Z2.540000
G00 X-12.7000 Y21.4100 
G01 Z-0.812800
G01 Z2.540000
G00 X-12.7000 Y13.7900 
G01 Z-0.812800
G01 Z2.540000
G00 X-15.7800 Y13.9800 
G01 Z-0.812800
G01 Z2.540000
G00 X-23.4800 Y13.7000 
G01 Z-0.812800
G01 Z2.540000
G00 X-23.4800 Y11.1600 
G01 Z-0.812800
G01 Z2.540000
G00 X-23.4800 Y16.2400 
G01 Z-0.812800
G01 Z2.540000
G00 X-28.9650 Y16.5200 
G01 Z-0.812800
G01 Z2.540000
G00 X-28.9650 Y13.9800 
G01 Z-0.812800
G01 Z2.540000
G00 X-28.9650 Y19.0600 
G01 Z-0.812800
G01 Z2.540000
G00 X-30.3600 Y22.2100 
G01 Z-0.812800
G01 Z2.540000
G00 X-27.4800 Y22.3700 
G01 Z-0.812800
G01 Z2.540000
G00 X-27.4800 Y29.9900 
G01 Z-0.812800
G01 Z2.540000
G00 X-29.3850 Y31.9900 
G01 Z-0.812800
G01 Z2.540000
G00 X-30.3600 Y29.8300 
G01 Z-0.812800
G01 Z2.540000
G00 X-29.3850 Y34.5300 
G01 Z-0.812800
G01 Z2.540000
G00 X-21.7650 Y34.5300 
G01 Z-0.812800
G01 Z2.540000
G00 X-21.7650 Y31.9900 
G01 Z-0.812800
G01 Z2.540000
G00 X-16.0000 Y3.5200 
G01 Z-0.812800
G01 Z2.540000
G00 X-12.5000 Y3.4300 
G01 Z-0.812800
G01 Z2.540000
G00 X-9.5600 Y1.5000 
G01 Z-0.812800
G01 Z2.540000
G00 X-9.5400 Y-1.2000 
G01 Z-0.812800
G01 Z2.540000
G00 X-9.5200 Y-4.5000 
G01 Z-0.812800
G01 Z2.540000
G00 X-12.5000 Y-4.1900 
G01 Z-0.812800
G01 Z2.540000
G00 X-16.0000 Y-4.1000 
G01 Z-0.812800
G01 Z2.540000
G00 X-17.6450 Y-6.9000 
G01 Z-0.812800
G01 Z2.540000
G00 X-17.6450 Y-9.4400 
G01 Z-0.812800
G01 Z2.540000
G00 X-16.5000 Y-11.0600 
G01 Z-0.812800
G01 Z2.540000
G00 X-13.5750 Y-8.6450 
G01 Z-0.812800
G01 Z2.540000
G00 X-11.0350 Y-8.6450 
G01 Z-0.812800
G01 Z2.540000
G00 X-11.0350 Y-16.2650 
G01 Z-0.812800
G01 Z2.540000
G00 X-13.5750 Y-16.2650 
G01 Z-0.812800
G01 Z2.540000
G00 X-16.5000 Y-18.6800 
G01 Z-0.812800
G01 Z2.540000
G00 X-21.9600 Y-16.5000 
G01 Z-0.812800
G01 Z2.540000
G00 X-21.5600 Y-12.5000 
G01 Z-0.812800
G01 Z2.540000
G00 X-25.2650 Y-9.4400 
G01 Z-0.812800
G01 Z2.540000
G00 X-25.2650 Y-6.9000 
G01 Z-0.812800
G01 Z2.540000
G00 X-24.9800 Y-3.3800 
G01 Z-0.812800
G01 Z2.540000
G00 X-27.5200 Y-3.3800 
G01 Z-0.812800
G01 Z2.540000
G00 X-30.0600 Y-3.3800 
G01 Z-0.812800
G01 Z2.540000
G00 X-23.6400 Y0.3800 
G01 Z-0.812800
G01 Z2.540000
G00 X-21.1000 Y0.3800 
G01 Z-0.812800
G01 Z2.540000
G00 X-18.5600 Y0.3800 
G01 Z-0.812800
G01 Z2.540000
G00 X-1.9400 Y1.5000 
G01 Z-0.812800
G01 Z2.540000
G00 X-1.9200 Y-1.2000 
G01 Z-0.812800
G01 Z2.540000
G00 X-1.9000 Y-4.5000 
G01 Z-0.812800
G01 Z2.540000
G00 X-29.1800 Y-12.5000 
G01 Z-0.812800
G01 Z2.540000
G00 X-29.5800 Y-16.5000 
G01 Z-0.812800
G01 Z2.540000
G00 X-71.5000 Y5.4600 
G01 Z-0.812800
G01 Z2.540000
G00 X-71.5000 Y8.0000 
G01 Z-0.812800
G01 Z2.540000
G00 X-71.5000 Y10.5400 
G01 Z-0.812800
G01 Z2.540000
G00 X-72.5400 Y15.7700 
G01 Z-0.812800
G01 Z2.540000
G00 X-74.9600 Y15.7300 
G01 Z-0.812800
G01 Z2.540000
G00 X-77.5000 Y15.7300 
G01 Z-0.812800
G01 Z2.540000
G00 X-80.0400 Y15.7300 
G01 Z-0.812800
G01 Z2.540000
G00 X-81.1900 Y19.0000 
G01 Z-0.812800
G01 Z2.540000
G00 X-81.1900 Y22.0000 
G01 Z-0.812800
G01 Z2.540000
G00 X-81.1900 Y25.0000 
G01 Z-0.812800
G01 Z2.540000
G00 X-81.1900 Y27.5000 
G01 Z-0.812800
G01 Z2.540000
G00 X-76.5000 Y27.3100 
G01 Z-0.812800
G01 Z2.540000
G00 X-72.0000 Y27.3100 
G01 Z-0.812800
G01 Z2.540000
G00 X-69.0000 Y27.3100 
G01 Z-0.812800
G01 Z2.540000
G00 X-66.0000 Y27.3100 
G01 Z-0.812800
G01 Z2.540000
G00 X-66.0000 Y19.6900 
G01 Z-0.812800
G01 Z2.540000
G00 X-69.0000 Y19.6900 
G01 Z-0.812800
G01 Z2.540000
G00 X-72.0000 Y19.6900 
G01 Z-0.812800
G01 Z2.540000
G00 X-70.0000 Y15.7700 
G01 Z-0.812800
G01 Z2.540000
G00 X-67.4600 Y15.7700 
G01 Z-0.812800
G01 Z2.540000
G00 X-76.5000 Y19.6900 
G01 Z-0.812800
G01 Z2.540000
G00 X-78.5000 Y10.5400 
G01 Z-0.812800
G01 Z2.540000
G00 X-78.5000 Y8.0000 
G01 Z-0.812800
G01 Z2.540000
G00 X-78.5000 Y5.4600 
G01 Z-0.812800
G01 Z2.540000
G00 X-88.8100 Y19.0000 
G01 Z-0.812800
G01 Z2.540000
G00 X-88.8100 Y22.0000 
G01 Z-0.812800
G01 Z2.540000
G00 X-88.8100 Y25.0000 
G01 Z-0.812800
G01 Z2.540000
G00 X-88.8100 Y27.5000 
G01 Z-0.812800
G01 Z2.540000
G00 X-90.8100 Y-11.0000 
G01 Z-0.812800
G01 Z2.540000
G00 X-83.1900 Y-11.0000 
G01 Z-0.812800
G01 Z2.540000
M05
G00 Z25.4000 
G00 X0.0000 Y0.0000 
M06 T03  ; 1.0160 
G01 Z0.0000 F508.00 
M06 
G00 Z2.5400 
M03
G04 P3.000000
G00 Z2.540000
G00 X-11.0000 Y34.7300 
G01 Z-0.8128 F508.00 
G01 Z2.540000
(R2.5400  P1.000000)
G00 X-11.0000 Y37.2700 
G01 Z-0.812800
G01 Z2.540000
G00 X-44.4350 Y31.7650 
G01 Z-0.812800
G01 Z2.540000
G00 X-46.9750 Y31.7650 
G01 Z-0.812800
G01 Z2.540000
G00 X-49.5150 Y31.7650 
G01 Z-0.812800
G01 Z2.540000
G00 X-49.5650 Y14.7450 
G01 Z-0.812800
G01 Z2.540000
G00 X-47.0250 Y14.7450 
G01 Z-0.812800
G01 Z2.540000
G00 X-44.4850 Y14.7450 
G01 Z-0.812800
G01 Z2.540000
G00 X-44.5150 Y2.6100 
G01 Z-0.812800
G01 Z2.540000
G00 X-47.0550 Y2.6100 
G01 Z-0.812800
G01 Z2.540000
G00 X-49.5950 Y2.6100 
G01 Z-0.812800
G01 Z2.540000
G00 X-49.6650 Y-14.8900 
G01 Z-0.812800
G01 Z2.540000
G00 X-47.1250 Y-14.8900 
G01 Z-0.812800
G01 Z2.540000
G00 X-44.5850 Y-14.8900 
G01 Z-0.812800
G01 Z2.540000
M05
G00 Z25.4000 
G00 X0.0000 Y0.0000 
M06 T04  ; 1.1176 
G01 Z0.0000 F508.00 
M06 
G00 Z2.5400 
M03
G04 P3.000000
G00 Z2.540000
G00 X-34.0500 Y14.7450 
G01 Z-0.8128 F508.00 
G01 Z2.540000
(R2.5400  P1.000000)
G00 X-36.5900 Y14.7450 
G01 Z-0.812800
G01 Z2.540000
G00 X-39.1300 Y14.7450 
G01 Z-0.812800
G01 Z2.540000
G00 X-39.3750 Y2.5850 
G01 Z-0.812800
G01 Z2.540000
G00 X-36.8350 Y2.5850 
G01 Z-0.812800
G01 Z2.540000
G00 X-34.2950 Y2.5850 
G01 Z-0.812800
G01 Z2.540000
G00 X-34.4550 Y-14.6050 
G01 Z-0.812800
G01 Z2.540000
G00 X-36.9950 Y-14.6050 
G01 Z-0.812800
G01 Z2.540000
G00 X-39.5350 Y-14.6050 
G01 Z-0.812800
G01 Z2.540000
G00 X-84.4600 Y-16.6500 
G01 Z-0.812800
G01 Z2.540000
G00 X-87.0000 Y-16.6500 
G01 Z-0.812800
G01 Z2.540000
G00 X-89.5400 Y-16.6500 
G01 Z-0.812800
G01 Z2.540000
G00 X-39.3150 Y31.7650 
G01 Z-0.812800
G01 Z2.540000
G00 X-36.7750 Y31.7650 
G01 Z-0.812800
G01 Z2.540000
G00 X-34.2350 Y31.7650 
G01 Z-0.812800
G01 Z2.540000
M05
G00 Z25.4000 
G00 X0.0000 Y0.0000 
M06 T05  ; 1.3208 
G01 Z0.0000 F508.00 
M06 
G00 Z2.5400 
M03
G04 P3.000000
G00 Z2.540000
G00 X-4.4200 Y-9.7054 
G01 Z-0.8128 F508.00 
G01 Z2.540000
(R2.5400  P1.000000)
G00 X-4.4200 Y-14.7346 
G01 Z-0.812800
G01 Z2.540000
G00 X-4.5800 Y6.3354 
G01 Z-0.812800
G01 Z2.540000
G00 X-4.5800 Y11.3646 
G01 Z-0.812800
G01 Z2.540000
G00 X-5.0800 Y27.3304 
G01 Z-0.812800
G01 Z2.540000
G00 X-5.0800 Y32.3596 
G01 Z-0.812800
G01 Z2.540000
G00 X-55.0054 Y32.9450 
G01 Z-0.812800
G01 Z2.540000
G00 X-60.0346 Y32.9450 
G01 Z-0.812800
G01 Z2.540000
G00 X-69.4854 Y32.6000 
G01 Z-0.812800
G01 Z2.540000
G00 X-74.5146 Y32.6000 
G01 Z-0.812800
G01 Z2.540000
G00 X-79.9854 Y32.5000 
G01 Z-0.812800
G01 Z2.540000
G00 X-85.0146 Y32.5000 
G01 Z-0.812800
G01 Z2.540000
G00 X-84.4854 Y13.5000 
G01 Z-0.812800
G01 Z2.540000
G00 X-89.5146 Y13.5000 
G01 Z-0.812800
G01 Z2.540000
G00 X-87.0000 Y-0.4854 
G01 Z-0.812800
G01 Z2.540000
G00 X-87.0000 Y-5.5146 
G01 Z-0.812800
G01 Z2.540000
G00 X-77.5146 Y-5.0000 
G01 Z-0.812800
G01 Z2.540000
G00 X-72.4854 Y-5.0000 
G01 Z-0.812800
G01 Z2.540000
G00 X-72.4854 Y-15.0000 
G01 Z-0.812800
G01 Z2.540000
G00 X-77.5146 Y-15.0000 
G01 Z-0.812800
G01 Z2.540000
G00 X-59.5296 Y-16.4200 
G01 Z-0.812800
G01 Z2.540000
G00 X-54.5004 Y-16.4200 
G01 Z-0.812800
G01 Z2.540000
M05
G00 Z25.4000 
G00 X0.0000 Y0.0000 
M06 T06  ; 3.3020 
G01 Z0.0000 F508.00 
M06 
G00 Z2.5400 
M03
G04 P3.000000
G00 Z2.540000
G00 X-36.5900 Y32.2710 
G01 Z-0.8128 F508.00 
G01 Z2.540000
(R2.5400  P1.000000)
G00 X-36.7750 Y49.2910 
G01 Z-0.812800
G01 Z2.540000
G00 X-36.8350 Y-14.9410 
G01 Z-0.812800
G01 Z2.540000
G00 X-36.9950 Y-32.1310 
G01 Z-0.812800
G01 Z2.540000
G00 X-87.0000 Y-34.1760 
G01 Z-0.812800
G01 Z2.540000
T01 
G00 Z12.7000 
M05
M02
