(.../pcb-gcode-3.6.2.4/pcb-gcode.ulp)
(Copyright 2005 - 2012 by John Johnson)
(See readme.txt for licensing terms.)
(This file generated from the board:)
(.../Documents/eagle/H2/untitled.brd)
(Current profile is .../pcb-gcode-3.6.2.4/profiles/generic.pp  )
(This file generated 17.05.2017 16:52)
(Settings from pcb-machine.h)
(spindle on time = 3.0000)
(  Tool Size)
(0.0600 )
(spindle speed = 30000.0000)
(tool change at 0.0000 0.0000 25.4000 )
(feed rate xy = F508.00 )
(feed rate z  = F254.00 )
(Z Axis Settings)
(  High     Up        Down     Drill)
(12.7000 	2.5400 	-0.1778 	-0.8128 )
(Settings from pcb-defaults.h)
(isolate min = 0.0000)
(isolate max = 0.3810)
(isolate step = 0.0240)
(Generated top outlines, top drill, bottom outlines, bottom drill, )
(Unit of measure: mm)
(Metric Mode)
G21
(Absolute Coordinates)
G90
S30000
G00 Z12.7000 
G00 X0.0000 Y0.0000 
M03
G04 P3.000000
G00 Z2.5400 
G00 X-1.6340 Y-0.5096 
G01 Z-0.1778 F254.00 
G01 X-1.2296 Y-0.9140 F508.00 
G01 X-1.2296 Y-1.4860 
G01 X-1.6340 Y-1.8904 
G01 X-2.2060 Y-1.8904 
G01 X-2.6104 Y-1.4860 
G01 X-2.6104 Y-0.9140 
G01 X-2.2060 Y-0.5096 
G01 X-1.6340 Y-0.5096 
G00 Z2.5400 
G00 X-1.6540 Y0.8096 
G01 Z-0.1778 F254.00 
G01 X-2.2260 Y0.8096 F508.00 
G01 X-2.6304 Y1.2140 
G01 X-2.6304 Y1.7860 
G01 X-2.2260 Y2.1904 
G01 X-1.6540 Y2.1904 
G01 X-1.2496 Y1.7860 
G01 X-1.2496 Y1.2140 
G01 X-1.6540 Y0.8096 
G00 Z2.5400 
G00 X-1.6140 Y-3.8096 
G01 Z-0.1778 F254.00 
G01 X-1.2096 Y-4.2140 F508.00 
G01 X-1.2096 Y-4.7860 
G01 X-1.6140 Y-5.1904 
G01 X-2.1860 Y-5.1904 
G01 X-2.5904 Y-4.7860 
G01 X-2.5904 Y-4.2140 
G01 X-2.1860 Y-3.8096 
G01 X-1.6140 Y-3.8096 
G00 Z2.5400 
G00 X-2.7788 Y-8.9126 
G01 Z-0.1778 F254.00 
G01 X-2.6366 Y-9.0548 F508.00 
G01 X-2.5250 Y-9.2220 
G01 X-2.4480 Y-9.4077 
G01 X-2.4088 Y-9.6049 
G01 X-2.4088 Y-9.8059 
G01 X-2.4480 Y-10.0031 
G01 X-2.5250 Y-10.1888 
G01 X-2.6366 Y-10.3560 
G01 X-2.7788 Y-10.4982 
G01 X-2.9460 Y-10.6098 
G01 X-3.1317 Y-10.6868 
G01 X-3.3289 Y-10.7260 
G01 X-5.5111 Y-10.7260 
G01 X-5.7083 Y-10.6868 
G01 X-5.8940 Y-10.6098 
G01 X-6.0612 Y-10.4982 
G01 X-6.2034 Y-10.3560 
G01 X-6.3150 Y-10.1888 
G01 X-6.3920 Y-10.0031 
G01 X-6.4312 Y-9.8059 
G01 X-6.4312 Y-9.6049 
G01 X-6.3920 Y-9.4077 
G01 X-6.3150 Y-9.2220 
G01 X-6.2034 Y-9.0548 
G01 X-6.0612 Y-8.9126 
G01 X-5.8940 Y-8.8010 
G01 X-5.7083 Y-8.7240 
G01 X-5.5111 Y-8.6848 
G01 X-3.3289 Y-8.6848 
G01 X-3.1317 Y-8.7240 
G01 X-2.9460 Y-8.8010 
G01 X-2.7788 Y-8.9126 
G00 Z2.5400 
G00 X-2.7788 Y-13.9418 
G01 Z-0.1778 F254.00 
G01 X-2.6366 Y-14.0840 F508.00 
G01 X-2.5250 Y-14.2512 
G01 X-2.4480 Y-14.4369 
G01 X-2.4088 Y-14.6341 
G01 X-2.4088 Y-14.8351 
G01 X-2.4480 Y-15.0323 
G01 X-2.5250 Y-15.2180 
G01 X-2.6366 Y-15.3852 
G01 X-2.7788 Y-15.5274 
G01 X-2.9460 Y-15.6390 
G01 X-3.1317 Y-15.7160 
G01 X-3.3289 Y-15.7552 
G01 X-5.5111 Y-15.7552 
G01 X-5.7083 Y-15.7160 
G01 X-5.8940 Y-15.6390 
G01 X-6.0612 Y-15.5274 
G01 X-6.2034 Y-15.3852 
G01 X-6.3150 Y-15.2180 
G01 X-6.3920 Y-15.0323 
G01 X-6.4312 Y-14.8351 
G01 X-6.4312 Y-14.6341 
G01 X-6.3920 Y-14.4369 
G01 X-6.3150 Y-14.2512 
G01 X-6.2034 Y-14.0840 
G01 X-6.0612 Y-13.9418 
G01 X-5.8940 Y-13.8302 
G01 X-5.7083 Y-13.7532 
G01 X-5.5111 Y-13.7140 
G01 X-3.3289 Y-13.7140 
G01 X-3.1317 Y-13.7532 
G01 X-2.9460 Y-13.8302 
G01 X-2.7788 Y-13.9418 
G00 Z2.5400 
G00 X-6.9844 Y-13.9668 
G01 Z-0.1778 F254.00 
G01 X-6.9668 Y-13.9844 F508.00 
G01 X-6.9668 Y-15.0156 
G01 X-6.9844 Y-15.0332 
G01 X-8.0156 Y-15.0332 
G01 X-8.0332 Y-15.0156 
G01 X-8.0332 Y-14.8348 
G01 X-27.5441 Y-14.8348 
G01 X-27.6292 Y-14.8120 
G01 X-27.7056 Y-14.7679 
G01 X-27.7679 Y-14.7056 
G01 X-27.8120 Y-14.6292 
G01 X-27.8348 Y-14.5441 
G01 X-27.8348 Y-11.3348 
G01 X-28.5441 Y-11.3348 
G01 X-28.6292 Y-11.3120 
G01 X-28.7056 Y-11.2679 
G01 X-28.7679 Y-11.2056 
G01 X-28.8120 Y-11.1292 
G01 X-28.8348 Y-11.0441 
G01 X-28.8348 Y-8.3348 
G01 X-33.4668 Y-8.3348 
G01 X-33.4668 Y-8.5156 
G01 X-33.4844 Y-8.5332 
G01 X-34.5156 Y-8.5332 
G01 X-34.5332 Y-8.5156 
G01 X-34.5332 Y-7.4844 
G01 X-34.5156 Y-7.4668 
G01 X-33.4844 Y-7.4668 
G01 X-33.4668 Y-7.4844 
G01 X-33.4668 Y-7.6652 
G01 X-28.4559 Y-7.6652 
G01 X-28.3708 Y-7.6880 
G01 X-28.2944 Y-7.7321 
G01 X-28.2321 Y-7.7944 
G01 X-28.1880 Y-7.8708 
G01 X-28.1652 Y-7.9559 
G01 X-28.1652 Y-10.6652 
G01 X-27.4559 Y-10.6652 
G01 X-27.3708 Y-10.6880 
G01 X-27.2944 Y-10.7321 
G01 X-27.2321 Y-10.7944 
G01 X-27.1880 Y-10.8708 
G01 X-27.1652 Y-10.9559 
G01 X-27.1652 Y-14.1652 
G01 X-8.0332 Y-14.1652 
G01 X-8.0332 Y-13.9844 
G01 X-8.0156 Y-13.9668 
G01 X-6.9844 Y-13.9668 
G00 Z2.5400 
G00 X-10.5949 Y-15.7287 
G01 Z-0.1778 F254.00 
G01 X-10.4987 Y-15.8249 F508.00 
G01 X-10.4232 Y-15.9380 
G01 X-10.3711 Y-16.0636 
G01 X-10.3446 Y-16.1970 
G01 X-10.3446 Y-17.6538 
G01 X-10.3711 Y-17.7872 
G01 X-10.4232 Y-17.9128 
G01 X-10.4987 Y-18.0259 
G01 X-10.5949 Y-18.1221 
G01 X-10.7080 Y-18.1976 
G01 X-10.8336 Y-18.2497 
G01 X-10.9670 Y-18.2762 
G01 X-11.1030 Y-18.2762 
G01 X-11.2364 Y-18.2497 
G01 X-11.3620 Y-18.1976 
G01 X-11.4751 Y-18.1221 
G01 X-11.5713 Y-18.0259 
G01 X-11.6468 Y-17.9128 
G01 X-11.6989 Y-17.7872 
G01 X-11.7254 Y-17.6538 
G01 X-11.7254 Y-16.1970 
G01 X-11.6989 Y-16.0636 
G01 X-11.6468 Y-15.9380 
G01 X-11.5713 Y-15.8249 
G01 X-11.4751 Y-15.7287 
G01 X-11.3620 Y-15.6532 
G01 X-11.2364 Y-15.6011 
G01 X-11.1030 Y-15.5746 
G01 X-10.9670 Y-15.5746 
G01 X-10.8336 Y-15.6011 
G01 X-10.7080 Y-15.6532 
G01 X-10.5949 Y-15.7287 
G00 Z2.5400 
G00 X-13.1349 Y-15.7287 
G01 Z-0.1778 F254.00 
G01 X-13.0387 Y-15.8249 F508.00 
G01 X-12.9632 Y-15.9380 
G01 X-12.9111 Y-16.0636 
G01 X-12.8846 Y-16.1970 
G01 X-12.8846 Y-17.6538 
G01 X-12.9111 Y-17.7872 
G01 X-12.9632 Y-17.9128 
G01 X-13.0387 Y-18.0259 
G01 X-13.1349 Y-18.1221 
G01 X-13.2480 Y-18.1976 
G01 X-13.3736 Y-18.2497 
G01 X-13.5070 Y-18.2762 
G01 X-13.6430 Y-18.2762 
G01 X-13.7764 Y-18.2497 
G01 X-13.9020 Y-18.1976 
G01 X-14.0151 Y-18.1221 
G01 X-14.1113 Y-18.0259 
G01 X-14.1868 Y-17.9128 
G01 X-14.2389 Y-17.7872 
G01 X-14.2654 Y-17.6538 
G01 X-14.2654 Y-16.1970 
G01 X-14.2389 Y-16.0636 
G01 X-14.1868 Y-15.9380 
G01 X-14.1113 Y-15.8249 
G01 X-14.0151 Y-15.7287 
G01 X-13.9020 Y-15.6532 
G01 X-13.7764 Y-15.6011 
G01 X-13.6430 Y-15.5746 
G01 X-13.5070 Y-15.5746 
G01 X-13.3736 Y-15.6011 
G01 X-13.2480 Y-15.6532 
G01 X-13.1349 Y-15.7287 
G00 Z2.5400 
G00 X-16.2140 Y-17.9896 
G01 Z-0.1778 F254.00 
G01 X-15.8096 Y-18.3940 F508.00 
G01 X-15.8096 Y-18.9660 
G01 X-16.2140 Y-19.3704 
G01 X-16.7860 Y-19.3704 
G01 X-17.1904 Y-18.9660 
G01 X-17.1904 Y-18.3940 
G01 X-16.7860 Y-17.9896 
G01 X-16.2140 Y-17.9896 
G00 Z2.5400 
G00 X-16.2140 Y-11.7504 
G01 Z-0.1778 F254.00 
G01 X-16.7860 Y-11.7504 F508.00 
G01 X-17.1904 Y-11.3460 
G01 X-17.1904 Y-10.7740 
G01 X-16.7860 Y-10.3696 
G01 X-16.2140 Y-10.3696 
G01 X-15.8096 Y-10.7740 
G01 X-15.8096 Y-11.3460 
G01 X-16.2140 Y-11.7504 
G00 Z2.5400 
G00 X-16.2562 Y-10.1304 
G01 Z-0.1778 F254.00 
G01 X-17.7130 Y-10.1304 F508.00 
G01 X-17.8464 Y-10.1039 
G01 X-17.9720 Y-10.0518 
G01 X-18.0851 Y-9.9763 
G01 X-18.1813 Y-9.8801 
G01 X-18.2568 Y-9.7670 
G01 X-18.3089 Y-9.6414 
G01 X-18.3354 Y-9.5080 
G01 X-18.3354 Y-9.3720 
G01 X-18.3089 Y-9.2386 
G01 X-18.2568 Y-9.1130 
G01 X-18.1813 Y-8.9999 
G01 X-18.0851 Y-8.9037 
G01 X-17.9720 Y-8.8282 
G01 X-17.8464 Y-8.7761 
G01 X-17.7130 Y-8.7496 
G01 X-16.2562 Y-8.7496 
G01 X-16.1228 Y-8.7761 
G01 X-15.9972 Y-8.8282 
G01 X-15.8841 Y-8.9037 
G01 X-15.7879 Y-8.9999 
G01 X-15.7124 Y-9.1130 
G01 X-15.6603 Y-9.2386 
G01 X-15.6338 Y-9.3720 
G01 X-15.6338 Y-9.5080 
G01 X-15.6603 Y-9.6414 
G01 X-15.7124 Y-9.7670 
G01 X-15.7879 Y-9.8801 
G01 X-15.8841 Y-9.9763 
G01 X-15.9972 Y-10.0518 
G01 X-16.1228 Y-10.1039 
G01 X-16.2562 Y-10.1304 
G00 Z2.5400 
G00 X-16.2562 Y-7.5904 
G01 Z-0.1778 F254.00 
G01 X-17.7130 Y-7.5904 F508.00 
G01 X-17.8464 Y-7.5639 
G01 X-17.9720 Y-7.5118 
G01 X-18.0851 Y-7.4363 
G01 X-18.1813 Y-7.3401 
G01 X-18.2568 Y-7.2270 
G01 X-18.3089 Y-7.1014 
G01 X-18.3354 Y-6.9680 
G01 X-18.3354 Y-6.8320 
G01 X-18.3089 Y-6.6986 
G01 X-18.2568 Y-6.5730 
G01 X-18.1813 Y-6.4599 
G01 X-18.0851 Y-6.3637 
G01 X-17.9720 Y-6.2882 
G01 X-17.8464 Y-6.2361 
G01 X-17.7130 Y-6.2096 
G01 X-16.2562 Y-6.2096 
G01 X-16.1228 Y-6.2361 
G01 X-15.9972 Y-6.2882 
G01 X-15.8841 Y-6.3637 
G01 X-15.7879 Y-6.4599 
G01 X-15.7124 Y-6.5730 
G01 X-15.6603 Y-6.6986 
G01 X-15.6338 Y-6.8320 
G01 X-15.6338 Y-6.9680 
G01 X-15.6603 Y-7.1014 
G01 X-15.7124 Y-7.2270 
G01 X-15.7879 Y-7.3401 
G01 X-15.8841 Y-7.4363 
G01 X-15.9972 Y-7.5118 
G01 X-16.1228 Y-7.5639 
G01 X-16.2562 Y-7.5904 
G00 Z2.5400 
G00 X-14.2654 Y-7.2562 
G01 Z-0.1778 F254.00 
G01 X-14.2389 Y-7.1228 F508.00 
G01 X-14.1868 Y-6.9972 
G01 X-14.1113 Y-6.8841 
G01 X-14.0151 Y-6.7879 
G01 X-13.9020 Y-6.7124 
G01 X-13.7764 Y-6.6603 
G01 X-13.6430 Y-6.6338 
G01 X-13.5070 Y-6.6338 
G01 X-13.3736 Y-6.6603 
G01 X-13.2480 Y-6.7124 
G01 X-13.1349 Y-6.7879 
G01 X-13.0387 Y-6.8841 
G01 X-12.9632 Y-6.9972 
G01 X-12.9111 Y-7.1228 
G01 X-12.8846 Y-7.2562 
G01 X-12.8846 Y-8.7130 
G01 X-12.9111 Y-8.8464 
G01 X-12.9632 Y-8.9720 
G01 X-13.0387 Y-9.0851 
G01 X-13.1349 Y-9.1813 
G01 X-13.2480 Y-9.2568 
G01 X-13.3736 Y-9.3089 
G01 X-13.5070 Y-9.3354 
G01 X-13.6430 Y-9.3354 
G01 X-13.7764 Y-9.3089 
G01 X-13.9020 Y-9.2568 
G01 X-14.0151 Y-9.1813 
G01 X-14.1113 Y-9.0851 
G01 X-14.1868 Y-8.9720 
G01 X-14.2389 Y-8.8464 
G01 X-14.2654 Y-8.7130 
G01 X-14.2654 Y-7.2562 
G00 Z2.5400 
G00 X-11.7254 Y-7.2562 
G01 Z-0.1778 F254.00 
G01 X-11.6989 Y-7.1228 F508.00 
G01 X-11.6468 Y-6.9972 
G01 X-11.5713 Y-6.8841 
G01 X-11.4751 Y-6.7879 
G01 X-11.3620 Y-6.7124 
G01 X-11.2364 Y-6.6603 
G01 X-11.1030 Y-6.6338 
G01 X-10.9670 Y-6.6338 
G01 X-10.8336 Y-6.6603 
G01 X-10.7080 Y-6.7124 
G01 X-10.5949 Y-6.7879 
G01 X-10.4987 Y-6.8841 
G01 X-10.4232 Y-6.9972 
G01 X-10.3711 Y-7.1228 
G01 X-10.3446 Y-7.2562 
G01 X-10.3446 Y-8.7130 
G01 X-10.3711 Y-8.8464 
G01 X-10.4232 Y-8.9720 
G01 X-10.4987 Y-9.0851 
G01 X-10.5949 Y-9.1813 
G01 X-10.7080 Y-9.2568 
G01 X-10.8336 Y-9.3089 
G01 X-10.9670 Y-9.3354 
G01 X-11.1030 Y-9.3354 
G01 X-11.2364 Y-9.3089 
G01 X-11.3620 Y-9.2568 
G01 X-11.4751 Y-9.1813 
G01 X-11.5713 Y-9.0851 
G01 X-11.6468 Y-8.9720 
G01 X-11.6989 Y-8.8464 
G01 X-11.7254 Y-8.7130 
G01 X-11.7254 Y-7.2562 
G00 Z2.5400 
G00 X-11.8096 Y-4.4760 
G01 Z-0.1778 F254.00 
G01 X-12.2140 Y-4.8804 F508.00 
G01 X-12.7860 Y-4.8804 
G01 X-13.1904 Y-4.4760 
G01 X-13.1904 Y-3.9040 
G01 X-12.7860 Y-3.4996 
G01 X-12.2140 Y-3.4996 
G01 X-11.8096 Y-3.9040 
G01 X-11.8096 Y-4.4760 
G00 Z2.5400 
G00 X-10.2104 Y-4.2140 
G01 Z-0.1778 F254.00 
G01 X-9.8060 Y-3.8096 F508.00 
G01 X-9.2340 Y-3.8096 
G01 X-8.8296 Y-4.2140 
G01 X-8.8296 Y-4.7860 
G01 X-9.2340 Y-5.1904 
G01 X-9.8060 Y-5.1904 
G01 X-10.2104 Y-4.7860 
G01 X-10.2104 Y-4.2140 
G00 Z2.5400 
G00 X-9.8260 Y-1.8904 
G01 Z-0.1778 F254.00 
G01 X-10.2304 Y-1.4860 F508.00 
G01 X-10.2304 Y-0.9140 
G01 X-9.8260 Y-0.5096 
G01 X-9.2540 Y-0.5096 
G01 X-8.8496 Y-0.9140 
G01 X-8.8496 Y-1.4860 
G01 X-9.2540 Y-1.8904 
G01 X-9.8260 Y-1.8904 
G00 Z2.5400 
G00 X-9.8460 Y0.8096 
G01 Z-0.1778 F254.00 
G01 X-10.2504 Y1.2140 F508.00 
G01 X-10.2504 Y1.7860 
G01 X-9.8460 Y2.1904 
G01 X-9.2740 Y2.1904 
G01 X-8.8696 Y1.7860 
G01 X-8.8696 Y1.2140 
G01 X-9.2740 Y0.8096 
G01 X-9.8460 Y0.8096 
G00 Z2.5400 
G00 X-11.8096 Y3.1440 
G01 Z-0.1778 F254.00 
G01 X-12.2140 Y2.7396 F508.00 
G01 X-12.7860 Y2.7396 
G01 X-13.1904 Y3.1440 
G01 X-13.1904 Y3.7160 
G01 X-12.7860 Y4.1204 
G01 X-12.2140 Y4.1204 
G01 X-11.8096 Y3.7160 
G01 X-11.8096 Y3.1440 
G00 Z2.5400 
G00 X-15.3096 Y3.2340 
G01 Z-0.1778 F254.00 
G01 X-15.7140 Y2.8296 F508.00 
G01 X-16.2860 Y2.8296 
G01 X-16.6904 Y3.2340 
G01 X-16.6904 Y3.8060 
G01 X-16.2860 Y4.2104 
G01 X-15.7140 Y4.2104 
G01 X-15.3096 Y3.8060 
G01 X-15.3096 Y3.2340 
G00 Z2.5400 
G00 X-19.4668 Y3.5156 
G01 Z-0.1778 F254.00 
G01 X-19.4668 Y2.4844 F508.00 
G01 X-19.4844 Y2.4668 
G01 X-20.5156 Y2.4668 
G01 X-20.5332 Y2.4844 
G01 X-20.5332 Y3.5156 
G01 X-20.5156 Y3.5332 
G01 X-20.3348 Y3.5332 
G01 X-20.3348 Y15.4668 
G01 X-20.5156 Y15.4668 
G01 X-20.5332 Y15.4844 
G01 X-20.5332 Y16.5156 
G01 X-20.5156 Y16.5332 
G01 X-19.4844 Y16.5332 
G01 X-19.4668 Y16.5156 
G01 X-19.4668 Y15.4844 
G01 X-19.4844 Y15.4668 
G01 X-19.6652 Y15.4668 
G01 X-19.6652 Y3.5332 
G01 X-19.4844 Y3.5332 
G01 X-19.4668 Y3.5156 
G00 Z2.5400 
G00 X-19.0963 Y1.4805 
G01 Z-0.1778 F254.00 
G01 X-19.0001 Y1.5767 F508.00 
G01 X-18.8870 Y1.6522 
G01 X-18.7614 Y1.7043 
G01 X-18.6280 Y1.7308 
G01 X-18.4920 Y1.7308 
G01 X-18.3586 Y1.7043 
G01 X-18.2330 Y1.6522 
G01 X-18.1199 Y1.5767 
G01 X-18.0237 Y1.4805 
G01 X-17.9482 Y1.3674 
G01 X-17.8961 Y1.2418 
G01 X-17.8696 Y1.1084 
G01 X-17.8696 Y-0.3484 
G01 X-17.8961 Y-0.4818 
G01 X-17.9482 Y-0.6074 
G01 X-18.0237 Y-0.7205 
G01 X-18.1199 Y-0.8167 
G01 X-18.2330 Y-0.8922 
G01 X-18.3586 Y-0.9443 
G01 X-18.4920 Y-0.9708 
G01 X-18.6280 Y-0.9708 
G01 X-18.7614 Y-0.9443 
G01 X-18.8870 Y-0.8922 
G01 X-19.0001 Y-0.8167 
G01 X-19.0963 Y-0.7205 
G01 X-19.1718 Y-0.6074 
G01 X-19.2239 Y-0.4818 
G01 X-19.2504 Y-0.3484 
G01 X-19.2504 Y1.1084 
G01 X-19.2239 Y1.2418 
G01 X-19.1718 Y1.3674 
G01 X-19.0963 Y1.4805 
G00 Z2.5400 
G00 X-20.5637 Y1.4805 
G01 Z-0.1778 F254.00 
G01 X-20.4882 Y1.3674 F508.00 
G01 X-20.4361 Y1.2418 
G01 X-20.4096 Y1.1084 
G01 X-20.4096 Y-0.3484 
G01 X-20.4361 Y-0.4818 
G01 X-20.4882 Y-0.6074 
G01 X-20.5637 Y-0.7205 
G01 X-20.6599 Y-0.8167 
G01 X-20.7730 Y-0.8922 
G01 X-20.8986 Y-0.9443 
G01 X-21.0320 Y-0.9708 
G01 X-21.1680 Y-0.9708 
G01 X-21.3014 Y-0.9443 
G01 X-21.4270 Y-0.8922 
G01 X-21.5401 Y-0.8167 
G01 X-21.6363 Y-0.7205 
G01 X-21.7118 Y-0.6074 
G01 X-21.7639 Y-0.4818 
G01 X-21.7904 Y-0.3484 
G01 X-21.7904 Y1.1084 
G01 X-21.7639 Y1.2418 
G01 X-21.7118 Y1.3674 
G01 X-21.6363 Y1.4805 
G01 X-21.5401 Y1.5767 
G01 X-21.4270 Y1.6522 
G01 X-21.3014 Y1.7043 
G01 X-21.1680 Y1.7308 
G01 X-21.0320 Y1.7308 
G01 X-20.8986 Y1.7043 
G01 X-20.7730 Y1.6522 
G01 X-20.6599 Y1.5767 
G01 X-20.5637 Y1.4805 
G00 Z2.5400 
G00 X-23.1037 Y1.4805 
G01 Z-0.1778 F254.00 
G01 X-23.0282 Y1.3674 F508.00 
G01 X-22.9761 Y1.2418 
G01 X-22.9496 Y1.1084 
G01 X-22.9496 Y-0.3484 
G01 X-22.9761 Y-0.4818 
G01 X-23.0282 Y-0.6074 
G01 X-23.1037 Y-0.7205 
G01 X-23.1999 Y-0.8167 
G01 X-23.3130 Y-0.8922 
G01 X-23.4386 Y-0.9443 
G01 X-23.5720 Y-0.9708 
G01 X-23.7080 Y-0.9708 
G01 X-23.8414 Y-0.9443 
G01 X-23.9670 Y-0.8922 
G01 X-24.0801 Y-0.8167 
G01 X-24.1763 Y-0.7205 
G01 X-24.2518 Y-0.6074 
G01 X-24.3039 Y-0.4818 
G01 X-24.3304 Y-0.3484 
G01 X-24.3304 Y1.1084 
G01 X-24.3039 Y1.2418 
G01 X-24.2518 Y1.3674 
G01 X-24.1763 Y1.4805 
G01 X-24.0801 Y1.5767 
G01 X-23.9670 Y1.6522 
G01 X-23.8414 Y1.7043 
G01 X-23.7080 Y1.7308 
G01 X-23.5720 Y1.7308 
G01 X-23.4386 Y1.7043 
G01 X-23.3130 Y1.6522 
G01 X-23.1999 Y1.5767 
G01 X-23.1037 Y1.4805 
G00 Z2.5400 
G00 X-23.4156 Y-2.8668 
G01 Z-0.1778 F254.00 
G01 X-22.3844 Y-2.8668 F508.00 
G01 X-22.3668 Y-2.8844 
G01 X-22.3668 Y-3.0652 
G01 X-18.5332 Y-3.0652 
G01 X-18.5332 Y-2.8844 
G01 X-18.5156 Y-2.8668 
G01 X-17.4844 Y-2.8668 
G01 X-17.4668 Y-2.8844 
G01 X-17.4668 Y-3.9156 
G01 X-17.4844 Y-3.9332 
G01 X-18.5156 Y-3.9332 
G01 X-18.5332 Y-3.9156 
G01 X-18.5332 Y-3.7348 
G01 X-22.3668 Y-3.7348 
G01 X-22.3668 Y-3.9156 
G01 X-22.3844 Y-3.9332 
G01 X-23.4156 Y-3.9332 
G01 X-23.4332 Y-3.9156 
G01 X-23.4332 Y-2.8844 
G01 X-23.4156 Y-2.8668 
G00 Z2.5400 
G00 X-24.2896 Y-2.6516 
G01 Z-0.1778 F254.00 
G01 X-24.2896 Y-4.1084 F508.00 
G01 X-24.3161 Y-4.2418 
G01 X-24.3682 Y-4.3674 
G01 X-24.4437 Y-4.4805 
G01 X-24.5399 Y-4.5767 
G01 X-24.6530 Y-4.6522 
G01 X-24.7786 Y-4.7043 
G01 X-24.9120 Y-4.7308 
G01 X-25.0480 Y-4.7308 
G01 X-25.1814 Y-4.7043 
G01 X-25.3070 Y-4.6522 
G01 X-25.4201 Y-4.5767 
G01 X-25.5163 Y-4.4805 
G01 X-25.5918 Y-4.3674 
G01 X-25.6439 Y-4.2418 
G01 X-25.6704 Y-4.1084 
G01 X-25.6704 Y-2.6516 
G01 X-25.6439 Y-2.5182 
G01 X-25.5918 Y-2.3926 
G01 X-25.5163 Y-2.2795 
G01 X-25.4201 Y-2.1833 
G01 X-25.3070 Y-2.1078 
G01 X-25.1814 Y-2.0557 
G01 X-25.0480 Y-2.0292 
G01 X-24.9120 Y-2.0292 
G01 X-24.7786 Y-2.0557 
G01 X-24.6530 Y-2.1078 
G01 X-24.5399 Y-2.1833 
G01 X-24.4437 Y-2.2795 
G01 X-24.3682 Y-2.3926 
G01 X-24.3161 Y-2.5182 
G01 X-24.2896 Y-2.6516 
G00 Z2.5400 
G00 X-26.8296 Y-2.6516 
G01 Z-0.1778 F254.00 
G01 X-26.8296 Y-4.1084 F508.00 
G01 X-26.8561 Y-4.2418 
G01 X-26.9082 Y-4.3674 
G01 X-26.9837 Y-4.4805 
G01 X-27.0799 Y-4.5767 
G01 X-27.1930 Y-4.6522 
G01 X-27.3186 Y-4.7043 
G01 X-27.4520 Y-4.7308 
G01 X-27.5880 Y-4.7308 
G01 X-27.7214 Y-4.7043 
G01 X-27.8470 Y-4.6522 
G01 X-27.9601 Y-4.5767 
G01 X-28.0563 Y-4.4805 
G01 X-28.1318 Y-4.3674 
G01 X-28.1839 Y-4.2418 
G01 X-28.2104 Y-4.1084 
G01 X-28.2104 Y-2.6516 
G01 X-28.1839 Y-2.5182 
G01 X-28.1318 Y-2.3926 
G01 X-28.0563 Y-2.2795 
G01 X-27.9601 Y-2.1833 
G01 X-27.8470 Y-2.1078 
G01 X-27.7214 Y-2.0557 
G01 X-27.5880 Y-2.0292 
G01 X-27.4520 Y-2.0292 
G01 X-27.3186 Y-2.0557 
G01 X-27.1930 Y-2.1078 
G01 X-27.0799 Y-2.1833 
G01 X-26.9837 Y-2.2795 
G01 X-26.9082 Y-2.3926 
G01 X-26.8561 Y-2.5182 
G01 X-26.8296 Y-2.6516 
G00 Z2.5400 
G00 X-29.3696 Y-2.6516 
G01 Z-0.1778 F254.00 
G01 X-29.3696 Y-4.1084 F508.00 
G01 X-29.3961 Y-4.2418 
G01 X-29.4482 Y-4.3674 
G01 X-29.5237 Y-4.4805 
G01 X-29.6199 Y-4.5767 
G01 X-29.7330 Y-4.6522 
G01 X-29.8586 Y-4.7043 
G01 X-29.9920 Y-4.7308 
G01 X-30.1280 Y-4.7308 
G01 X-30.2614 Y-4.7043 
G01 X-30.3870 Y-4.6522 
G01 X-30.5001 Y-4.5767 
G01 X-30.5963 Y-4.4805 
G01 X-30.6718 Y-4.3674 
G01 X-30.7239 Y-4.2418 
G01 X-30.7504 Y-4.1084 
G01 X-30.7504 Y-3.6031 
G01 X-30.7679 Y-3.5856 
G01 X-30.8120 Y-3.5092 
G01 X-30.8348 Y-3.4241 
G01 X-30.8348 Y1.5441 
G01 X-30.8120 Y1.6292 
G01 X-30.7679 Y1.7056 
G01 X-30.7056 Y1.7679 
G01 X-30.6292 Y1.8120 
G01 X-30.5441 Y1.8348 
G01 X-29.3348 Y1.8348 
G01 X-29.3348 Y4.9668 
G01 X-29.5156 Y4.9668 
G01 X-29.5332 Y4.9844 
G01 X-29.5332 Y6.0156 
G01 X-29.5156 Y6.0332 
G01 X-29.3348 Y6.0332 
G01 X-29.3348 Y11.9668 
G01 X-29.5156 Y11.9668 
G01 X-29.5332 Y11.9844 
G01 X-29.5332 Y13.0156 
G01 X-29.5156 Y13.0332 
G01 X-28.4844 Y13.0332 
G01 X-28.4668 Y13.0156 
G01 X-28.4668 Y11.9844 
G01 X-28.4844 Y11.9668 
G01 X-28.6652 Y11.9668 
G01 X-28.6652 Y6.0332 
G01 X-28.4844 Y6.0332 
G01 X-28.4668 Y6.0156 
G01 X-28.4668 Y4.9844 
G01 X-28.4844 Y4.9668 
G01 X-28.6652 Y4.9668 
G01 X-28.6652 Y1.4559 
G01 X-28.6880 Y1.3708 
G01 X-28.7321 Y1.2944 
G01 X-28.7944 Y1.2321 
G01 X-28.8708 Y1.1880 
G01 X-28.9559 Y1.1652 
G01 X-30.1652 Y1.1652 
G01 X-30.1652 Y-2.0366 
G01 X-30.1280 Y-2.0292 
G01 X-29.9920 Y-2.0292 
G01 X-29.8586 Y-2.0557 
G01 X-29.7330 Y-2.1078 
G01 X-29.6199 Y-2.1833 
G01 X-29.5237 Y-2.2795 
G01 X-29.4482 Y-2.3926 
G01 X-29.3961 Y-2.5182 
G01 X-29.3696 Y-2.6516 
G00 Z2.5400 
G00 X-27.1221 Y-6.4599 
G01 Z-0.1778 F254.00 
G01 X-27.0259 Y-6.3637 F508.00 
G01 X-26.9128 Y-6.2882 
G01 X-26.7872 Y-6.2361 
G01 X-26.6538 Y-6.2096 
G01 X-25.1970 Y-6.2096 
G01 X-25.0636 Y-6.2361 
G01 X-24.9380 Y-6.2882 
G01 X-24.8249 Y-6.3637 
G01 X-24.7287 Y-6.4599 
G01 X-24.6532 Y-6.5730 
G01 X-24.6011 Y-6.6986 
G01 X-24.5746 Y-6.8320 
G01 X-24.5746 Y-6.9680 
G01 X-24.6011 Y-7.1014 
G01 X-24.6532 Y-7.2270 
G01 X-24.7287 Y-7.3401 
G01 X-24.8249 Y-7.4363 
G01 X-24.9380 Y-7.5118 
G01 X-25.0636 Y-7.5639 
G01 X-25.1970 Y-7.5904 
G01 X-26.6538 Y-7.5904 
G01 X-26.7872 Y-7.5639 
G01 X-26.9128 Y-7.5118 
G01 X-27.0259 Y-7.4363 
G01 X-27.1221 Y-7.3401 
G01 X-27.1976 Y-7.2270 
G01 X-27.2497 Y-7.1014 
G01 X-27.2762 Y-6.9680 
G01 X-27.2762 Y-6.8320 
G01 X-27.2497 Y-6.6986 
G01 X-27.1976 Y-6.5730 
G01 X-27.1221 Y-6.4599 
G00 Z2.5400 
G00 X-27.1221 Y-8.9999 
G01 Z-0.1778 F254.00 
G01 X-27.0259 Y-8.9037 F508.00 
G01 X-26.9128 Y-8.8282 
G01 X-26.7872 Y-8.7761 
G01 X-26.6538 Y-8.7496 
G01 X-25.1970 Y-8.7496 
G01 X-25.0636 Y-8.7761 
G01 X-24.9380 Y-8.8282 
G01 X-24.8249 Y-8.9037 
G01 X-24.7287 Y-8.9999 
G01 X-24.6532 Y-9.1130 
G01 X-24.6011 Y-9.2386 
G01 X-24.5746 Y-9.3720 
G01 X-24.5746 Y-9.5080 
G01 X-24.6011 Y-9.6414 
G01 X-24.6532 Y-9.7670 
G01 X-24.7287 Y-9.8801 
G01 X-24.8249 Y-9.9763 
G01 X-24.9380 Y-10.0518 
G01 X-25.0636 Y-10.1039 
G01 X-25.1970 Y-10.1304 
G01 X-26.6538 Y-10.1304 
G01 X-26.7872 Y-10.1039 
G01 X-26.9128 Y-10.0518 
G01 X-27.0259 Y-9.9763 
G01 X-27.1221 Y-9.8801 
G01 X-27.1976 Y-9.7670 
G01 X-27.2497 Y-9.6414 
G01 X-27.2762 Y-9.5080 
G01 X-27.2762 Y-9.3720 
G01 X-27.2497 Y-9.2386 
G01 X-27.1976 Y-9.1130 
G01 X-27.1221 Y-8.9999 
G00 Z2.5400 
G00 X-28.8940 Y-11.8096 
G01 Z-0.1778 F254.00 
G01 X-28.4896 Y-12.2140 F508.00 
G01 X-28.4896 Y-12.7860 
G01 X-28.8940 Y-13.1904 
G01 X-29.4660 Y-13.1904 
G01 X-29.8704 Y-12.7860 
G01 X-29.8704 Y-12.2140 
G01 X-29.4660 Y-11.8096 
G01 X-28.8940 Y-11.8096 
G00 Z2.5400 
G00 X-29.2940 Y-15.8096 
G01 Z-0.1778 F254.00 
G01 X-28.8896 Y-16.2140 F508.00 
G01 X-28.8896 Y-16.7860 
G01 X-29.2940 Y-17.1904 
G01 X-29.8660 Y-17.1904 
G01 X-30.2704 Y-16.7860 
G01 X-30.2704 Y-16.2140 
G01 X-29.8660 Y-15.8096 
G01 X-29.2940 Y-15.8096 
G00 Z2.5400 
G00 X-33.6856 Y-15.8544 
G01 Z-0.1778 F254.00 
G01 X-33.7806 Y-15.9966 F508.00 
G01 X-33.9016 Y-16.1176 
G01 X-34.0438 Y-16.2126 
G01 X-34.2018 Y-16.2780 
G01 X-34.3695 Y-16.3114 
G01 X-34.5405 Y-16.3114 
G01 X-34.7082 Y-16.2780 
G01 X-34.8662 Y-16.2126 
G01 X-35.0084 Y-16.1176 
G01 X-35.1294 Y-15.9966 
G01 X-35.2244 Y-15.8544 
G01 X-35.2898 Y-15.6964 
G01 X-35.3232 Y-15.5287 
G01 X-35.3232 Y-13.6813 
G01 X-35.2898 Y-13.5136 
G01 X-35.2244 Y-13.3555 
G01 X-35.1294 Y-13.2134 
G01 X-35.0084 Y-13.0924 
G01 X-34.8662 Y-12.9974 
G01 X-34.7082 Y-12.9320 
G01 X-34.5405 Y-12.8986 
G01 X-34.3695 Y-12.8986 
G01 X-34.2018 Y-12.9320 
G01 X-34.0438 Y-12.9974 
G01 X-33.9016 Y-13.0924 
G01 X-33.7806 Y-13.2134 
G01 X-33.6856 Y-13.3555 
G01 X-33.6202 Y-13.5136 
G01 X-33.5868 Y-13.6813 
G01 X-33.5868 Y-15.5287 
G01 X-33.6202 Y-15.6964 
G01 X-33.6856 Y-15.8544 
G00 Z2.5400 
G00 X-36.2256 Y-15.8544 
G01 Z-0.1778 F254.00 
G01 X-36.3206 Y-15.9966 F508.00 
G01 X-36.4416 Y-16.1176 
G01 X-36.5838 Y-16.2126 
G01 X-36.7418 Y-16.2780 
G01 X-36.9095 Y-16.3114 
G01 X-37.0805 Y-16.3114 
G01 X-37.2482 Y-16.2780 
G01 X-37.4062 Y-16.2126 
G01 X-37.5484 Y-16.1176 
G01 X-37.6694 Y-15.9966 
G01 X-37.7644 Y-15.8544 
G01 X-37.8298 Y-15.6964 
G01 X-37.8632 Y-15.5287 
G01 X-37.8632 Y-13.6813 
G01 X-37.8298 Y-13.5136 
G01 X-37.7644 Y-13.3555 
G01 X-37.6694 Y-13.2134 
G01 X-37.5484 Y-13.0924 
G01 X-37.4062 Y-12.9974 
G01 X-37.2482 Y-12.9320 
G01 X-37.0805 Y-12.8986 
G01 X-36.9095 Y-12.8986 
G01 X-36.7418 Y-12.9320 
G01 X-36.5838 Y-12.9974 
G01 X-36.4416 Y-13.0924 
G01 X-36.3206 Y-13.2134 
G01 X-36.2256 Y-13.3555 
G01 X-36.1602 Y-13.5136 
G01 X-36.1268 Y-13.6813 
G01 X-36.1268 Y-15.5287 
G01 X-36.1602 Y-15.6964 
G01 X-36.2256 Y-15.8544 
G00 Z2.5400 
G00 X-38.7656 Y-15.8544 
G01 Z-0.1778 F254.00 
G01 X-38.8606 Y-15.9966 F508.00 
G01 X-38.9816 Y-16.1176 
G01 X-39.1238 Y-16.2126 
G01 X-39.2818 Y-16.2780 
G01 X-39.4495 Y-16.3114 
G01 X-39.6205 Y-16.3114 
G01 X-39.7882 Y-16.2780 
G01 X-39.9462 Y-16.2126 
G01 X-40.0884 Y-16.1176 
G01 X-40.2094 Y-15.9966 
G01 X-40.3044 Y-15.8544 
G01 X-40.3698 Y-15.6964 
G01 X-40.4032 Y-15.5287 
G01 X-40.4032 Y-13.6813 
G01 X-40.3698 Y-13.5136 
G01 X-40.3044 Y-13.3555 
G01 X-40.2094 Y-13.2134 
G01 X-40.0884 Y-13.0924 
G01 X-39.9462 Y-12.9974 
G01 X-39.7882 Y-12.9320 
G01 X-39.6205 Y-12.8986 
G01 X-39.4495 Y-12.8986 
G01 X-39.2818 Y-12.9320 
G01 X-39.1238 Y-12.9974 
G01 X-38.9816 Y-13.0924 
G01 X-38.8606 Y-13.2134 
G01 X-38.7656 Y-13.3555 
G01 X-38.7002 Y-13.5136 
G01 X-38.6668 Y-13.6813 
G01 X-38.6668 Y-15.5287 
G01 X-38.7002 Y-15.6964 
G01 X-38.7656 Y-15.8544 
G00 Z2.5400 
G00 X-43.8234 Y-15.8830 
G01 Z-0.1778 F254.00 
G01 X-43.8831 Y-16.0271 F508.00 
G01 X-43.9698 Y-16.1569 
G01 X-44.0801 Y-16.2672 
G01 X-44.2098 Y-16.3539 
G01 X-44.3540 Y-16.4136 
G01 X-44.5070 Y-16.4440 
G01 X-44.6630 Y-16.4440 
G01 X-44.8160 Y-16.4136 
G01 X-44.9601 Y-16.3539 
G01 X-45.0899 Y-16.2672 
G01 X-45.2002 Y-16.1569 
G01 X-45.2869 Y-16.0271 
G01 X-45.3466 Y-15.8830 
G01 X-45.3770 Y-15.7300 
G01 X-45.3770 Y-14.0500 
G01 X-45.3466 Y-13.8970 
G01 X-45.2869 Y-13.7528 
G01 X-45.2002 Y-13.6231 
G01 X-45.0899 Y-13.5128 
G01 X-44.9601 Y-13.4261 
G01 X-44.8160 Y-13.3664 
G01 X-44.6630 Y-13.3360 
G01 X-44.5070 Y-13.3360 
G01 X-44.3540 Y-13.3664 
G01 X-44.2098 Y-13.4261 
G01 X-44.0801 Y-13.5128 
G01 X-43.9698 Y-13.6231 
G01 X-43.8831 Y-13.7528 
G01 X-43.8234 Y-13.8970 
G01 X-43.7930 Y-14.0500 
G01 X-43.7930 Y-15.7300 
G01 X-43.8234 Y-15.8830 
G00 Z2.5400 
G00 X-46.3634 Y-15.8830 
G01 Z-0.1778 F254.00 
G01 X-46.4231 Y-16.0271 F508.00 
G01 X-46.5098 Y-16.1569 
G01 X-46.6201 Y-16.2672 
G01 X-46.7498 Y-16.3539 
G01 X-46.8940 Y-16.4136 
G01 X-47.0470 Y-16.4440 
G01 X-47.2030 Y-16.4440 
G01 X-47.3560 Y-16.4136 
G01 X-47.5001 Y-16.3539 
G01 X-47.6299 Y-16.2672 
G01 X-47.7402 Y-16.1569 
G01 X-47.8269 Y-16.0271 
G01 X-47.8866 Y-15.8830 
G01 X-47.9170 Y-15.7300 
G01 X-47.9170 Y-14.0500 
G01 X-47.8866 Y-13.8970 
G01 X-47.8269 Y-13.7528 
G01 X-47.7402 Y-13.6231 
G01 X-47.6299 Y-13.5128 
G01 X-47.5001 Y-13.4261 
G01 X-47.3560 Y-13.3664 
G01 X-47.2030 Y-13.3360 
G01 X-47.0470 Y-13.3360 
G01 X-46.8940 Y-13.3664 
G01 X-46.7498 Y-13.4261 
G01 X-46.6201 Y-13.5128 
G01 X-46.5098 Y-13.6231 
G01 X-46.4231 Y-13.7528 
G01 X-46.3634 Y-13.8970 
G01 X-46.3330 Y-14.0500 
G01 X-46.3330 Y-15.7300 
G01 X-46.3634 Y-15.8830 
G00 Z2.5400 
G00 X-48.9034 Y-15.8830 
G01 Z-0.1778 F254.00 
G01 X-48.9631 Y-16.0271 F508.00 
G01 X-49.0498 Y-16.1569 
G01 X-49.1601 Y-16.2672 
G01 X-49.2898 Y-16.3539 
G01 X-49.4340 Y-16.4136 
G01 X-49.5870 Y-16.4440 
G01 X-49.7430 Y-16.4440 
G01 X-49.8960 Y-16.4136 
G01 X-50.0401 Y-16.3539 
G01 X-50.1699 Y-16.2672 
G01 X-50.2802 Y-16.1569 
G01 X-50.3669 Y-16.0271 
G01 X-50.4266 Y-15.8830 
G01 X-50.4570 Y-15.7300 
G01 X-50.4570 Y-14.0500 
G01 X-50.4266 Y-13.8970 
G01 X-50.3669 Y-13.7528 
G01 X-50.2802 Y-13.6231 
G01 X-50.1699 Y-13.5128 
G01 X-50.0401 Y-13.4261 
G01 X-49.8960 Y-13.3664 
G01 X-49.7430 Y-13.3360 
G01 X-49.5870 Y-13.3360 
G01 X-49.4340 Y-13.3664 
G01 X-49.2898 Y-13.4261 
G01 X-49.1601 Y-13.5128 
G01 X-49.0498 Y-13.6231 
G01 X-48.9631 Y-13.7528 
G01 X-48.9034 Y-13.8970 
G01 X-48.8730 Y-14.0500 
G01 X-48.8730 Y-15.7300 
G01 X-48.9034 Y-15.8830 
G00 Z2.5400 
G00 X-53.4798 Y-15.3289 
G01 Z-0.1778 F254.00 
G01 X-53.4798 Y-17.5111 F508.00 
G01 X-53.5190 Y-17.7083 
G01 X-53.5960 Y-17.8940 
G01 X-53.7076 Y-18.0612 
G01 X-53.8498 Y-18.2034 
G01 X-54.0170 Y-18.3150 
G01 X-54.2027 Y-18.3920 
G01 X-54.3999 Y-18.4312 
G01 X-54.6009 Y-18.4312 
G01 X-54.7981 Y-18.3920 
G01 X-54.9838 Y-18.3150 
G01 X-55.1510 Y-18.2034 
G01 X-55.2931 Y-18.0612 
G01 X-55.4048 Y-17.8940 
G01 X-55.4818 Y-17.7083 
G01 X-55.5210 Y-17.5111 
G01 X-55.5210 Y-15.3289 
G01 X-55.4818 Y-15.1317 
G01 X-55.4048 Y-14.9460 
G01 X-55.2931 Y-14.7788 
G01 X-55.1510 Y-14.6366 
G01 X-54.9838 Y-14.5250 
G01 X-54.7981 Y-14.4480 
G01 X-54.6009 Y-14.4088 
G01 X-54.3999 Y-14.4088 
G01 X-54.2027 Y-14.4480 
G01 X-54.0170 Y-14.5250 
G01 X-53.8498 Y-14.6366 
G01 X-53.7076 Y-14.7788 
G01 X-53.5960 Y-14.9460 
G01 X-53.5190 Y-15.1317 
G01 X-53.4798 Y-15.3289 
G00 Z2.5400 
G00 X-58.5090 Y-15.3289 
G01 Z-0.1778 F254.00 
G01 X-58.5090 Y-17.5111 F508.00 
G01 X-58.5482 Y-17.7083 
G01 X-58.6252 Y-17.8940 
G01 X-58.7368 Y-18.0612 
G01 X-58.8790 Y-18.2034 
G01 X-59.0462 Y-18.3150 
G01 X-59.2319 Y-18.3920 
G01 X-59.4291 Y-18.4312 
G01 X-59.6301 Y-18.4312 
G01 X-59.8273 Y-18.3920 
G01 X-60.0130 Y-18.3150 
G01 X-60.1802 Y-18.2034 
G01 X-60.3224 Y-18.0612 
G01 X-60.4340 Y-17.8940 
G01 X-60.5110 Y-17.7083 
G01 X-60.5502 Y-17.5111 
G01 X-60.5502 Y-15.3289 
G01 X-60.5110 Y-15.1317 
G01 X-60.4340 Y-14.9460 
G01 X-60.3224 Y-14.7788 
G01 X-60.1802 Y-14.6366 
G01 X-60.0130 Y-14.5250 
G01 X-59.8273 Y-14.4480 
G01 X-59.6301 Y-14.4088 
G01 X-59.4291 Y-14.4088 
G01 X-59.2319 Y-14.4480 
G01 X-59.0462 Y-14.5250 
G01 X-58.8790 Y-14.6366 
G01 X-58.7368 Y-14.7788 
G01 X-58.6252 Y-14.9460 
G01 X-58.5482 Y-15.1317 
G01 X-58.5090 Y-15.3289 
G00 Z2.5400 
G00 X-71.4648 Y-16.0911 
G01 Z-0.1778 F254.00 
G01 X-71.5040 Y-16.2883 F508.00 
G01 X-71.5810 Y-16.4740 
G01 X-71.6926 Y-16.6412 
G01 X-71.8348 Y-16.7833 
G01 X-72.0020 Y-16.8950 
G01 X-72.1877 Y-16.9720 
G01 X-72.3849 Y-17.0112 
G01 X-72.5859 Y-17.0112 
G01 X-72.7831 Y-16.9720 
G01 X-72.9688 Y-16.8950 
G01 X-73.1360 Y-16.7833 
G01 X-73.2781 Y-16.6412 
G01 X-73.3898 Y-16.4740 
G01 X-73.4668 Y-16.2883 
G01 X-73.5060 Y-16.0911 
G01 X-73.5060 Y-13.9089 
G01 X-73.4668 Y-13.7117 
G01 X-73.3898 Y-13.5260 
G01 X-73.2781 Y-13.3588 
G01 X-73.1360 Y-13.2166 
G01 X-72.9688 Y-13.1050 
G01 X-72.7831 Y-13.0280 
G01 X-72.5859 Y-12.9888 
G01 X-72.3849 Y-12.9888 
G01 X-72.1877 Y-13.0280 
G01 X-72.0020 Y-13.1050 
G01 X-71.8348 Y-13.2166 
G01 X-71.6926 Y-13.3588 
G01 X-71.5810 Y-13.5260 
G01 X-71.5040 Y-13.7117 
G01 X-71.4648 Y-13.9089 
G01 X-71.4648 Y-16.0911 
G00 Z2.5400 
G00 X-76.4940 Y-16.0911 
G01 Z-0.1778 F254.00 
G01 X-76.5332 Y-16.2883 F508.00 
G01 X-76.6102 Y-16.4740 
G01 X-76.7218 Y-16.6412 
G01 X-76.8640 Y-16.7833 
G01 X-77.0312 Y-16.8950 
G01 X-77.2169 Y-16.9720 
G01 X-77.4141 Y-17.0112 
G01 X-77.6151 Y-17.0112 
G01 X-77.8123 Y-16.9720 
G01 X-77.9980 Y-16.8950 
G01 X-78.1652 Y-16.7833 
G01 X-78.3073 Y-16.6412 
G01 X-78.4190 Y-16.4740 
G01 X-78.4960 Y-16.2883 
G01 X-78.5352 Y-16.0911 
G01 X-78.5352 Y-13.9089 
G01 X-78.4960 Y-13.7117 
G01 X-78.4190 Y-13.5260 
G01 X-78.3073 Y-13.3588 
G01 X-78.1652 Y-13.2166 
G01 X-77.9980 Y-13.1050 
G01 X-77.8123 Y-13.0280 
G01 X-77.6151 Y-12.9888 
G01 X-77.4141 Y-12.9888 
G01 X-77.2169 Y-13.0280 
G01 X-77.0312 Y-13.1050 
G01 X-76.8640 Y-13.2166 
G01 X-76.7218 Y-13.3588 
G01 X-76.6102 Y-13.5260 
G01 X-76.5332 Y-13.7117 
G01 X-76.4940 Y-13.9089 
G01 X-76.4940 Y-16.0911 
G00 Z2.5400 
G00 X-83.5918 Y-15.7263 
G01 Z-0.1778 F254.00 
G01 X-83.5918 Y-17.5737 F508.00 
G01 X-83.6252 Y-17.7414 
G01 X-83.6906 Y-17.8994 
G01 X-83.7856 Y-18.0416 
G01 X-83.9066 Y-18.1626 
G01 X-84.0487 Y-18.2576 
G01 X-84.2068 Y-18.3230 
G01 X-84.3745 Y-18.3564 
G01 X-84.5455 Y-18.3564 
G01 X-84.7132 Y-18.3230 
G01 X-84.8712 Y-18.2576 
G01 X-85.0134 Y-18.1626 
G01 X-85.1344 Y-18.0416 
G01 X-85.2294 Y-17.8994 
G01 X-85.2948 Y-17.7414 
G01 X-85.3282 Y-17.5737 
G01 X-85.3282 Y-15.7263 
G01 X-85.2948 Y-15.5586 
G01 X-85.2294 Y-15.4006 
G01 X-85.1344 Y-15.2584 
G01 X-85.0134 Y-15.1374 
G01 X-84.8712 Y-15.0424 
G01 X-84.7132 Y-14.9770 
G01 X-84.5455 Y-14.9436 
G01 X-84.3745 Y-14.9436 
G01 X-84.2068 Y-14.9770 
G01 X-84.0487 Y-15.0424 
G01 X-83.9066 Y-15.1374 
G01 X-83.7856 Y-15.2584 
G01 X-83.6906 Y-15.4006 
G01 X-83.6252 Y-15.5586 
G01 X-83.5918 Y-15.7263 
G00 Z2.5400 
G00 X-86.1318 Y-15.7263 
G01 Z-0.1778 F254.00 
G01 X-86.1318 Y-17.5737 F508.00 
G01 X-86.1652 Y-17.7414 
G01 X-86.2306 Y-17.8994 
G01 X-86.3256 Y-18.0416 
G01 X-86.4466 Y-18.1626 
G01 X-86.5888 Y-18.2576 
G01 X-86.7468 Y-18.3230 
G01 X-86.9145 Y-18.3564 
G01 X-87.0855 Y-18.3564 
G01 X-87.2532 Y-18.3230 
G01 X-87.4112 Y-18.2576 
G01 X-87.5534 Y-18.1626 
G01 X-87.6744 Y-18.0416 
G01 X-87.7694 Y-17.8994 
G01 X-87.8348 Y-17.7414 
G01 X-87.8682 Y-17.5737 
G01 X-87.8682 Y-15.7263 
G01 X-87.8348 Y-15.5586 
G01 X-87.7694 Y-15.4006 
G01 X-87.6744 Y-15.2584 
G01 X-87.5534 Y-15.1374 
G01 X-87.4112 Y-15.0424 
G01 X-87.2532 Y-14.9770 
G01 X-87.0855 Y-14.9436 
G01 X-86.9145 Y-14.9436 
G01 X-86.7468 Y-14.9770 
G01 X-86.5888 Y-15.0424 
G01 X-86.4466 Y-15.1374 
G01 X-86.3256 Y-15.2584 
G01 X-86.2306 Y-15.4006 
G01 X-86.1652 Y-15.5586 
G01 X-86.1318 Y-15.7263 
G00 Z2.5400 
G00 X-88.6718 Y-15.7263 
G01 Z-0.1778 F254.00 
G01 X-88.6718 Y-17.5737 F508.00 
G01 X-88.7052 Y-17.7414 
G01 X-88.7706 Y-17.8994 
G01 X-88.8656 Y-18.0416 
G01 X-88.9866 Y-18.1626 
G01 X-89.1287 Y-18.2576 
G01 X-89.2868 Y-18.3230 
G01 X-89.4545 Y-18.3564 
G01 X-89.6255 Y-18.3564 
G01 X-89.7932 Y-18.3230 
G01 X-89.9512 Y-18.2576 
G01 X-90.0934 Y-18.1626 
G01 X-90.2144 Y-18.0416 
G01 X-90.3094 Y-17.8994 
G01 X-90.3748 Y-17.7414 
G01 X-90.4082 Y-17.5737 
G01 X-90.4082 Y-15.7263 
G01 X-90.3748 Y-15.5586 
G01 X-90.3094 Y-15.4006 
G01 X-90.2144 Y-15.2584 
G01 X-90.0934 Y-15.1374 
G01 X-89.9512 Y-15.0424 
G01 X-89.7932 Y-14.9770 
G01 X-89.6255 Y-14.9436 
G01 X-89.4545 Y-14.9436 
G01 X-89.2868 Y-14.9770 
G01 X-89.1287 Y-15.0424 
G01 X-88.9866 Y-15.1374 
G01 X-88.8656 Y-15.2584 
G01 X-88.7706 Y-15.4006 
G01 X-88.7052 Y-15.5586 
G01 X-88.6718 Y-15.7263 
G00 Z2.5400 
G00 X-90.1196 Y-11.2860 
G01 Z-0.1778 F254.00 
G01 X-90.5240 Y-11.6904 F508.00 
G01 X-91.0960 Y-11.6904 
G01 X-91.5004 Y-11.2860 
G01 X-91.5004 Y-10.7140 
G01 X-91.0960 Y-10.3096 
G01 X-90.5240 Y-10.3096 
G01 X-90.1196 Y-10.7140 
G01 X-90.1196 Y-11.2860 
G00 Z2.5400 
G00 X-83.8804 Y-11.2860 
G01 Z-0.1778 F254.00 
G01 X-83.8804 Y-10.7140 F508.00 
G01 X-83.4760 Y-10.3096 
G01 X-82.9040 Y-10.3096 
G01 X-82.4996 Y-10.7140 
G01 X-82.4996 Y-11.2860 
G01 X-82.9040 Y-11.6904 
G01 X-83.4760 Y-11.6904 
G01 X-83.8804 Y-11.2860 
G00 Z2.5400 
G00 X-85.2166 Y-6.1652 
G01 Z-0.1778 F254.00 
G01 X-85.3588 Y-6.3073 F508.00 
G01 X-85.5260 Y-6.4190 
G01 X-85.7117 Y-6.4960 
G01 X-85.9089 Y-6.5352 
G01 X-88.0911 Y-6.5352 
G01 X-88.2883 Y-6.4960 
G01 X-88.4740 Y-6.4190 
G01 X-88.6412 Y-6.3073 
G01 X-88.7833 Y-6.1652 
G01 X-88.8950 Y-5.9980 
G01 X-88.9720 Y-5.8123 
G01 X-89.0112 Y-5.6151 
G01 X-89.0112 Y-5.4141 
G01 X-88.9720 Y-5.2169 
G01 X-88.8950 Y-5.0312 
G01 X-88.7833 Y-4.8640 
G01 X-88.6412 Y-4.7218 
G01 X-88.4740 Y-4.6102 
G01 X-88.2883 Y-4.5332 
G01 X-88.0911 Y-4.4940 
G01 X-85.9089 Y-4.4940 
G01 X-85.7117 Y-4.5332 
G01 X-85.5260 Y-4.6102 
G01 X-85.3588 Y-4.7218 
G01 X-85.2166 Y-4.8640 
G01 X-85.1050 Y-5.0312 
G01 X-85.0280 Y-5.2169 
G01 X-84.9888 Y-5.4141 
G01 X-84.9888 Y-5.6151 
G01 X-85.0280 Y-5.8123 
G01 X-85.1050 Y-5.9980 
G01 X-85.2166 Y-6.1652 
G00 Z2.5400 
G00 X-85.2166 Y-1.1360 
G01 Z-0.1778 F254.00 
G01 X-85.3588 Y-1.2781 F508.00 
G01 X-85.5260 Y-1.3898 
G01 X-85.7117 Y-1.4668 
G01 X-85.9089 Y-1.5060 
G01 X-88.0911 Y-1.5060 
G01 X-88.2883 Y-1.4668 
G01 X-88.4740 Y-1.3898 
G01 X-88.6412 Y-1.2781 
G01 X-88.7833 Y-1.1360 
G01 X-88.8950 Y-0.9688 
G01 X-88.9720 Y-0.7831 
G01 X-89.0112 Y-0.5859 
G01 X-89.0112 Y-0.3849 
G01 X-88.9720 Y-0.1877 
G01 X-88.8950 Y-0.0020 
G01 X-88.7833 Y0.1652 
G01 X-88.6412 Y0.3074 
G01 X-88.4740 Y0.4190 
G01 X-88.2883 Y0.4960 
G01 X-88.0911 Y0.5352 
G01 X-85.9089 Y0.5352 
G01 X-85.7117 Y0.4960 
G01 X-85.5260 Y0.4190 
G01 X-85.3588 Y0.3074 
G01 X-85.2166 Y0.1652 
G01 X-85.1050 Y-0.0020 
G01 X-85.0280 Y-0.1877 
G01 X-84.9888 Y-0.3849 
G01 X-84.9888 Y-0.5859 
G01 X-85.0280 Y-0.7831 
G01 X-85.1050 Y-0.9688 
G01 X-85.2166 Y-1.1360 
G00 Z2.5400 
G00 X-78.3073 Y-3.3588 
G01 Z-0.1778 F254.00 
G01 X-78.1652 Y-3.2166 F508.00 
G01 X-77.9980 Y-3.1050 
G01 X-77.8123 Y-3.0280 
G01 X-77.6151 Y-2.9888 
G01 X-77.4141 Y-2.9888 
G01 X-77.2169 Y-3.0280 
G01 X-77.0312 Y-3.1050 
G01 X-76.8640 Y-3.2166 
G01 X-76.7218 Y-3.3588 
G01 X-76.6102 Y-3.5260 
G01 X-76.5332 Y-3.7117 
G01 X-76.4940 Y-3.9089 
G01 X-76.4940 Y-6.0911 
G01 X-76.5332 Y-6.2883 
G01 X-76.6102 Y-6.4740 
G01 X-76.7218 Y-6.6412 
G01 X-76.8640 Y-6.7834 
G01 X-77.0312 Y-6.8950 
G01 X-77.2169 Y-6.9720 
G01 X-77.4141 Y-7.0112 
G01 X-77.6151 Y-7.0112 
G01 X-77.8123 Y-6.9720 
G01 X-77.9980 Y-6.8950 
G01 X-78.1652 Y-6.7834 
G01 X-78.3073 Y-6.6412 
G01 X-78.4190 Y-6.4740 
G01 X-78.4960 Y-6.2883 
G01 X-78.5352 Y-6.0911 
G01 X-78.5352 Y-3.9089 
G01 X-78.4960 Y-3.7117 
G01 X-78.4190 Y-3.5260 
G01 X-78.3073 Y-3.3588 
G00 Z2.5400 
G00 X-73.2781 Y-3.3588 
G01 Z-0.1778 F254.00 
G01 X-73.1360 Y-3.2166 F508.00 
G01 X-72.9688 Y-3.1050 
G01 X-72.7831 Y-3.0280 
G01 X-72.5859 Y-2.9888 
G01 X-72.3849 Y-2.9888 
G01 X-72.1877 Y-3.0280 
G01 X-72.0020 Y-3.1050 
G01 X-71.8348 Y-3.2166 
G01 X-71.6926 Y-3.3588 
G01 X-71.5810 Y-3.5260 
G01 X-71.5040 Y-3.7117 
G01 X-71.4648 Y-3.9089 
G01 X-71.4648 Y-6.0911 
G01 X-71.5040 Y-6.2883 
G01 X-71.5810 Y-6.4740 
G01 X-71.6926 Y-6.6412 
G01 X-71.8348 Y-6.7834 
G01 X-72.0020 Y-6.8950 
G01 X-72.1877 Y-6.9720 
G01 X-72.3849 Y-7.0112 
G01 X-72.5859 Y-7.0112 
G01 X-72.7831 Y-6.9720 
G01 X-72.9688 Y-6.8950 
G01 X-73.1360 Y-6.7834 
G01 X-73.2781 Y-6.6412 
G01 X-73.3898 Y-6.4740 
G01 X-73.4668 Y-6.2883 
G01 X-73.5060 Y-6.0911 
G01 X-73.5060 Y-3.9089 
G01 X-73.4668 Y-3.7117 
G01 X-73.3898 Y-3.5260 
G01 X-73.2781 Y-3.3588 
G00 Z2.5400 
G00 X-72.6005 Y4.9237 
G01 Z-0.1778 F254.00 
G01 X-72.6967 Y5.0199 F508.00 
G01 X-72.7722 Y5.1330 
G01 X-72.8243 Y5.2586 
G01 X-72.8508 Y5.3920 
G01 X-72.8508 Y5.5280 
G01 X-72.8243 Y5.6614 
G01 X-72.7722 Y5.7870 
G01 X-72.6967 Y5.9001 
G01 X-72.6005 Y5.9963 
G01 X-72.4874 Y6.0718 
G01 X-72.3618 Y6.1239 
G01 X-72.2284 Y6.1504 
G01 X-70.7716 Y6.1504 
G01 X-70.6382 Y6.1239 
G01 X-70.5126 Y6.0718 
G01 X-70.3995 Y5.9963 
G01 X-70.3033 Y5.9001 
G01 X-70.2278 Y5.7870 
G01 X-70.1757 Y5.6614 
G01 X-70.1492 Y5.5280 
G01 X-70.1492 Y5.3920 
G01 X-70.1757 Y5.2586 
G01 X-70.2278 Y5.1330 
G01 X-70.3033 Y5.0199 
G01 X-70.3995 Y4.9237 
G01 X-70.5126 Y4.8482 
G01 X-70.6382 Y4.7961 
G01 X-70.7716 Y4.7696 
G01 X-72.2284 Y4.7696 
G01 X-72.3618 Y4.7961 
G01 X-72.4874 Y4.8482 
G01 X-72.6005 Y4.9237 
G00 Z2.5400 
G00 X-72.6005 Y7.4637 
G01 Z-0.1778 F254.00 
G01 X-72.6967 Y7.5599 F508.00 
G01 X-72.7722 Y7.6730 
G01 X-72.8243 Y7.7986 
G01 X-72.8508 Y7.9320 
G01 X-72.8508 Y8.0680 
G01 X-72.8243 Y8.2014 
G01 X-72.7722 Y8.3270 
G01 X-72.6967 Y8.4401 
G01 X-72.6005 Y8.5363 
G01 X-72.4874 Y8.6118 
G01 X-72.3618 Y8.6639 
G01 X-72.2284 Y8.6904 
G01 X-70.7716 Y8.6904 
G01 X-70.6382 Y8.6639 
G01 X-70.5126 Y8.6118 
G01 X-70.3995 Y8.5363 
G01 X-70.3033 Y8.4401 
G01 X-70.2278 Y8.3270 
G01 X-70.1757 Y8.2014 
G01 X-70.1492 Y8.0680 
G01 X-70.1492 Y7.9320 
G01 X-70.1757 Y7.7986 
G01 X-70.2278 Y7.6730 
G01 X-70.3033 Y7.5599 
G01 X-70.3995 Y7.4637 
G01 X-70.5126 Y7.3882 
G01 X-70.6382 Y7.3361 
G01 X-70.7716 Y7.3096 
G01 X-72.2284 Y7.3096 
G01 X-72.3618 Y7.3361 
G01 X-72.4874 Y7.3882 
G01 X-72.6005 Y7.4637 
G00 Z2.5400 
G00 X-72.6005 Y10.0037 
G01 Z-0.1778 F254.00 
G01 X-72.6967 Y10.0999 F508.00 
G01 X-72.7722 Y10.2130 
G01 X-72.8243 Y10.3386 
G01 X-72.8508 Y10.4720 
G01 X-72.8508 Y10.6080 
G01 X-72.8243 Y10.7414 
G01 X-72.7722 Y10.8670 
G01 X-72.6967 Y10.9801 
G01 X-72.6005 Y11.0763 
G01 X-72.4874 Y11.1518 
G01 X-72.3618 Y11.2039 
G01 X-72.2284 Y11.2304 
G01 X-70.7716 Y11.2304 
G01 X-70.6382 Y11.2039 
G01 X-70.5126 Y11.1518 
G01 X-70.3995 Y11.0763 
G01 X-70.3033 Y10.9801 
G01 X-70.2278 Y10.8670 
G01 X-70.1757 Y10.7414 
G01 X-70.1492 Y10.6080 
G01 X-70.1492 Y10.4720 
G01 X-70.1757 Y10.3386 
G01 X-70.2278 Y10.2130 
G01 X-70.3033 Y10.0999 
G01 X-70.3995 Y10.0037 
G01 X-70.5126 Y9.9282 
G01 X-70.6382 Y9.8761 
G01 X-70.7716 Y9.8496 
G01 X-72.2284 Y9.8496 
G01 X-72.3618 Y9.8761 
G01 X-72.4874 Y9.9282 
G01 X-72.6005 Y10.0037 
G00 Z2.5400 
G00 X-72.6080 Y14.4192 
G01 Z-0.1778 F254.00 
G01 X-72.7414 Y14.4457 F508.00 
G01 X-72.8670 Y14.4978 
G01 X-72.9801 Y14.5733 
G01 X-73.0763 Y14.6695 
G01 X-73.1518 Y14.7826 
G01 X-73.2039 Y14.9082 
G01 X-73.2304 Y15.0416 
G01 X-73.2304 Y16.4984 
G01 X-73.2039 Y16.6318 
G01 X-73.1518 Y16.7574 
G01 X-73.0763 Y16.8705 
G01 X-72.9801 Y16.9667 
G01 X-72.8670 Y17.0422 
G01 X-72.7414 Y17.0943 
G01 X-72.6080 Y17.1208 
G01 X-72.4720 Y17.1208 
G01 X-72.3386 Y17.0943 
G01 X-72.2130 Y17.0422 
G01 X-72.0999 Y16.9667 
G01 X-72.0037 Y16.8705 
G01 X-71.9282 Y16.7574 
G01 X-71.8761 Y16.6318 
G01 X-71.8496 Y16.4984 
G01 X-71.8496 Y15.0416 
G01 X-71.8761 Y14.9082 
G01 X-71.9282 Y14.7826 
G01 X-72.0037 Y14.6695 
G01 X-72.0999 Y14.5733 
G01 X-72.2130 Y14.4978 
G01 X-72.3386 Y14.4457 
G01 X-72.4720 Y14.4192 
G01 X-72.6080 Y14.4192 
G00 Z2.5400 
G00 X-74.4237 Y14.6295 
G01 Z-0.1778 F254.00 
G01 X-74.5199 Y14.5333 F508.00 
G01 X-74.6330 Y14.4578 
G01 X-74.7586 Y14.4057 
G01 X-74.8920 Y14.3792 
G01 X-75.0280 Y14.3792 
G01 X-75.1614 Y14.4057 
G01 X-75.2870 Y14.4578 
G01 X-75.4001 Y14.5333 
G01 X-75.4963 Y14.6295 
G01 X-75.5718 Y14.7426 
G01 X-75.6239 Y14.8682 
G01 X-75.6504 Y15.0016 
G01 X-75.6504 Y16.4584 
G01 X-75.6239 Y16.5918 
G01 X-75.5718 Y16.7174 
G01 X-75.4963 Y16.8305 
G01 X-75.4001 Y16.9267 
G01 X-75.2870 Y17.0022 
G01 X-75.1614 Y17.0543 
G01 X-75.0280 Y17.0808 
G01 X-74.8920 Y17.0808 
G01 X-74.7586 Y17.0543 
G01 X-74.6330 Y17.0022 
G01 X-74.5199 Y16.9267 
G01 X-74.4237 Y16.8305 
G01 X-74.3482 Y16.7174 
G01 X-74.2961 Y16.5918 
G01 X-74.2696 Y16.4584 
G01 X-74.2696 Y15.0016 
G01 X-74.2961 Y14.8682 
G01 X-74.3482 Y14.7426 
G01 X-74.4237 Y14.6295 
G00 Z2.5400 
G00 X-76.9637 Y14.6295 
G01 Z-0.1778 F254.00 
G01 X-77.0599 Y14.5333 F508.00 
G01 X-77.1730 Y14.4578 
G01 X-77.2986 Y14.4057 
G01 X-77.4320 Y14.3792 
G01 X-77.5680 Y14.3792 
G01 X-77.7014 Y14.4057 
G01 X-77.8270 Y14.4578 
G01 X-77.9401 Y14.5333 
G01 X-78.0363 Y14.6295 
G01 X-78.1118 Y14.7426 
G01 X-78.1639 Y14.8682 
G01 X-78.1904 Y15.0016 
G01 X-78.1904 Y16.4584 
G01 X-78.1639 Y16.5918 
G01 X-78.1118 Y16.7174 
G01 X-78.0363 Y16.8305 
G01 X-77.9401 Y16.9267 
G01 X-77.8270 Y17.0022 
G01 X-77.7014 Y17.0543 
G01 X-77.5680 Y17.0808 
G01 X-77.4320 Y17.0808 
G01 X-77.2986 Y17.0543 
G01 X-77.1730 Y17.0022 
G01 X-77.0599 Y16.9267 
G01 X-76.9637 Y16.8305 
G01 X-76.8882 Y16.7174 
G01 X-76.8361 Y16.5918 
G01 X-76.8096 Y16.4584 
G01 X-76.8096 Y15.0016 
G01 X-76.8361 Y14.8682 
G01 X-76.8882 Y14.7426 
G01 X-76.9637 Y14.6295 
G00 Z2.5400 
G00 X-79.5037 Y14.6295 
G01 Z-0.1778 F254.00 
G01 X-79.5999 Y14.5333 F508.00 
G01 X-79.7130 Y14.4578 
G01 X-79.8386 Y14.4057 
G01 X-79.9720 Y14.3792 
G01 X-80.1080 Y14.3792 
G01 X-80.2414 Y14.4057 
G01 X-80.3670 Y14.4578 
G01 X-80.4801 Y14.5333 
G01 X-80.5763 Y14.6295 
G01 X-80.6518 Y14.7426 
G01 X-80.7039 Y14.8682 
G01 X-80.7304 Y15.0016 
G01 X-80.7304 Y16.4584 
G01 X-80.7039 Y16.5918 
G01 X-80.6518 Y16.7174 
G01 X-80.5763 Y16.8305 
G01 X-80.4801 Y16.9267 
G01 X-80.3670 Y17.0022 
G01 X-80.2414 Y17.0543 
G01 X-80.1080 Y17.0808 
G01 X-79.9720 Y17.0808 
G01 X-79.8386 Y17.0543 
G01 X-79.7130 Y17.0022 
G01 X-79.5999 Y16.9267 
G01 X-79.5037 Y16.8305 
G01 X-79.4282 Y16.7174 
G01 X-79.3761 Y16.5918 
G01 X-79.3496 Y16.4584 
G01 X-79.3496 Y15.0016 
G01 X-79.3761 Y14.8682 
G01 X-79.4282 Y14.7426 
G01 X-79.5037 Y14.6295 
G00 Z2.5400 
G00 X-79.4874 Y11.1518 
G01 Z-0.1778 F254.00 
G01 X-79.3618 Y11.2039 F508.00 
G01 X-79.2284 Y11.2304 
G01 X-77.7716 Y11.2304 
G01 X-77.6382 Y11.2039 
G01 X-77.5126 Y11.1518 
G01 X-77.3995 Y11.0763 
G01 X-77.3033 Y10.9801 
G01 X-77.2278 Y10.8670 
G01 X-77.1757 Y10.7414 
G01 X-77.1492 Y10.6080 
G01 X-77.1492 Y10.4720 
G01 X-77.1757 Y10.3386 
G01 X-77.2278 Y10.2130 
G01 X-77.3033 Y10.0999 
G01 X-77.3995 Y10.0037 
G01 X-77.5126 Y9.9282 
G01 X-77.6382 Y9.8761 
G01 X-77.7716 Y9.8496 
G01 X-79.2284 Y9.8496 
G01 X-79.3618 Y9.8761 
G01 X-79.4874 Y9.9282 
G01 X-79.6005 Y10.0037 
G01 X-79.6967 Y10.0999 
G01 X-79.7722 Y10.2130 
G01 X-79.8243 Y10.3386 
G01 X-79.8508 Y10.4720 
G01 X-79.8508 Y10.6080 
G01 X-79.8243 Y10.7414 
G01 X-79.7722 Y10.8670 
G01 X-79.6967 Y10.9801 
G01 X-79.6005 Y11.0763 
G01 X-79.4874 Y11.1518 
G00 Z2.5400 
G00 X-79.4874 Y8.6118 
G01 Z-0.1778 F254.00 
G01 X-79.3618 Y8.6639 F508.00 
G01 X-79.2284 Y8.6904 
G01 X-77.7716 Y8.6904 
G01 X-77.6382 Y8.6639 
G01 X-77.5126 Y8.6118 
G01 X-77.3995 Y8.5363 
G01 X-77.3033 Y8.4401 
G01 X-77.2278 Y8.3270 
G01 X-77.1757 Y8.2014 
G01 X-77.1492 Y8.0680 
G01 X-77.1492 Y7.9320 
G01 X-77.1757 Y7.7986 
G01 X-77.2278 Y7.6730 
G01 X-77.3033 Y7.5599 
G01 X-77.3995 Y7.4637 
G01 X-77.5126 Y7.3882 
G01 X-77.6382 Y7.3361 
G01 X-77.7716 Y7.3096 
G01 X-79.2284 Y7.3096 
G01 X-79.3618 Y7.3361 
G01 X-79.4874 Y7.3882 
G01 X-79.6005 Y7.4637 
G01 X-79.6967 Y7.5599 
G01 X-79.7722 Y7.6730 
G01 X-79.8243 Y7.7986 
G01 X-79.8508 Y7.9320 
G01 X-79.8508 Y8.0680 
G01 X-79.8243 Y8.2014 
G01 X-79.7722 Y8.3270 
G01 X-79.6967 Y8.4401 
G01 X-79.6005 Y8.5363 
G01 X-79.4874 Y8.6118 
G00 Z2.5400 
G00 X-79.4874 Y6.0718 
G01 Z-0.1778 F254.00 
G01 X-79.3618 Y6.1239 F508.00 
G01 X-79.2284 Y6.1504 
G01 X-77.7716 Y6.1504 
G01 X-77.6382 Y6.1239 
G01 X-77.5126 Y6.0718 
G01 X-77.3995 Y5.9963 
G01 X-77.3033 Y5.9001 
G01 X-77.2278 Y5.7870 
G01 X-77.1757 Y5.6614 
G01 X-77.1492 Y5.5280 
G01 X-77.1492 Y5.3920 
G01 X-77.1757 Y5.2586 
G01 X-77.2278 Y5.1330 
G01 X-77.3033 Y5.0199 
G01 X-77.3995 Y4.9237 
G01 X-77.5126 Y4.8482 
G01 X-77.6382 Y4.7961 
G01 X-77.7716 Y4.7696 
G01 X-79.2284 Y4.7696 
G01 X-79.3618 Y4.7961 
G01 X-79.4874 Y4.8482 
G01 X-79.6005 Y4.9237 
G01 X-79.6967 Y5.0199 
G01 X-79.7722 Y5.1330 
G01 X-79.8243 Y5.2586 
G01 X-79.8508 Y5.3920 
G01 X-79.8508 Y5.5280 
G01 X-79.8243 Y5.6614 
G01 X-79.7722 Y5.7870 
G01 X-79.6967 Y5.9001 
G01 X-79.6005 Y5.9963 
G01 X-79.4874 Y6.0718 
G00 Z2.5400 
G00 X-83.6926 Y11.8588 
G01 Z-0.1778 F254.00 
G01 X-83.8348 Y11.7166 F508.00 
G01 X-84.0020 Y11.6050 
G01 X-84.1877 Y11.5280 
G01 X-84.3849 Y11.4888 
G01 X-84.5859 Y11.4888 
G01 X-84.7831 Y11.5280 
G01 X-84.9688 Y11.6050 
G01 X-85.1360 Y11.7166 
G01 X-85.2781 Y11.8588 
G01 X-85.3898 Y12.0260 
G01 X-85.4668 Y12.2117 
G01 X-85.5060 Y12.4089 
G01 X-85.5060 Y14.5911 
G01 X-85.4668 Y14.7883 
G01 X-85.3898 Y14.9740 
G01 X-85.2781 Y15.1412 
G01 X-85.1360 Y15.2834 
G01 X-84.9688 Y15.3950 
G01 X-84.7831 Y15.4720 
G01 X-84.5859 Y15.5112 
G01 X-84.3849 Y15.5112 
G01 X-84.1877 Y15.4720 
G01 X-84.0020 Y15.3950 
G01 X-83.8348 Y15.2834 
G01 X-83.6926 Y15.1412 
G01 X-83.5810 Y14.9740 
G01 X-83.5040 Y14.7883 
G01 X-83.4648 Y14.5911 
G01 X-83.4648 Y12.4089 
G01 X-83.5040 Y12.2117 
G01 X-83.5810 Y12.0260 
G01 X-83.6926 Y11.8588 
G00 Z2.5400 
G00 X-88.7218 Y11.8588 
G01 Z-0.1778 F254.00 
G01 X-88.8640 Y11.7166 F508.00 
G01 X-89.0312 Y11.6050 
G01 X-89.2169 Y11.5280 
G01 X-89.4141 Y11.4888 
G01 X-89.6151 Y11.4888 
G01 X-89.8123 Y11.5280 
G01 X-89.9980 Y11.6050 
G01 X-90.1652 Y11.7166 
G01 X-90.3073 Y11.8588 
G01 X-90.4190 Y12.0260 
G01 X-90.4960 Y12.2117 
G01 X-90.5352 Y12.4089 
G01 X-90.5352 Y14.5911 
G01 X-90.4960 Y14.7883 
G01 X-90.4190 Y14.9740 
G01 X-90.3073 Y15.1412 
G01 X-90.1652 Y15.2834 
G01 X-89.9980 Y15.3950 
G01 X-89.8123 Y15.4720 
G01 X-89.6151 Y15.5112 
G01 X-89.4141 Y15.5112 
G01 X-89.2169 Y15.4720 
G01 X-89.0312 Y15.3950 
G01 X-88.8640 Y15.2834 
G01 X-88.7218 Y15.1412 
G01 X-88.6102 Y14.9740 
G01 X-88.5332 Y14.7883 
G01 X-88.4940 Y14.5911 
G01 X-88.4940 Y12.4089 
G01 X-88.5332 Y12.2117 
G01 X-88.6102 Y12.0260 
G01 X-88.7218 Y11.8588 
G00 Z2.5400 
G00 X-88.0816 Y18.3096 
G01 Z-0.1778 F254.00 
G01 X-89.5384 Y18.3096 F508.00 
G01 X-89.6718 Y18.3361 
G01 X-89.7974 Y18.3882 
G01 X-89.9105 Y18.4637 
G01 X-90.0067 Y18.5599 
G01 X-90.0822 Y18.6730 
G01 X-90.1343 Y18.7986 
G01 X-90.1608 Y18.9320 
G01 X-90.1608 Y19.0680 
G01 X-90.1343 Y19.2014 
G01 X-90.0822 Y19.3270 
G01 X-90.0067 Y19.4401 
G01 X-89.9105 Y19.5363 
G01 X-89.7974 Y19.6118 
G01 X-89.6718 Y19.6639 
G01 X-89.5384 Y19.6904 
G01 X-88.0816 Y19.6904 
G01 X-87.9482 Y19.6639 
G01 X-87.8226 Y19.6118 
G01 X-87.7095 Y19.5363 
G01 X-87.6133 Y19.4401 
G01 X-87.5378 Y19.3270 
G01 X-87.4857 Y19.2014 
G01 X-87.4592 Y19.0680 
G01 X-87.4592 Y18.9320 
G01 X-87.4857 Y18.7986 
G01 X-87.5378 Y18.6730 
G01 X-87.6133 Y18.5599 
G01 X-87.7095 Y18.4637 
G01 X-87.8226 Y18.3882 
G01 X-87.9482 Y18.3361 
G01 X-88.0816 Y18.3096 
G00 Z2.5400 
G00 X-88.0816 Y21.3096 
G01 Z-0.1778 F254.00 
G01 X-89.5384 Y21.3096 F508.00 
G01 X-89.6718 Y21.3361 
G01 X-89.7974 Y21.3882 
G01 X-89.9105 Y21.4637 
G01 X-90.0067 Y21.5599 
G01 X-90.0822 Y21.6730 
G01 X-90.1343 Y21.7986 
G01 X-90.1608 Y21.9320 
G01 X-90.1608 Y22.0680 
G01 X-90.1343 Y22.2014 
G01 X-90.0822 Y22.3270 
G01 X-90.0067 Y22.4401 
G01 X-89.9105 Y22.5363 
G01 X-89.7974 Y22.6118 
G01 X-89.6718 Y22.6639 
G01 X-89.5384 Y22.6904 
G01 X-88.0816 Y22.6904 
G01 X-87.9482 Y22.6639 
G01 X-87.8226 Y22.6118 
G01 X-87.7095 Y22.5363 
G01 X-87.6133 Y22.4401 
G01 X-87.5378 Y22.3270 
G01 X-87.4857 Y22.2014 
G01 X-87.4592 Y22.0680 
G01 X-87.4592 Y21.9320 
G01 X-87.4857 Y21.7986 
G01 X-87.5378 Y21.6730 
G01 X-87.6133 Y21.5599 
G01 X-87.7095 Y21.4637 
G01 X-87.8226 Y21.3882 
G01 X-87.9482 Y21.3361 
G01 X-88.0816 Y21.3096 
G00 Z2.5400 
G00 X-88.0816 Y24.3096 
G01 Z-0.1778 F254.00 
G01 X-89.5384 Y24.3096 F508.00 
G01 X-89.6718 Y24.3361 
G01 X-89.7974 Y24.3882 
G01 X-89.9105 Y24.4637 
G01 X-90.0067 Y24.5599 
G01 X-90.0822 Y24.6730 
G01 X-90.1343 Y24.7986 
G01 X-90.1608 Y24.9320 
G01 X-90.1608 Y25.0680 
G01 X-90.1343 Y25.2014 
G01 X-90.0822 Y25.3270 
G01 X-90.0067 Y25.4401 
G01 X-89.9105 Y25.5363 
G01 X-89.7974 Y25.6118 
G01 X-89.6718 Y25.6639 
G01 X-89.5384 Y25.6904 
G01 X-88.0816 Y25.6904 
G01 X-87.9482 Y25.6639 
G01 X-87.8226 Y25.6118 
G01 X-87.7095 Y25.5363 
G01 X-87.6133 Y25.4401 
G01 X-87.5378 Y25.3270 
G01 X-87.4857 Y25.2014 
G01 X-87.4592 Y25.0680 
G01 X-87.4592 Y24.9320 
G01 X-87.4857 Y24.7986 
G01 X-87.5378 Y24.6730 
G01 X-87.6133 Y24.5599 
G01 X-87.7095 Y24.4637 
G01 X-87.8226 Y24.3882 
G01 X-87.9482 Y24.3361 
G01 X-88.0816 Y24.3096 
G00 Z2.5400 
G00 X-88.0816 Y26.8096 
G01 Z-0.1778 F254.00 
G01 X-89.5384 Y26.8096 F508.00 
G01 X-89.6718 Y26.8361 
G01 X-89.7974 Y26.8882 
G01 X-89.9105 Y26.9637 
G01 X-90.0067 Y27.0599 
G01 X-90.0822 Y27.1730 
G01 X-90.1343 Y27.2986 
G01 X-90.1608 Y27.4320 
G01 X-90.1608 Y27.5680 
G01 X-90.1343 Y27.7014 
G01 X-90.0822 Y27.8270 
G01 X-90.0067 Y27.9401 
G01 X-89.9105 Y28.0363 
G01 X-89.7974 Y28.1118 
G01 X-89.6718 Y28.1639 
G01 X-89.5384 Y28.1904 
G01 X-88.0816 Y28.1904 
G01 X-87.9482 Y28.1639 
G01 X-87.8226 Y28.1118 
G01 X-87.7095 Y28.0363 
G01 X-87.6133 Y27.9401 
G01 X-87.5378 Y27.8270 
G01 X-87.4857 Y27.7014 
G01 X-87.4592 Y27.5680 
G01 X-87.4592 Y27.4320 
G01 X-87.4857 Y27.2986 
G01 X-87.5378 Y27.1730 
G01 X-87.6133 Y27.0599 
G01 X-87.7095 Y26.9637 
G01 X-87.8226 Y26.8882 
G01 X-87.9482 Y26.8361 
G01 X-88.0816 Y26.8096 
G00 Z2.5400 
G00 X-82.2905 Y26.9637 
G01 Z-0.1778 F254.00 
G01 X-82.3867 Y27.0599 F508.00 
G01 X-82.4622 Y27.1730 
G01 X-82.5143 Y27.2986 
G01 X-82.5408 Y27.4320 
G01 X-82.5408 Y27.5680 
G01 X-82.5143 Y27.7014 
G01 X-82.4622 Y27.8270 
G01 X-82.3867 Y27.9401 
G01 X-82.2905 Y28.0363 
G01 X-82.1774 Y28.1118 
G01 X-82.0518 Y28.1639 
G01 X-81.9184 Y28.1904 
G01 X-80.4616 Y28.1904 
G01 X-80.3282 Y28.1639 
G01 X-80.2026 Y28.1118 
G01 X-80.0895 Y28.0363 
G01 X-79.9933 Y27.9401 
G01 X-79.9178 Y27.8270 
G01 X-79.8657 Y27.7014 
G01 X-79.8392 Y27.5680 
G01 X-79.8392 Y27.4320 
G01 X-79.8657 Y27.2986 
G01 X-79.9178 Y27.1730 
G01 X-79.9933 Y27.0599 
G01 X-80.0895 Y26.9637 
G01 X-80.2026 Y26.8882 
G01 X-80.3282 Y26.8361 
G01 X-80.4616 Y26.8096 
G01 X-81.9184 Y26.8096 
G01 X-82.0518 Y26.8361 
G01 X-82.1774 Y26.8882 
G01 X-82.2905 Y26.9637 
G00 Z2.5400 
G00 X-82.2905 Y25.5363 
G01 Z-0.1778 F254.00 
G01 X-82.1774 Y25.6118 F508.00 
G01 X-82.0518 Y25.6639 
G01 X-81.9184 Y25.6904 
G01 X-80.4616 Y25.6904 
G01 X-80.3282 Y25.6639 
G01 X-80.2026 Y25.6118 
G01 X-80.0895 Y25.5363 
G01 X-79.9933 Y25.4401 
G01 X-79.9178 Y25.3270 
G01 X-79.8657 Y25.2014 
G01 X-79.8392 Y25.0680 
G01 X-79.8392 Y24.9320 
G01 X-79.8657 Y24.7986 
G01 X-79.9178 Y24.6730 
G01 X-79.9933 Y24.5599 
G01 X-80.0895 Y24.4637 
G01 X-80.2026 Y24.3882 
G01 X-80.3282 Y24.3361 
G01 X-80.4616 Y24.3096 
G01 X-81.9184 Y24.3096 
G01 X-82.0518 Y24.3361 
G01 X-82.1774 Y24.3882 
G01 X-82.2905 Y24.4637 
G01 X-82.3867 Y24.5599 
G01 X-82.4622 Y24.6730 
G01 X-82.5143 Y24.7986 
G01 X-82.5408 Y24.9320 
G01 X-82.5408 Y25.0680 
G01 X-82.5143 Y25.2014 
G01 X-82.4622 Y25.3270 
G01 X-82.3867 Y25.4401 
G01 X-82.2905 Y25.5363 
G00 Z2.5400 
G00 X-82.2905 Y22.5363 
G01 Z-0.1778 F254.00 
G01 X-82.1774 Y22.6118 F508.00 
G01 X-82.0518 Y22.6639 
G01 X-81.9184 Y22.6904 
G01 X-80.4616 Y22.6904 
G01 X-80.3282 Y22.6639 
G01 X-80.2026 Y22.6118 
G01 X-80.0895 Y22.5363 
G01 X-79.9933 Y22.4401 
G01 X-79.9178 Y22.3270 
G01 X-79.8657 Y22.2014 
G01 X-79.8392 Y22.0680 
G01 X-79.8392 Y21.9320 
G01 X-79.8657 Y21.7986 
G01 X-79.9178 Y21.6730 
G01 X-79.9933 Y21.5599 
G01 X-80.0895 Y21.4637 
G01 X-80.2026 Y21.3882 
G01 X-80.3282 Y21.3361 
G01 X-80.4616 Y21.3096 
G01 X-81.9184 Y21.3096 
G01 X-82.0518 Y21.3361 
G01 X-82.1774 Y21.3882 
G01 X-82.2905 Y21.4637 
G01 X-82.3867 Y21.5599 
G01 X-82.4622 Y21.6730 
G01 X-82.5143 Y21.7986 
G01 X-82.5408 Y21.9320 
G01 X-82.5408 Y22.0680 
G01 X-82.5143 Y22.2014 
G01 X-82.4622 Y22.3270 
G01 X-82.3867 Y22.4401 
G01 X-82.2905 Y22.5363 
G00 Z2.5400 
G00 X-82.2905 Y19.5363 
G01 Z-0.1778 F254.00 
G01 X-82.1774 Y19.6118 F508.00 
G01 X-82.0518 Y19.6639 
G01 X-81.9184 Y19.6904 
G01 X-80.4616 Y19.6904 
G01 X-80.3282 Y19.6639 
G01 X-80.2026 Y19.6118 
G01 X-80.0895 Y19.5363 
G01 X-79.9933 Y19.4401 
G01 X-79.9178 Y19.3270 
G01 X-79.8657 Y19.2014 
G01 X-79.8392 Y19.0680 
G01 X-79.8392 Y18.9320 
G01 X-79.8657 Y18.7986 
G01 X-79.9178 Y18.6730 
G01 X-79.9933 Y18.5599 
G01 X-80.0895 Y18.4637 
G01 X-80.2026 Y18.3882 
G01 X-80.3282 Y18.3361 
G01 X-80.4616 Y18.3096 
G01 X-81.9184 Y18.3096 
G01 X-82.0518 Y18.3361 
G01 X-82.1774 Y18.3882 
G01 X-82.2905 Y18.4637 
G01 X-82.3867 Y18.5599 
G01 X-82.4622 Y18.6730 
G01 X-82.5143 Y18.7986 
G01 X-82.5408 Y18.9320 
G01 X-82.5408 Y19.0680 
G01 X-82.5143 Y19.2014 
G01 X-82.4622 Y19.3270 
G01 X-82.3867 Y19.4401 
G01 X-82.2905 Y19.5363 
G00 Z2.5400 
G00 X-77.1904 Y19.4040 
G01 Z-0.1778 F254.00 
G01 X-77.1904 Y19.9760 F508.00 
G01 X-76.7860 Y20.3804 
G01 X-76.2140 Y20.3804 
G01 X-75.8096 Y19.9760 
G01 X-75.8096 Y19.4040 
G01 X-76.2140 Y18.9996 
G01 X-76.7860 Y18.9996 
G01 X-77.1904 Y19.4040 
G00 Z2.5400 
G00 X-72.6904 Y19.4040 
G01 Z-0.1778 F254.00 
G01 X-72.6904 Y19.9760 F508.00 
G01 X-72.2860 Y20.3804 
G01 X-71.7140 Y20.3804 
G01 X-71.3096 Y19.9760 
G01 X-71.3096 Y19.4040 
G01 X-71.7140 Y18.9996 
G01 X-72.2860 Y18.9996 
G01 X-72.6904 Y19.4040 
G00 Z2.5400 
G00 X-69.6904 Y19.4040 
G01 Z-0.1778 F254.00 
G01 X-69.6904 Y19.9760 F508.00 
G01 X-69.2860 Y20.3804 
G01 X-68.7140 Y20.3804 
G01 X-68.3096 Y19.9760 
G01 X-68.3096 Y19.4040 
G01 X-68.7140 Y18.9996 
G01 X-69.2860 Y18.9996 
G01 X-69.6904 Y19.4040 
G00 Z2.5400 
G00 X-69.6730 Y17.0422 
G01 Z-0.1778 F254.00 
G01 X-69.5599 Y16.9667 F508.00 
G01 X-69.4637 Y16.8705 
G01 X-69.3882 Y16.7574 
G01 X-69.3361 Y16.6318 
G01 X-69.3096 Y16.4984 
G01 X-69.3096 Y15.0416 
G01 X-69.3361 Y14.9082 
G01 X-69.3882 Y14.7826 
G01 X-69.4637 Y14.6695 
G01 X-69.5599 Y14.5733 
G01 X-69.6730 Y14.4978 
G01 X-69.7986 Y14.4457 
G01 X-69.9320 Y14.4192 
G01 X-70.0680 Y14.4192 
G01 X-70.2014 Y14.4457 
G01 X-70.3270 Y14.4978 
G01 X-70.4401 Y14.5733 
G01 X-70.5363 Y14.6695 
G01 X-70.6118 Y14.7826 
G01 X-70.6639 Y14.9082 
G01 X-70.6904 Y15.0416 
G01 X-70.6904 Y16.4984 
G01 X-70.6639 Y16.6318 
G01 X-70.6118 Y16.7574 
G01 X-70.5363 Y16.8705 
G01 X-70.4401 Y16.9667 
G01 X-70.3270 Y17.0422 
G01 X-70.2014 Y17.0943 
G01 X-70.0680 Y17.1208 
G01 X-69.9320 Y17.1208 
G01 X-69.7986 Y17.0943 
G01 X-69.6730 Y17.0422 
G00 Z2.5400 
G00 X-67.9963 Y16.8705 
G01 Z-0.1778 F254.00 
G01 X-67.9001 Y16.9667 F508.00 
G01 X-67.7870 Y17.0422 
G01 X-67.6614 Y17.0943 
G01 X-67.5280 Y17.1208 
G01 X-67.3920 Y17.1208 
G01 X-67.2586 Y17.0943 
G01 X-67.1330 Y17.0422 
G01 X-67.0199 Y16.9667 
G01 X-66.9237 Y16.8705 
G01 X-66.8482 Y16.7574 
G01 X-66.7961 Y16.6318 
G01 X-66.7696 Y16.4984 
G01 X-66.7696 Y15.0416 
G01 X-66.7961 Y14.9082 
G01 X-66.8482 Y14.7826 
G01 X-66.9237 Y14.6695 
G01 X-67.0199 Y14.5733 
G01 X-67.1330 Y14.4978 
G01 X-67.2586 Y14.4457 
G01 X-67.3920 Y14.4192 
G01 X-67.5280 Y14.4192 
G01 X-67.6614 Y14.4457 
G01 X-67.7870 Y14.4978 
G01 X-67.9001 Y14.5733 
G01 X-67.9963 Y14.6695 
G01 X-68.0718 Y14.7826 
G01 X-68.1239 Y14.9082 
G01 X-68.1504 Y15.0416 
G01 X-68.1504 Y16.4984 
G01 X-68.1239 Y16.6318 
G01 X-68.0718 Y16.7574 
G01 X-67.9963 Y16.8705 
G00 Z2.5400 
G00 X-66.6904 Y19.4040 
G01 Z-0.1778 F254.00 
G01 X-66.6904 Y19.9760 F508.00 
G01 X-66.2860 Y20.3804 
G01 X-65.7140 Y20.3804 
G01 X-65.3096 Y19.9760 
G01 X-65.3096 Y19.4040 
G01 X-65.7140 Y18.9996 
G01 X-66.2860 Y18.9996 
G01 X-66.6904 Y19.4040 
G00 Z2.5400 
G00 X-66.6904 Y27.0240 
G01 Z-0.1778 F254.00 
G01 X-66.6904 Y27.5960 F508.00 
G01 X-66.2860 Y28.0004 
G01 X-65.7140 Y28.0004 
G01 X-65.3096 Y27.5960 
G01 X-65.3096 Y27.0240 
G01 X-65.7140 Y26.6196 
G01 X-66.2860 Y26.6196 
G01 X-66.6904 Y27.0240 
G00 Z2.5400 
G00 X-68.3096 Y27.0240 
G01 Z-0.1778 F254.00 
G01 X-68.7140 Y26.6196 F508.00 
G01 X-69.2860 Y26.6196 
G01 X-69.6904 Y27.0240 
G01 X-69.6904 Y27.5960 
G01 X-69.2860 Y28.0004 
G01 X-68.7140 Y28.0004 
G01 X-68.3096 Y27.5960 
G01 X-68.3096 Y27.0240 
G00 Z2.5400 
G00 X-71.3096 Y27.0240 
G01 Z-0.1778 F254.00 
G01 X-71.7140 Y26.6196 F508.00 
G01 X-72.2860 Y26.6196 
G01 X-72.6904 Y27.0240 
G01 X-72.6904 Y27.5960 
G01 X-72.2860 Y28.0004 
G01 X-71.7140 Y28.0004 
G01 X-71.3096 Y27.5960 
G01 X-71.3096 Y27.0240 
G00 Z2.5400 
G00 X-75.8096 Y27.0240 
G01 Z-0.1778 F254.00 
G01 X-76.2140 Y26.6196 F508.00 
G01 X-76.7860 Y26.6196 
G01 X-77.1904 Y27.0240 
G01 X-77.1904 Y27.5960 
G01 X-76.7860 Y28.0004 
G01 X-76.2140 Y28.0004 
G01 X-75.8096 Y27.5960 
G01 X-75.8096 Y27.0240 
G00 Z2.5400 
G00 X-75.1652 Y30.8166 
G01 Z-0.1778 F254.00 
G01 X-75.3073 Y30.9588 F508.00 
G01 X-75.4190 Y31.1260 
G01 X-75.4960 Y31.3117 
G01 X-75.5352 Y31.5089 
G01 X-75.5352 Y33.6911 
G01 X-75.4960 Y33.8883 
G01 X-75.4190 Y34.0740 
G01 X-75.3073 Y34.2412 
G01 X-75.1652 Y34.3834 
G01 X-74.9980 Y34.4950 
G01 X-74.8123 Y34.5720 
G01 X-74.6151 Y34.6112 
G01 X-74.4141 Y34.6112 
G01 X-74.2169 Y34.5720 
G01 X-74.0312 Y34.4950 
G01 X-73.8640 Y34.3834 
G01 X-73.7218 Y34.2412 
G01 X-73.6102 Y34.0740 
G01 X-73.5332 Y33.8883 
G01 X-73.4940 Y33.6911 
G01 X-73.4940 Y31.5089 
G01 X-73.5332 Y31.3117 
G01 X-73.6102 Y31.1260 
G01 X-73.7218 Y30.9588 
G01 X-73.8640 Y30.8166 
G01 X-74.0312 Y30.7050 
G01 X-74.2169 Y30.6280 
G01 X-74.4141 Y30.5888 
G01 X-74.6151 Y30.5888 
G01 X-74.8123 Y30.6280 
G01 X-74.9980 Y30.7050 
G01 X-75.1652 Y30.8166 
G00 Z2.5400 
G00 X-79.1926 Y30.8588 
G01 Z-0.1778 F254.00 
G01 X-79.3348 Y30.7166 F508.00 
G01 X-79.5020 Y30.6050 
G01 X-79.6877 Y30.5280 
G01 X-79.8849 Y30.4888 
G01 X-80.0859 Y30.4888 
G01 X-80.2831 Y30.5280 
G01 X-80.4688 Y30.6050 
G01 X-80.6360 Y30.7166 
G01 X-80.7781 Y30.8588 
G01 X-80.8898 Y31.0260 
G01 X-80.9668 Y31.2117 
G01 X-81.0060 Y31.4089 
G01 X-81.0060 Y33.5911 
G01 X-80.9668 Y33.7883 
G01 X-80.8898 Y33.9740 
G01 X-80.7781 Y34.1412 
G01 X-80.6360 Y34.2833 
G01 X-80.4688 Y34.3950 
G01 X-80.2831 Y34.4720 
G01 X-80.0859 Y34.5112 
G01 X-79.8849 Y34.5112 
G01 X-79.6877 Y34.4720 
G01 X-79.5020 Y34.3950 
G01 X-79.3348 Y34.2833 
G01 X-79.1926 Y34.1412 
G01 X-79.0810 Y33.9740 
G01 X-79.0040 Y33.7883 
G01 X-78.9648 Y33.5911 
G01 X-78.9648 Y31.4089 
G01 X-79.0040 Y31.2117 
G01 X-79.0810 Y31.0260 
G01 X-79.1926 Y30.8588 
G00 Z2.5400 
G00 X-84.2218 Y30.8588 
G01 Z-0.1778 F254.00 
G01 X-84.3640 Y30.7166 F508.00 
G01 X-84.5312 Y30.6050 
G01 X-84.7169 Y30.5280 
G01 X-84.9141 Y30.4888 
G01 X-85.1151 Y30.4888 
G01 X-85.3123 Y30.5280 
G01 X-85.4980 Y30.6050 
G01 X-85.6652 Y30.7166 
G01 X-85.8073 Y30.8588 
G01 X-85.9190 Y31.0260 
G01 X-85.9960 Y31.2117 
G01 X-86.0352 Y31.4089 
G01 X-86.0352 Y33.5911 
G01 X-85.9960 Y33.7883 
G01 X-85.9190 Y33.9740 
G01 X-85.8073 Y34.1412 
G01 X-85.6652 Y34.2833 
G01 X-85.4980 Y34.3950 
G01 X-85.3123 Y34.4720 
G01 X-85.1151 Y34.5112 
G01 X-84.9141 Y34.5112 
G01 X-84.7169 Y34.4720 
G01 X-84.5312 Y34.3950 
G01 X-84.3640 Y34.2833 
G01 X-84.2218 Y34.1412 
G01 X-84.1102 Y33.9740 
G01 X-84.0332 Y33.7883 
G01 X-83.9940 Y33.5911 
G01 X-83.9940 Y31.4089 
G01 X-84.0332 Y31.2117 
G01 X-84.1102 Y31.0260 
G01 X-84.2218 Y30.8588 
G00 Z2.5400 
G00 X-70.2781 Y30.9588 
G01 Z-0.1778 F254.00 
G01 X-70.3898 Y31.1260 F508.00 
G01 X-70.4668 Y31.3117 
G01 X-70.5060 Y31.5089 
G01 X-70.5060 Y33.6911 
G01 X-70.4668 Y33.8883 
G01 X-70.3898 Y34.0740 
G01 X-70.2781 Y34.2412 
G01 X-70.1360 Y34.3834 
G01 X-69.9688 Y34.4950 
G01 X-69.7831 Y34.5720 
G01 X-69.5859 Y34.6112 
G01 X-69.3849 Y34.6112 
G01 X-69.1877 Y34.5720 
G01 X-69.0020 Y34.4950 
G01 X-68.8348 Y34.3834 
G01 X-68.6926 Y34.2412 
G01 X-68.5810 Y34.0740 
G01 X-68.5040 Y33.8883 
G01 X-68.4648 Y33.6911 
G01 X-68.4648 Y31.5089 
G01 X-68.5040 Y31.3117 
G01 X-68.5810 Y31.1260 
G01 X-68.6926 Y30.9588 
G01 X-68.8348 Y30.8166 
G01 X-69.0020 Y30.7050 
G01 X-69.1877 Y30.6280 
G01 X-69.3849 Y30.5888 
G01 X-69.5859 Y30.5888 
G01 X-69.7831 Y30.6280 
G01 X-69.9688 Y30.7050 
G01 X-70.1360 Y30.8166 
G01 X-70.2781 Y30.9588 
G00 Z2.5400 
G00 X-60.6852 Y31.1616 
G01 Z-0.1778 F254.00 
G01 X-60.8274 Y31.3038 F508.00 
G01 X-60.9390 Y31.4710 
G01 X-61.0160 Y31.6567 
G01 X-61.0552 Y31.8539 
G01 X-61.0552 Y34.0361 
G01 X-61.0160 Y34.2333 
G01 X-60.9390 Y34.4190 
G01 X-60.8274 Y34.5862 
G01 X-60.6852 Y34.7283 
G01 X-60.5180 Y34.8400 
G01 X-60.3323 Y34.9170 
G01 X-60.1351 Y34.9562 
G01 X-59.9341 Y34.9562 
G01 X-59.7369 Y34.9170 
G01 X-59.5512 Y34.8400 
G01 X-59.3840 Y34.7283 
G01 X-59.2418 Y34.5862 
G01 X-59.1302 Y34.4190 
G01 X-59.0532 Y34.2333 
G01 X-59.0140 Y34.0361 
G01 X-59.0140 Y31.8539 
G01 X-59.0532 Y31.6567 
G01 X-59.1302 Y31.4710 
G01 X-59.2418 Y31.3038 
G01 X-59.3840 Y31.1616 
G01 X-59.5512 Y31.0500 
G01 X-59.7369 Y30.9730 
G01 X-59.9341 Y30.9338 
G01 X-60.1351 Y30.9338 
G01 X-60.3323 Y30.9730 
G01 X-60.5180 Y31.0500 
G01 X-60.6852 Y31.1616 
G00 Z2.5400 
G00 X-55.6560 Y31.1616 
G01 Z-0.1778 F254.00 
G01 X-55.7981 Y31.3038 F508.00 
G01 X-55.9098 Y31.4710 
G01 X-55.9868 Y31.6567 
G01 X-56.0260 Y31.8539 
G01 X-56.0260 Y34.0361 
G01 X-55.9868 Y34.2333 
G01 X-55.9098 Y34.4190 
G01 X-55.7981 Y34.5862 
G01 X-55.6560 Y34.7283 
G01 X-55.4888 Y34.8400 
G01 X-55.3031 Y34.9170 
G01 X-55.1059 Y34.9562 
G01 X-54.9049 Y34.9562 
G01 X-54.7077 Y34.9170 
G01 X-54.5220 Y34.8400 
G01 X-54.3548 Y34.7283 
G01 X-54.2126 Y34.5862 
G01 X-54.1010 Y34.4190 
G01 X-54.0240 Y34.2333 
G01 X-53.9848 Y34.0361 
G01 X-53.9848 Y31.8539 
G01 X-54.0240 Y31.6567 
G01 X-54.1010 Y31.4710 
G01 X-54.2126 Y31.3038 
G01 X-54.3548 Y31.1616 
G01 X-54.5220 Y31.0500 
G01 X-54.7077 Y30.9730 
G01 X-54.9049 Y30.9338 
G01 X-55.1059 Y30.9338 
G01 X-55.3031 Y30.9730 
G01 X-55.4888 Y31.0500 
G01 X-55.6560 Y31.1616 
G00 Z2.5400 
G00 X-50.3070 Y30.9250 
G01 Z-0.1778 F254.00 
G01 X-50.3070 Y32.6050 F508.00 
G01 X-50.2766 Y32.7580 
G01 X-50.2169 Y32.9021 
G01 X-50.1302 Y33.0319 
G01 X-50.0199 Y33.1422 
G01 X-49.8901 Y33.2289 
G01 X-49.7460 Y33.2886 
G01 X-49.5930 Y33.3190 
G01 X-49.4370 Y33.3190 
G01 X-49.2840 Y33.2886 
G01 X-49.1398 Y33.2289 
G01 X-49.0101 Y33.1422 
G01 X-48.8998 Y33.0319 
G01 X-48.8131 Y32.9021 
G01 X-48.7534 Y32.7580 
G01 X-48.7230 Y32.6050 
G01 X-48.7230 Y30.9250 
G01 X-48.7534 Y30.7720 
G01 X-48.8131 Y30.6278 
G01 X-48.8998 Y30.4981 
G01 X-49.0101 Y30.3878 
G01 X-49.1398 Y30.3011 
G01 X-49.2840 Y30.2414 
G01 X-49.4370 Y30.2110 
G01 X-49.5930 Y30.2110 
G01 X-49.7460 Y30.2414 
G01 X-49.8901 Y30.3011 
G01 X-50.0199 Y30.3878 
G01 X-50.1302 Y30.4981 
G01 X-50.2169 Y30.6278 
G01 X-50.2766 Y30.7720 
G01 X-50.3070 Y30.9250 
G00 Z2.5400 
G00 X-47.7670 Y30.9250 
G01 Z-0.1778 F254.00 
G01 X-47.7670 Y32.6050 F508.00 
G01 X-47.7366 Y32.7580 
G01 X-47.6769 Y32.9021 
G01 X-47.5902 Y33.0319 
G01 X-47.4799 Y33.1422 
G01 X-47.3501 Y33.2289 
G01 X-47.2060 Y33.2886 
G01 X-47.0530 Y33.3190 
G01 X-46.8970 Y33.3190 
G01 X-46.7440 Y33.2886 
G01 X-46.5998 Y33.2289 
G01 X-46.4701 Y33.1422 
G01 X-46.3598 Y33.0319 
G01 X-46.2731 Y32.9021 
G01 X-46.2134 Y32.7580 
G01 X-46.1830 Y32.6050 
G01 X-46.1830 Y30.9250 
G01 X-46.2134 Y30.7720 
G01 X-46.2731 Y30.6278 
G01 X-46.3598 Y30.4981 
G01 X-46.4701 Y30.3878 
G01 X-46.5998 Y30.3011 
G01 X-46.7440 Y30.2414 
G01 X-46.8970 Y30.2110 
G01 X-47.0530 Y30.2110 
G01 X-47.2060 Y30.2414 
G01 X-47.3501 Y30.3011 
G01 X-47.4799 Y30.3878 
G01 X-47.5902 Y30.4981 
G01 X-47.6769 Y30.6278 
G01 X-47.7366 Y30.7720 
G01 X-47.7670 Y30.9250 
G00 Z2.5400 
G00 X-45.2270 Y30.9250 
G01 Z-0.1778 F254.00 
G01 X-45.2270 Y32.6050 F508.00 
G01 X-45.1966 Y32.7580 
G01 X-45.1369 Y32.9021 
G01 X-45.0502 Y33.0319 
G01 X-44.9399 Y33.1422 
G01 X-44.8102 Y33.2289 
G01 X-44.6660 Y33.2886 
G01 X-44.5130 Y33.3190 
G01 X-44.3570 Y33.3190 
G01 X-44.2040 Y33.2886 
G01 X-44.0598 Y33.2289 
G01 X-43.9301 Y33.1422 
G01 X-43.8198 Y33.0319 
G01 X-43.7331 Y32.9021 
G01 X-43.6734 Y32.7580 
G01 X-43.6430 Y32.6050 
G01 X-43.6430 Y30.9250 
G01 X-43.6734 Y30.7720 
G01 X-43.7331 Y30.6278 
G01 X-43.8198 Y30.4981 
G01 X-43.9301 Y30.3878 
G01 X-44.0598 Y30.3011 
G01 X-44.2040 Y30.2414 
G01 X-44.3570 Y30.2110 
G01 X-44.5130 Y30.2110 
G01 X-44.6660 Y30.2414 
G01 X-44.8102 Y30.3011 
G01 X-44.9399 Y30.3878 
G01 X-45.0502 Y30.4981 
G01 X-45.1369 Y30.6278 
G01 X-45.1966 Y30.7720 
G01 X-45.2270 Y30.9250 
G00 Z2.5400 
G00 X-40.1832 Y30.8413 
G01 Z-0.1778 F254.00 
G01 X-40.1832 Y32.6887 F508.00 
G01 X-40.1498 Y32.8564 
G01 X-40.0844 Y33.0144 
G01 X-39.9894 Y33.1566 
G01 X-39.8684 Y33.2776 
G01 X-39.7262 Y33.3726 
G01 X-39.5682 Y33.4380 
G01 X-39.4005 Y33.4714 
G01 X-39.2295 Y33.4714 
G01 X-39.0618 Y33.4380 
G01 X-38.9038 Y33.3726 
G01 X-38.7616 Y33.2776 
G01 X-38.6406 Y33.1566 
G01 X-38.5456 Y33.0144 
G01 X-38.4802 Y32.8564 
G01 X-38.4468 Y32.6887 
G01 X-38.4468 Y30.8413 
G01 X-38.4802 Y30.6736 
G01 X-38.5456 Y30.5156 
G01 X-38.6406 Y30.3734 
G01 X-38.7616 Y30.2524 
G01 X-38.9038 Y30.1574 
G01 X-39.0618 Y30.0920 
G01 X-39.2295 Y30.0586 
G01 X-39.4005 Y30.0586 
G01 X-39.5682 Y30.0920 
G01 X-39.7262 Y30.1574 
G01 X-39.8684 Y30.2524 
G01 X-39.9894 Y30.3734 
G01 X-40.0844 Y30.5156 
G01 X-40.1498 Y30.6736 
G01 X-40.1832 Y30.8413 
G00 Z2.5400 
G00 X-37.6432 Y30.8413 
G01 Z-0.1778 F254.00 
G01 X-37.6432 Y32.6887 F508.00 
G01 X-37.6098 Y32.8564 
G01 X-37.5444 Y33.0144 
G01 X-37.4494 Y33.1566 
G01 X-37.3284 Y33.2776 
G01 X-37.1862 Y33.3726 
G01 X-37.0282 Y33.4380 
G01 X-36.8605 Y33.4714 
G01 X-36.6895 Y33.4714 
G01 X-36.5218 Y33.4380 
G01 X-36.3638 Y33.3726 
G01 X-36.2216 Y33.2776 
G01 X-36.1006 Y33.1566 
G01 X-36.0056 Y33.0144 
G01 X-35.9402 Y32.8564 
G01 X-35.9068 Y32.6887 
G01 X-35.9068 Y30.8413 
G01 X-35.9402 Y30.6736 
G01 X-36.0056 Y30.5156 
G01 X-36.1006 Y30.3734 
G01 X-36.2216 Y30.2524 
G01 X-36.3638 Y30.1574 
G01 X-36.5218 Y30.0920 
G01 X-36.6895 Y30.0586 
G01 X-36.8605 Y30.0586 
G01 X-37.0282 Y30.0920 
G01 X-37.1862 Y30.1574 
G01 X-37.3284 Y30.2524 
G01 X-37.4494 Y30.3734 
G01 X-37.5444 Y30.5156 
G01 X-37.6098 Y30.6736 
G01 X-37.6432 Y30.8413 
G00 Z2.5400 
G00 X-35.1032 Y30.8413 
G01 Z-0.1778 F254.00 
G01 X-35.1032 Y32.6887 F508.00 
G01 X-35.0698 Y32.8564 
G01 X-35.0044 Y33.0144 
G01 X-34.9094 Y33.1566 
G01 X-34.7884 Y33.2776 
G01 X-34.6462 Y33.3726 
G01 X-34.4882 Y33.4380 
G01 X-34.3205 Y33.4714 
G01 X-34.1495 Y33.4714 
G01 X-33.9818 Y33.4380 
G01 X-33.8237 Y33.3726 
G01 X-33.6816 Y33.2776 
G01 X-33.5606 Y33.1566 
G01 X-33.4656 Y33.0144 
G01 X-33.4002 Y32.8564 
G01 X-33.3668 Y32.6887 
G01 X-33.3668 Y30.8413 
G01 X-33.4002 Y30.6736 
G01 X-33.4656 Y30.5156 
G01 X-33.5606 Y30.3734 
G01 X-33.6816 Y30.2524 
G01 X-33.8237 Y30.1574 
G01 X-33.9818 Y30.0920 
G01 X-34.1495 Y30.0586 
G01 X-34.3205 Y30.0586 
G01 X-34.4882 Y30.0920 
G01 X-34.6462 Y30.1574 
G01 X-34.7884 Y30.2524 
G01 X-34.9094 Y30.3734 
G01 X-35.0044 Y30.5156 
G01 X-35.0698 Y30.6736 
G01 X-35.1032 Y30.8413 
G00 Z2.5400 
G00 X-31.1459 Y31.4537 
G01 Z-0.1778 F254.00 
G01 X-31.2421 Y31.5499 F508.00 
G01 X-31.3176 Y31.6630 
G01 X-31.3697 Y31.7886 
G01 X-31.3962 Y31.9220 
G01 X-31.3962 Y32.0580 
G01 X-31.3697 Y32.1914 
G01 X-31.3176 Y32.3170 
G01 X-31.2421 Y32.4301 
G01 X-31.1459 Y32.5263 
G01 X-31.0328 Y32.6018 
G01 X-30.9072 Y32.6539 
G01 X-30.7738 Y32.6804 
G01 X-29.3170 Y32.6804 
G01 X-29.1836 Y32.6539 
G01 X-29.0580 Y32.6018 
G01 X-28.9449 Y32.5263 
G01 X-28.8487 Y32.4301 
G01 X-28.7732 Y32.3170 
G01 X-28.7211 Y32.1914 
G01 X-28.6946 Y32.0580 
G01 X-28.6946 Y31.9220 
G01 X-28.7211 Y31.7886 
G01 X-28.7732 Y31.6630 
G01 X-28.8487 Y31.5499 
G01 X-28.9449 Y31.4537 
G01 X-29.0580 Y31.3782 
G01 X-29.1836 Y31.3261 
G01 X-29.3170 Y31.2996 
G01 X-30.7738 Y31.2996 
G01 X-30.9072 Y31.3261 
G01 X-31.0328 Y31.3782 
G01 X-31.1459 Y31.4537 
G00 Z2.5400 
G00 X-31.0504 Y30.1160 
G01 Z-0.1778 F254.00 
G01 X-30.6460 Y30.5204 F508.00 
G01 X-30.0740 Y30.5204 
G01 X-29.6696 Y30.1160 
G01 X-29.6696 Y29.5440 
G01 X-30.0740 Y29.1396 
G01 X-30.6460 Y29.1396 
G01 X-31.0504 Y29.5440 
G01 X-31.0504 Y30.1160 
G00 Z2.5400 
G00 X-28.1704 Y30.2760 
G01 Z-0.1778 F254.00 
G01 X-27.7660 Y30.6804 F508.00 
G01 X-27.1940 Y30.6804 
G01 X-26.7896 Y30.2760 
G01 X-26.7896 Y29.7040 
G01 X-27.1940 Y29.2996 
G01 X-27.7660 Y29.2996 
G01 X-28.1704 Y29.7040 
G01 X-28.1704 Y30.2760 
G00 Z2.5400 
G00 X-28.8487 Y34.0899 
G01 Z-0.1778 F254.00 
G01 X-28.9449 Y33.9937 F508.00 
G01 X-29.0580 Y33.9182 
G01 X-29.1836 Y33.8661 
G01 X-29.3170 Y33.8396 
G01 X-30.7738 Y33.8396 
G01 X-30.9072 Y33.8661 
G01 X-31.0328 Y33.9182 
G01 X-31.1459 Y33.9937 
G01 X-31.2421 Y34.0899 
G01 X-31.3176 Y34.2030 
G01 X-31.3697 Y34.3286 
G01 X-31.3962 Y34.4620 
G01 X-31.3962 Y34.5980 
G01 X-31.3697 Y34.7314 
G01 X-31.3176 Y34.8570 
G01 X-31.2421 Y34.9701 
G01 X-31.1459 Y35.0663 
G01 X-31.0328 Y35.1418 
G01 X-30.9072 Y35.1939 
G01 X-30.7738 Y35.2204 
G01 X-29.3170 Y35.2204 
G01 X-29.1836 Y35.1939 
G01 X-29.0580 Y35.1418 
G01 X-28.9449 Y35.0663 
G01 X-28.8487 Y34.9701 
G01 X-28.7732 Y34.8570 
G01 X-28.7211 Y34.7314 
G01 X-28.6946 Y34.5980 
G01 X-28.6946 Y34.4620 
G01 X-28.7211 Y34.3286 
G01 X-28.7732 Y34.2030 
G01 X-28.8487 Y34.0899 
G00 Z2.5400 
G00 X-22.3013 Y34.0899 
G01 Z-0.1778 F254.00 
G01 X-22.3768 Y34.2030 F508.00 
G01 X-22.4289 Y34.3286 
G01 X-22.4554 Y34.4620 
G01 X-22.4554 Y34.5980 
G01 X-22.4289 Y34.7314 
G01 X-22.3768 Y34.8570 
G01 X-22.3013 Y34.9701 
G01 X-22.2051 Y35.0663 
G01 X-22.0920 Y35.1418 
G01 X-21.9664 Y35.1939 
G01 X-21.8330 Y35.2204 
G01 X-20.3762 Y35.2204 
G01 X-20.2428 Y35.1939 
G01 X-20.1172 Y35.1418 
G01 X-20.0041 Y35.0663 
G01 X-19.9079 Y34.9701 
G01 X-19.8324 Y34.8570 
G01 X-19.7803 Y34.7314 
G01 X-19.7538 Y34.5980 
G01 X-19.7538 Y34.4620 
G01 X-19.7803 Y34.3286 
G01 X-19.8324 Y34.2030 
G01 X-19.9079 Y34.0899 
G01 X-20.0041 Y33.9937 
G01 X-20.1172 Y33.9182 
G01 X-20.2428 Y33.8661 
G01 X-20.3762 Y33.8396 
G01 X-21.8330 Y33.8396 
G01 X-21.9664 Y33.8661 
G01 X-22.0920 Y33.9182 
G01 X-22.2051 Y33.9937 
G01 X-22.3013 Y34.0899 
G00 Z2.5400 
G00 X-22.3013 Y32.4301 
G01 Z-0.1778 F254.00 
G01 X-22.2051 Y32.5263 F508.00 
G01 X-22.0920 Y32.6018 
G01 X-21.9664 Y32.6539 
G01 X-21.8330 Y32.6804 
G01 X-20.3762 Y32.6804 
G01 X-20.2428 Y32.6539 
G01 X-20.1172 Y32.6018 
G01 X-20.0041 Y32.5263 
G01 X-19.9079 Y32.4301 
G01 X-19.8324 Y32.3170 
G01 X-19.7803 Y32.1914 
G01 X-19.7538 Y32.0580 
G01 X-19.7538 Y31.9220 
G01 X-19.7803 Y31.7886 
G01 X-19.8324 Y31.6630 
G01 X-19.9079 Y31.5499 
G01 X-20.0041 Y31.4537 
G01 X-20.1172 Y31.3782 
G01 X-20.2428 Y31.3261 
G01 X-20.3762 Y31.2996 
G01 X-21.8330 Y31.2996 
G01 X-21.9664 Y31.3261 
G01 X-22.0920 Y31.3782 
G01 X-22.2051 Y31.4537 
G01 X-22.3013 Y31.5499 
G01 X-22.3768 Y31.6630 
G01 X-22.4289 Y31.7886 
G01 X-22.4554 Y31.9220 
G01 X-22.4554 Y32.0580 
G01 X-22.4289 Y32.1914 
G01 X-22.3768 Y32.3170 
G01 X-22.3013 Y32.4301 
G00 Z2.5400 
G00 X-20.8871 Y28.5651 
G01 Z-0.1778 F254.00 
G01 X-20.7909 Y28.6613 F508.00 
G01 X-20.6778 Y28.7368 
G01 X-20.5522 Y28.7889 
G01 X-20.4188 Y28.8154 
G01 X-18.9620 Y28.8154 
G01 X-18.8286 Y28.7889 
G01 X-18.7030 Y28.7368 
G01 X-18.5899 Y28.6613 
G01 X-18.4937 Y28.5651 
G01 X-18.4182 Y28.4520 
G01 X-18.3661 Y28.3264 
G01 X-18.3396 Y28.1930 
G01 X-18.3396 Y28.0570 
G01 X-18.3661 Y27.9236 
G01 X-18.4182 Y27.7980 
G01 X-18.4937 Y27.6849 
G01 X-18.5899 Y27.5887 
G01 X-18.7030 Y27.5132 
G01 X-18.8286 Y27.4611 
G01 X-18.9620 Y27.4346 
G01 X-20.4188 Y27.4346 
G01 X-20.5522 Y27.4611 
G01 X-20.6778 Y27.5132 
G01 X-20.7909 Y27.5887 
G01 X-20.8871 Y27.6849 
G01 X-20.9626 Y27.7980 
G01 X-21.0147 Y27.9236 
G01 X-21.0412 Y28.0570 
G01 X-21.0412 Y28.1930 
G01 X-21.0147 Y28.3264 
G01 X-20.9626 Y28.4520 
G01 X-20.8871 Y28.5651 
G00 Z2.5400 
G00 X-20.8871 Y26.0251 
G01 Z-0.1778 F254.00 
G01 X-20.7909 Y26.1213 F508.00 
G01 X-20.6778 Y26.1968 
G01 X-20.5522 Y26.2489 
G01 X-20.4188 Y26.2754 
G01 X-18.9620 Y26.2754 
G01 X-18.8286 Y26.2489 
G01 X-18.7030 Y26.1968 
G01 X-18.5899 Y26.1213 
G01 X-18.4937 Y26.0251 
G01 X-18.4182 Y25.9120 
G01 X-18.3661 Y25.7864 
G01 X-18.3396 Y25.6530 
G01 X-18.3396 Y25.5170 
G01 X-18.3661 Y25.3836 
G01 X-18.4182 Y25.2580 
G01 X-18.4937 Y25.1449 
G01 X-18.5899 Y25.0487 
G01 X-18.7030 Y24.9732 
G01 X-18.8286 Y24.9211 
G01 X-18.9620 Y24.8946 
G01 X-20.4188 Y24.8946 
G01 X-20.5522 Y24.9211 
G01 X-20.6778 Y24.9732 
G01 X-20.7909 Y25.0487 
G01 X-20.8871 Y25.1449 
G01 X-20.9626 Y25.2580 
G01 X-21.0147 Y25.3836 
G01 X-21.0412 Y25.5170 
G01 X-21.0412 Y25.6530 
G01 X-21.0147 Y25.7864 
G01 X-20.9626 Y25.9120 
G01 X-20.8871 Y26.0251 
G00 Z2.5400 
G00 X-19.0332 Y21.0156 
G01 Z-0.1778 F254.00 
G01 X-19.0156 Y21.0332 F508.00 
G01 X-17.9844 Y21.0332 
G01 X-17.9668 Y21.0156 
G01 X-17.9668 Y19.9844 
G01 X-17.9844 Y19.9668 
G01 X-19.0156 Y19.9668 
G01 X-19.0332 Y19.9844 
G01 X-19.0332 Y20.1652 
G01 X-35.4668 Y20.1652 
G01 X-35.4668 Y19.9844 
G01 X-35.4844 Y19.9668 
G01 X-36.5156 Y19.9668 
G01 X-36.5332 Y19.9844 
G01 X-36.5332 Y21.0156 
G01 X-36.5156 Y21.0332 
G01 X-35.4844 Y21.0332 
G01 X-35.4668 Y21.0156 
G01 X-35.4668 Y20.8348 
G01 X-19.0332 Y20.8348 
G01 X-19.0332 Y21.0156 
G00 Z2.5400 
G00 X-16.4704 Y21.3140 
G01 Z-0.1778 F254.00 
G01 X-16.4704 Y21.8860 F508.00 
G01 X-16.0660 Y22.2904 
G01 X-15.4940 Y22.2904 
G01 X-15.0896 Y21.8860 
G01 X-15.0896 Y21.3140 
G01 X-15.4940 Y20.9096 
G01 X-16.0660 Y20.9096 
G01 X-16.4704 Y21.3140 
G00 Z2.5400 
G00 X-13.3904 Y21.1240 
G01 Z-0.1778 F254.00 
G01 X-13.3904 Y21.6960 F508.00 
G01 X-12.9860 Y22.1004 
G01 X-12.4140 Y22.1004 
G01 X-12.0096 Y21.6960 
G01 X-12.0096 Y21.1240 
G01 X-12.4140 Y20.7196 
G01 X-12.9860 Y20.7196 
G01 X-13.3904 Y21.1240 
G00 Z2.5400 
G00 X-10.0904 Y20.2260 
G01 Z-0.1778 F254.00 
G01 X-9.6860 Y20.6304 F508.00 
G01 X-9.1140 Y20.6304 
G01 X-8.7096 Y20.2260 
G01 X-8.7096 Y19.6540 
G01 X-9.1140 Y19.2496 
G01 X-9.6860 Y19.2496 
G01 X-10.0904 Y19.6540 
G01 X-10.0904 Y20.2260 
G00 Z2.5400 
G00 X-9.7560 Y22.1296 
G01 Z-0.1778 F254.00 
G01 X-10.1604 Y22.5340 F508.00 
G01 X-10.1604 Y23.1060 
G01 X-9.7560 Y23.5104 
G01 X-9.1840 Y23.5104 
G01 X-8.7796 Y23.1060 
G01 X-8.7796 Y22.5340 
G01 X-9.1840 Y22.1296 
G01 X-9.7560 Y22.1296 
G00 Z2.5400 
G00 X-9.7622 Y24.9732 
G01 Z-0.1778 F254.00 
G01 X-9.8878 Y24.9211 F508.00 
G01 X-10.0212 Y24.8946 
G01 X-11.4780 Y24.8946 
G01 X-11.6114 Y24.9211 
G01 X-11.7370 Y24.9732 
G01 X-11.8501 Y25.0487 
G01 X-11.9463 Y25.1449 
G01 X-12.0218 Y25.2580 
G01 X-12.0739 Y25.3836 
G01 X-12.1004 Y25.5170 
G01 X-12.1004 Y25.6530 
G01 X-12.0739 Y25.7864 
G01 X-12.0218 Y25.9120 
G01 X-11.9463 Y26.0251 
G01 X-11.8501 Y26.1213 
G01 X-11.7370 Y26.1968 
G01 X-11.6114 Y26.2489 
G01 X-11.4780 Y26.2754 
G01 X-10.0212 Y26.2754 
G01 X-9.8878 Y26.2489 
G01 X-9.7622 Y26.1968 
G01 X-9.6491 Y26.1213 
G01 X-9.5529 Y26.0251 
G01 X-9.4774 Y25.9120 
G01 X-9.4253 Y25.7864 
G01 X-9.3988 Y25.6530 
G01 X-9.3988 Y25.5170 
G01 X-9.4253 Y25.3836 
G01 X-9.4774 Y25.2580 
G01 X-9.5529 Y25.1449 
G01 X-9.6491 Y25.0487 
G01 X-9.7622 Y24.9732 
G00 Z2.5400 
G00 X-9.7622 Y27.5132 
G01 Z-0.1778 F254.00 
G01 X-9.8878 Y27.4611 F508.00 
G01 X-10.0212 Y27.4346 
G01 X-11.4780 Y27.4346 
G01 X-11.6114 Y27.4611 
G01 X-11.7370 Y27.5132 
G01 X-11.8501 Y27.5887 
G01 X-11.9463 Y27.6849 
G01 X-12.0218 Y27.7980 
G01 X-12.0739 Y27.9236 
G01 X-12.1004 Y28.0570 
G01 X-12.1004 Y28.1930 
G01 X-12.0739 Y28.3264 
G01 X-12.0218 Y28.4520 
G01 X-11.9463 Y28.5651 
G01 X-11.8501 Y28.6613 
G01 X-11.7370 Y28.7368 
G01 X-11.6114 Y28.7889 
G01 X-11.4780 Y28.8154 
G01 X-10.0212 Y28.8154 
G01 X-9.8878 Y28.7889 
G01 X-9.7622 Y28.7368 
G01 X-9.6491 Y28.6613 
G01 X-9.5529 Y28.5651 
G01 X-9.4774 Y28.4520 
G01 X-9.4253 Y28.3264 
G01 X-9.3988 Y28.1930 
G01 X-9.3988 Y28.0570 
G01 X-9.4253 Y27.9236 
G01 X-9.4774 Y27.7980 
G01 X-9.5529 Y27.6849 
G01 X-9.6491 Y27.5887 
G01 X-9.7622 Y27.5132 
G00 Z2.5400 
G00 X-7.0912 Y27.4309 
G01 Z-0.1778 F254.00 
G01 X-7.0520 Y27.6281 F508.00 
G01 X-6.9750 Y27.8138 
G01 X-6.8633 Y27.9810 
G01 X-6.7212 Y28.1231 
G01 X-6.5540 Y28.2348 
G01 X-6.3683 Y28.3118 
G01 X-6.1711 Y28.3510 
G01 X-3.9889 Y28.3510 
G01 X-3.7917 Y28.3118 
G01 X-3.6060 Y28.2348 
G01 X-3.4388 Y28.1231 
G01 X-3.2966 Y27.9810 
G01 X-3.1850 Y27.8138 
G01 X-3.1080 Y27.6281 
G01 X-3.0688 Y27.4309 
G01 X-3.0688 Y27.2299 
G01 X-3.1080 Y27.0327 
G01 X-3.1850 Y26.8470 
G01 X-3.2966 Y26.6798 
G01 X-3.4388 Y26.5376 
G01 X-3.6060 Y26.4260 
G01 X-3.7917 Y26.3490 
G01 X-3.9889 Y26.3098 
G01 X-6.1711 Y26.3098 
G01 X-6.3683 Y26.3490 
G01 X-6.5540 Y26.4260 
G01 X-6.7212 Y26.5376 
G01 X-6.8633 Y26.6798 
G01 X-6.9750 Y26.8470 
G01 X-7.0520 Y27.0327 
G01 X-7.0912 Y27.2299 
G01 X-7.0912 Y27.4309 
G00 Z2.5400 
G00 X-7.6596 Y31.1140 
G01 Z-0.1778 F254.00 
G01 X-8.0640 Y30.7096 F508.00 
G01 X-8.6360 Y30.7096 
G01 X-9.0404 Y31.1140 
G01 X-9.0404 Y31.6860 
G01 X-8.6360 Y32.0904 
G01 X-8.0640 Y32.0904 
G01 X-7.6596 Y31.6860 
G01 X-7.6596 Y31.1140 
G00 Z2.5400 
G00 X-6.7212 Y31.5668 
G01 Z-0.1778 F254.00 
G01 X-6.8633 Y31.7090 F508.00 
G01 X-6.9750 Y31.8762 
G01 X-7.0520 Y32.0619 
G01 X-7.0912 Y32.2591 
G01 X-7.0912 Y32.4601 
G01 X-7.0520 Y32.6573 
G01 X-6.9750 Y32.8430 
G01 X-6.8633 Y33.0102 
G01 X-6.7212 Y33.1523 
G01 X-6.5540 Y33.2640 
G01 X-6.3683 Y33.3410 
G01 X-6.1711 Y33.3802 
G01 X-3.9889 Y33.3802 
G01 X-3.7917 Y33.3410 
G01 X-3.6060 Y33.2640 
G01 X-3.4388 Y33.1523 
G01 X-3.2966 Y33.0102 
G01 X-3.1850 Y32.8430 
G01 X-3.1080 Y32.6573 
G01 X-3.0688 Y32.4601 
G01 X-3.0688 Y32.2591 
G01 X-3.1080 Y32.0619 
G01 X-3.1850 Y31.8762 
G01 X-3.2966 Y31.7090 
G01 X-3.4388 Y31.5668 
G01 X-3.6060 Y31.4552 
G01 X-3.7917 Y31.3782 
G01 X-3.9889 Y31.3390 
G01 X-6.1711 Y31.3390 
G01 X-6.3683 Y31.3782 
G01 X-6.5540 Y31.4552 
G01 X-6.7212 Y31.5668 
G00 Z2.5400 
G00 X-9.6228 Y34.2251 
G01 Z-0.1778 F254.00 
G01 X-9.7331 Y34.1148 F508.00 
G01 X-9.8628 Y34.0281 
G01 X-10.0070 Y33.9684 
G01 X-10.1600 Y33.9380 
G01 X-11.8400 Y33.9380 
G01 X-11.9930 Y33.9684 
G01 X-12.1372 Y34.0281 
G01 X-12.2669 Y34.1148 
G01 X-12.3772 Y34.2251 
G01 X-12.4639 Y34.3548 
G01 X-12.5236 Y34.4990 
G01 X-12.5540 Y34.6520 
G01 X-12.5540 Y34.8080 
G01 X-12.5236 Y34.9610 
G01 X-12.4639 Y35.1052 
G01 X-12.3772 Y35.2349 
G01 X-12.2669 Y35.3452 
G01 X-12.1372 Y35.4319 
G01 X-11.9930 Y35.4916 
G01 X-11.8400 Y35.5220 
G01 X-10.1600 Y35.5220 
G01 X-10.0070 Y35.4916 
G01 X-9.8628 Y35.4319 
G01 X-9.7331 Y35.3452 
G01 X-9.6228 Y35.2349 
G01 X-9.5361 Y35.1052 
G01 X-9.4764 Y34.9610 
G01 X-9.4460 Y34.8080 
G01 X-9.4460 Y34.6520 
G01 X-9.4764 Y34.4990 
G01 X-9.5361 Y34.3548 
G01 X-9.6228 Y34.2251 
G00 Z2.5400 
G00 X-9.6228 Y36.7651 
G01 Z-0.1778 F254.00 
G01 X-9.7331 Y36.6548 F508.00 
G01 X-9.8628 Y36.5681 
G01 X-10.0070 Y36.5084 
G01 X-10.1600 Y36.4780 
G01 X-11.8400 Y36.4780 
G01 X-11.9930 Y36.5084 
G01 X-12.1372 Y36.5681 
G01 X-12.2669 Y36.6548 
G01 X-12.3772 Y36.7651 
G01 X-12.4639 Y36.8948 
G01 X-12.5236 Y37.0390 
G01 X-12.5540 Y37.1920 
G01 X-12.5540 Y37.3480 
G01 X-12.5236 Y37.5010 
G01 X-12.4639 Y37.6452 
G01 X-12.3772 Y37.7749 
G01 X-12.2669 Y37.8852 
G01 X-12.1372 Y37.9719 
G01 X-11.9930 Y38.0316 
G01 X-11.8400 Y38.0620 
G01 X-10.1600 Y38.0620 
G01 X-10.0070 Y38.0316 
G01 X-9.8628 Y37.9719 
G01 X-9.7331 Y37.8852 
G01 X-9.6228 Y37.7749 
G01 X-9.5361 Y37.6452 
G01 X-9.4764 Y37.5010 
G01 X-9.4460 Y37.3480 
G01 X-9.4460 Y37.1920 
G01 X-9.4764 Y37.0390 
G01 X-9.5361 Y36.8948 
G01 X-9.6228 Y36.7651 
G00 Z2.5400 
G00 X-15.6840 Y32.0904 
G01 Z-0.1778 F254.00 
G01 X-15.2796 Y31.6860 F508.00 
G01 X-15.2796 Y31.1140 
G01 X-15.6840 Y30.7096 
G01 X-16.2560 Y30.7096 
G01 X-16.6604 Y31.1140 
G01 X-16.6604 Y31.6860 
G01 X-16.2560 Y32.0904 
G01 X-15.6840 Y32.0904 
G00 Z2.5400 
G00 X-15.4940 Y14.6704 
G01 Z-0.1778 F254.00 
G01 X-15.0896 Y14.2660 F508.00 
G01 X-15.0896 Y13.6940 
G01 X-15.4940 Y13.2896 
G01 X-16.0660 Y13.2896 
G01 X-16.4704 Y13.6940 
G01 X-16.4704 Y14.2660 
G01 X-16.0660 Y14.6704 
G01 X-15.4940 Y14.6704 
G00 Z2.5400 
G00 X-13.3904 Y14.0760 
G01 Z-0.1778 F254.00 
G01 X-12.9860 Y14.4804 F508.00 
G01 X-12.4140 Y14.4804 
G01 X-12.0096 Y14.0760 
G01 X-12.0096 Y13.5040 
G01 X-12.4140 Y13.0996 
G01 X-12.9860 Y13.0996 
G01 X-13.3904 Y13.5040 
G01 X-13.3904 Y14.0760 
G00 Z2.5400 
G00 X-10.1004 Y16.3740 
G01 Z-0.1778 F254.00 
G01 X-10.1004 Y16.9460 F508.00 
G01 X-9.6960 Y17.3504 
G01 X-9.1240 Y17.3504 
G01 X-8.7196 Y16.9460 
G01 X-8.7196 Y16.3740 
G01 X-9.1240 Y15.9696 
G01 X-9.6960 Y15.9696 
G01 X-10.1004 Y16.3740 
G00 Z2.5400 
G00 X-2.4804 Y16.3740 
G01 Z-0.1778 F254.00 
G01 X-2.4804 Y16.9460 F508.00 
G01 X-2.0760 Y17.3504 
G01 X-1.5040 Y17.3504 
G01 X-1.0996 Y16.9460 
G01 X-1.0996 Y16.3740 
G01 X-1.5040 Y15.9696 
G01 X-2.0760 Y15.9696 
G01 X-2.4804 Y16.3740 
G00 Z2.5400 
G00 X-2.4704 Y19.6540 
G01 Z-0.1778 F254.00 
G01 X-2.4704 Y20.2260 F508.00 
G01 X-2.0660 Y20.6304 
G01 X-1.4940 Y20.6304 
G01 X-1.0896 Y20.2260 
G01 X-1.0896 Y19.6540 
G01 X-1.4940 Y19.2496 
G01 X-2.0660 Y19.2496 
G01 X-2.4704 Y19.6540 
G00 Z2.5400 
G00 X-2.1360 Y22.1296 
G01 Z-0.1778 F254.00 
G01 X-2.5404 Y22.5340 F508.00 
G01 X-2.5404 Y23.1060 
G01 X-2.1360 Y23.5104 
G01 X-1.5640 Y23.5104 
G01 X-1.1596 Y23.1060 
G01 X-1.1596 Y22.5340 
G01 X-1.5640 Y22.1296 
G01 X-2.1360 Y22.1296 
G00 Z2.5400 
G00 X-2.9388 Y12.1573 
G01 Z-0.1778 F254.00 
G01 X-2.7966 Y12.0152 F508.00 
G01 X-2.6850 Y11.8480 
G01 X-2.6080 Y11.6623 
G01 X-2.5688 Y11.4651 
G01 X-2.5688 Y11.2641 
G01 X-2.6080 Y11.0669 
G01 X-2.6850 Y10.8812 
G01 X-2.7966 Y10.7140 
G01 X-2.9388 Y10.5718 
G01 X-3.1060 Y10.4602 
G01 X-3.2917 Y10.3832 
G01 X-3.4889 Y10.3440 
G01 X-5.6711 Y10.3440 
G01 X-5.8683 Y10.3832 
G01 X-6.0540 Y10.4602 
G01 X-6.2212 Y10.5718 
G01 X-6.3633 Y10.7140 
G01 X-6.4750 Y10.8812 
G01 X-6.5520 Y11.0669 
G01 X-6.5912 Y11.2641 
G01 X-6.5912 Y11.4651 
G01 X-6.5520 Y11.6623 
G01 X-6.4750 Y11.8480 
G01 X-6.3633 Y12.0152 
G01 X-6.2212 Y12.1573 
G01 X-6.0540 Y12.2690 
G01 X-5.8683 Y12.3460 
G01 X-5.6711 Y12.3852 
G01 X-3.4889 Y12.3852 
G01 X-3.2917 Y12.3460 
G01 X-3.1060 Y12.2690 
G01 X-2.9388 Y12.1573 
G00 Z2.5400 
G00 X-2.9388 Y7.1281 
G01 Z-0.1778 F254.00 
G01 X-2.7966 Y6.9860 F508.00 
G01 X-2.6850 Y6.8188 
G01 X-2.6080 Y6.6331 
G01 X-2.5688 Y6.4359 
G01 X-2.5688 Y6.2349 
G01 X-2.6080 Y6.0377 
G01 X-2.6850 Y5.8520 
G01 X-2.7966 Y5.6848 
G01 X-2.9388 Y5.5426 
G01 X-3.1060 Y5.4310 
G01 X-3.2917 Y5.3540 
G01 X-3.4889 Y5.3148 
G01 X-5.6711 Y5.3148 
G01 X-5.8683 Y5.3540 
G01 X-6.0540 Y5.4310 
G01 X-6.2212 Y5.5426 
G01 X-6.3633 Y5.6848 
G01 X-6.4750 Y5.8520 
G01 X-6.5520 Y6.0377 
G01 X-6.5912 Y6.2349 
G01 X-6.5912 Y6.4359 
G01 X-6.5520 Y6.6331 
G01 X-6.4750 Y6.8188 
G01 X-6.3633 Y6.9860 
G01 X-6.2212 Y7.1281 
G01 X-6.0540 Y7.2398 
G01 X-5.8683 Y7.3168 
G01 X-5.6711 Y7.3560 
G01 X-3.4889 Y7.3560 
G01 X-3.2917 Y7.3168 
G01 X-3.1060 Y7.2398 
G01 X-2.9388 Y7.1281 
G00 Z2.5400 
G00 X-22.2833 Y10.7199 
G01 Z-0.1778 F254.00 
G01 X-22.3795 Y10.6237 F508.00 
G01 X-22.4926 Y10.5482 
G01 X-22.6182 Y10.4961 
G01 X-22.7516 Y10.4696 
G01 X-24.2084 Y10.4696 
G01 X-24.3418 Y10.4961 
G01 X-24.4674 Y10.5482 
G01 X-24.5805 Y10.6237 
G01 X-24.6767 Y10.7199 
G01 X-24.7522 Y10.8330 
G01 X-24.8043 Y10.9586 
G01 X-24.8308 Y11.0920 
G01 X-24.8308 Y11.2280 
G01 X-24.8043 Y11.3614 
G01 X-24.7522 Y11.4870 
G01 X-24.6767 Y11.6001 
G01 X-24.5805 Y11.6963 
G01 X-24.4674 Y11.7718 
G01 X-24.3418 Y11.8239 
G01 X-24.2084 Y11.8504 
G01 X-22.7516 Y11.8504 
G01 X-22.6182 Y11.8239 
G01 X-22.4926 Y11.7718 
G01 X-22.3795 Y11.6963 
G01 X-22.2833 Y11.6001 
G01 X-22.2078 Y11.4870 
G01 X-22.1557 Y11.3614 
G01 X-22.1292 Y11.2280 
G01 X-22.1292 Y11.0920 
G01 X-22.1557 Y10.9586 
G01 X-22.2078 Y10.8330 
G01 X-22.2833 Y10.7199 
G00 Z2.5400 
G00 X-22.2833 Y13.2599 
G01 Z-0.1778 F254.00 
G01 X-22.3795 Y13.1637 F508.00 
G01 X-22.4926 Y13.0882 
G01 X-22.6182 Y13.0361 
G01 X-22.7516 Y13.0096 
G01 X-24.2084 Y13.0096 
G01 X-24.3418 Y13.0361 
G01 X-24.4674 Y13.0882 
G01 X-24.5805 Y13.1637 
G01 X-24.6767 Y13.2599 
G01 X-24.7522 Y13.3730 
G01 X-24.8043 Y13.4986 
G01 X-24.8308 Y13.6320 
G01 X-24.8308 Y13.7680 
G01 X-24.8043 Y13.9014 
G01 X-24.7522 Y14.0270 
G01 X-24.6767 Y14.1401 
G01 X-24.5805 Y14.2363 
G01 X-24.4674 Y14.3118 
G01 X-24.3418 Y14.3639 
G01 X-24.2084 Y14.3904 
G01 X-22.7516 Y14.3904 
G01 X-22.6182 Y14.3639 
G01 X-22.4926 Y14.3118 
G01 X-22.3795 Y14.2363 
G01 X-22.2833 Y14.1401 
G01 X-22.2078 Y14.0270 
G01 X-22.1557 Y13.9014 
G01 X-22.1292 Y13.7680 
G01 X-22.1292 Y13.6320 
G01 X-22.1557 Y13.4986 
G01 X-22.2078 Y13.3730 
G01 X-22.2833 Y13.2599 
G00 Z2.5400 
G00 X-22.2833 Y15.7999 
G01 Z-0.1778 F254.00 
G01 X-22.3795 Y15.7037 F508.00 
G01 X-22.4926 Y15.6282 
G01 X-22.6182 Y15.5761 
G01 X-22.7516 Y15.5496 
G01 X-24.2084 Y15.5496 
G01 X-24.3418 Y15.5761 
G01 X-24.4674 Y15.6282 
G01 X-24.5805 Y15.7037 
G01 X-24.6767 Y15.7999 
G01 X-24.7522 Y15.9130 
G01 X-24.8043 Y16.0386 
G01 X-24.8308 Y16.1720 
G01 X-24.8308 Y16.3080 
G01 X-24.8043 Y16.4414 
G01 X-24.7522 Y16.5670 
G01 X-24.6767 Y16.6801 
G01 X-24.5805 Y16.7763 
G01 X-24.4674 Y16.8518 
G01 X-24.3418 Y16.9039 
G01 X-24.2084 Y16.9304 
G01 X-22.7516 Y16.9304 
G01 X-22.6182 Y16.9039 
G01 X-22.4926 Y16.8518 
G01 X-22.3795 Y16.7763 
G01 X-22.2833 Y16.6801 
G01 X-22.2078 Y16.5670 
G01 X-22.1557 Y16.4414 
G01 X-22.1292 Y16.3080 
G01 X-22.1292 Y16.1720 
G01 X-22.1557 Y16.0386 
G01 X-22.2078 Y15.9130 
G01 X-22.2833 Y15.7999 
G00 Z2.5400 
G00 X-27.7683 Y16.0799 
G01 Z-0.1778 F254.00 
G01 X-27.8645 Y15.9837 F508.00 
G01 X-27.9776 Y15.9082 
G01 X-28.1032 Y15.8561 
G01 X-28.2366 Y15.8296 
G01 X-29.6934 Y15.8296 
G01 X-29.8268 Y15.8561 
G01 X-29.9524 Y15.9082 
G01 X-30.0655 Y15.9837 
G01 X-30.1617 Y16.0799 
G01 X-30.2372 Y16.1930 
G01 X-30.2893 Y16.3186 
G01 X-30.3158 Y16.4520 
G01 X-30.3158 Y16.5880 
G01 X-30.2893 Y16.7214 
G01 X-30.2372 Y16.8470 
G01 X-30.1617 Y16.9601 
G01 X-30.0655 Y17.0563 
G01 X-29.9524 Y17.1318 
G01 X-29.8268 Y17.1839 
G01 X-29.6934 Y17.2104 
G01 X-28.2366 Y17.2104 
G01 X-28.1032 Y17.1839 
G01 X-27.9776 Y17.1318 
G01 X-27.8645 Y17.0563 
G01 X-27.7683 Y16.9601 
G01 X-27.6928 Y16.8470 
G01 X-27.6407 Y16.7214 
G01 X-27.6142 Y16.5880 
G01 X-27.6142 Y16.4520 
G01 X-27.6407 Y16.3186 
G01 X-27.6928 Y16.1930 
G01 X-27.7683 Y16.0799 
G00 Z2.5400 
G00 X-27.8645 Y14.5163 
G01 Z-0.1778 F254.00 
G01 X-27.7683 Y14.4201 F508.00 
G01 X-27.6928 Y14.3070 
G01 X-27.6407 Y14.1814 
G01 X-27.6142 Y14.0480 
G01 X-27.6142 Y13.9120 
G01 X-27.6407 Y13.7786 
G01 X-27.6928 Y13.6530 
G01 X-27.7683 Y13.5399 
G01 X-27.8645 Y13.4437 
G01 X-27.9776 Y13.3682 
G01 X-28.1032 Y13.3161 
G01 X-28.2366 Y13.2896 
G01 X-29.6934 Y13.2896 
G01 X-29.8268 Y13.3161 
G01 X-29.9524 Y13.3682 
G01 X-30.0655 Y13.4437 
G01 X-30.1617 Y13.5399 
G01 X-30.2372 Y13.6530 
G01 X-30.2893 Y13.7786 
G01 X-30.3158 Y13.9120 
G01 X-30.3158 Y14.0480 
G01 X-30.2893 Y14.1814 
G01 X-30.2372 Y14.3070 
G01 X-30.1617 Y14.4201 
G01 X-30.0655 Y14.5163 
G01 X-29.9524 Y14.5918 
G01 X-29.8268 Y14.6439 
G01 X-29.6934 Y14.6704 
G01 X-28.2366 Y14.6704 
G01 X-28.1032 Y14.6439 
G01 X-27.9776 Y14.5918 
G01 X-27.8645 Y14.5163 
G00 Z2.5400 
G00 X-27.8645 Y18.5237 
G01 Z-0.1778 F254.00 
G01 X-27.9776 Y18.4482 F508.00 
G01 X-28.1032 Y18.3961 
G01 X-28.2366 Y18.3696 
G01 X-29.6934 Y18.3696 
G01 X-29.8268 Y18.3961 
G01 X-29.9524 Y18.4482 
G01 X-30.0655 Y18.5237 
G01 X-30.1617 Y18.6199 
G01 X-30.2372 Y18.7330 
G01 X-30.2893 Y18.8586 
G01 X-30.3158 Y18.9920 
G01 X-30.3158 Y19.1280 
G01 X-30.2893 Y19.2614 
G01 X-30.2372 Y19.3870 
G01 X-30.1617 Y19.5001 
G01 X-30.0655 Y19.5963 
G01 X-29.9524 Y19.6718 
G01 X-29.8268 Y19.7239 
G01 X-29.6934 Y19.7504 
G01 X-28.2366 Y19.7504 
G01 X-28.1032 Y19.7239 
G01 X-27.9776 Y19.6718 
G01 X-27.8645 Y19.5963 
G01 X-27.7683 Y19.5001 
G01 X-27.6928 Y19.3870 
G01 X-27.6407 Y19.2614 
G01 X-27.6142 Y19.1280 
G01 X-27.6142 Y18.9920 
G01 X-27.6407 Y18.8586 
G01 X-27.6928 Y18.7330 
G01 X-27.7683 Y18.6199 
G01 X-27.8645 Y18.5237 
G00 Z2.5400 
G00 X-27.7660 Y21.6796 
G01 Z-0.1778 F254.00 
G01 X-28.1704 Y22.0840 F508.00 
G01 X-28.1704 Y22.6560 
G01 X-27.7660 Y23.0604 
G01 X-27.1940 Y23.0604 
G01 X-26.7896 Y22.6560 
G01 X-26.7896 Y22.0840 
G01 X-27.1940 Y21.6796 
G01 X-27.7660 Y21.6796 
G00 Z2.5400 
G00 X-29.6696 Y21.9240 
G01 Z-0.1778 F254.00 
G01 X-30.0740 Y21.5196 F508.00 
G01 X-30.6460 Y21.5196 
G01 X-31.0504 Y21.9240 
G01 X-31.0504 Y22.4960 
G01 X-30.6460 Y22.9004 
G01 X-30.0740 Y22.9004 
G01 X-29.6696 Y22.4960 
G01 X-29.6696 Y21.9240 
G00 Z2.5400 
G00 X-33.4966 Y16.2576 
G01 Z-0.1778 F254.00 
G01 X-33.3756 Y16.1366 F508.00 
G01 X-33.2806 Y15.9944 
G01 X-33.2152 Y15.8364 
G01 X-33.1818 Y15.6687 
G01 X-33.1818 Y13.8213 
G01 X-33.2152 Y13.6536 
G01 X-33.2806 Y13.4955 
G01 X-33.3756 Y13.3534 
G01 X-33.4966 Y13.2324 
G01 X-33.6388 Y13.1374 
G01 X-33.7968 Y13.0720 
G01 X-33.9645 Y13.0386 
G01 X-34.1355 Y13.0386 
G01 X-34.3032 Y13.0720 
G01 X-34.4612 Y13.1374 
G01 X-34.6034 Y13.2324 
G01 X-34.7244 Y13.3534 
G01 X-34.8194 Y13.4955 
G01 X-34.8848 Y13.6536 
G01 X-34.9182 Y13.8213 
G01 X-34.9182 Y15.6687 
G01 X-34.8848 Y15.8364 
G01 X-34.8194 Y15.9944 
G01 X-34.7244 Y16.1366 
G01 X-34.6034 Y16.2576 
G01 X-34.4612 Y16.3526 
G01 X-34.3032 Y16.4180 
G01 X-34.1355 Y16.4514 
G01 X-33.9645 Y16.4514 
G01 X-33.7968 Y16.4180 
G01 X-33.6388 Y16.3526 
G01 X-33.4966 Y16.2576 
G00 Z2.5400 
G00 X-36.0366 Y16.2576 
G01 Z-0.1778 F254.00 
G01 X-35.9156 Y16.1366 F508.00 
G01 X-35.8206 Y15.9944 
G01 X-35.7552 Y15.8364 
G01 X-35.7218 Y15.6687 
G01 X-35.7218 Y13.8213 
G01 X-35.7552 Y13.6536 
G01 X-35.8206 Y13.4955 
G01 X-35.9156 Y13.3534 
G01 X-36.0366 Y13.2324 
G01 X-36.1788 Y13.1374 
G01 X-36.3368 Y13.0720 
G01 X-36.5045 Y13.0386 
G01 X-36.6755 Y13.0386 
G01 X-36.8432 Y13.0720 
G01 X-37.0012 Y13.1374 
G01 X-37.1434 Y13.2324 
G01 X-37.2644 Y13.3534 
G01 X-37.3594 Y13.4955 
G01 X-37.4248 Y13.6536 
G01 X-37.4582 Y13.8213 
G01 X-37.4582 Y15.6687 
G01 X-37.4248 Y15.8364 
G01 X-37.3594 Y15.9944 
G01 X-37.2644 Y16.1366 
G01 X-37.1434 Y16.2576 
G01 X-37.0012 Y16.3526 
G01 X-36.8432 Y16.4180 
G01 X-36.6755 Y16.4514 
G01 X-36.5045 Y16.4514 
G01 X-36.3368 Y16.4180 
G01 X-36.1788 Y16.3526 
G01 X-36.0366 Y16.2576 
G00 Z2.5400 
G00 X-38.5766 Y16.2576 
G01 Z-0.1778 F254.00 
G01 X-38.4556 Y16.1366 F508.00 
G01 X-38.3606 Y15.9944 
G01 X-38.2952 Y15.8364 
G01 X-38.2618 Y15.6687 
G01 X-38.2618 Y13.8213 
G01 X-38.2952 Y13.6536 
G01 X-38.3606 Y13.4955 
G01 X-38.4556 Y13.3534 
G01 X-38.5766 Y13.2324 
G01 X-38.7188 Y13.1374 
G01 X-38.8768 Y13.0720 
G01 X-39.0445 Y13.0386 
G01 X-39.2155 Y13.0386 
G01 X-39.3832 Y13.0720 
G01 X-39.5412 Y13.1374 
G01 X-39.6834 Y13.2324 
G01 X-39.8044 Y13.3534 
G01 X-39.8994 Y13.4955 
G01 X-39.9648 Y13.6536 
G01 X-39.9982 Y13.8213 
G01 X-39.9982 Y15.6687 
G01 X-39.9648 Y15.8364 
G01 X-39.8994 Y15.9944 
G01 X-39.8044 Y16.1366 
G01 X-39.6834 Y16.2576 
G01 X-39.5412 Y16.3526 
G01 X-39.3832 Y16.4180 
G01 X-39.2155 Y16.4514 
G01 X-39.0445 Y16.4514 
G01 X-38.8768 Y16.4180 
G01 X-38.7188 Y16.3526 
G01 X-38.5766 Y16.2576 
G00 Z2.5400 
G00 X-43.9801 Y16.1222 
G01 Z-0.1778 F254.00 
G01 X-43.8698 Y16.0119 F508.00 
G01 X-43.7831 Y15.8821 
G01 X-43.7234 Y15.7380 
G01 X-43.6930 Y15.5850 
G01 X-43.6930 Y13.9050 
G01 X-43.7234 Y13.7520 
G01 X-43.7831 Y13.6078 
G01 X-43.8698 Y13.4781 
G01 X-43.9801 Y13.3678 
G01 X-44.1098 Y13.2811 
G01 X-44.2540 Y13.2214 
G01 X-44.4070 Y13.1910 
G01 X-44.5630 Y13.1910 
G01 X-44.7160 Y13.2214 
G01 X-44.8601 Y13.2811 
G01 X-44.9899 Y13.3678 
G01 X-45.1002 Y13.4781 
G01 X-45.1869 Y13.6078 
G01 X-45.2466 Y13.7520 
G01 X-45.2770 Y13.9050 
G01 X-45.2770 Y15.5850 
G01 X-45.2466 Y15.7380 
G01 X-45.1869 Y15.8821 
G01 X-45.1002 Y16.0119 
G01 X-44.9899 Y16.1222 
G01 X-44.8601 Y16.2089 
G01 X-44.7160 Y16.2686 
G01 X-44.5630 Y16.2990 
G01 X-44.4070 Y16.2990 
G01 X-44.2540 Y16.2686 
G01 X-44.1098 Y16.2089 
G01 X-43.9801 Y16.1222 
G00 Z2.5400 
G00 X-46.5201 Y16.1222 
G01 Z-0.1778 F254.00 
G01 X-46.4098 Y16.0119 F508.00 
G01 X-46.3231 Y15.8821 
G01 X-46.2634 Y15.7380 
G01 X-46.2330 Y15.5850 
G01 X-46.2330 Y13.9050 
G01 X-46.2634 Y13.7520 
G01 X-46.3231 Y13.6078 
G01 X-46.4098 Y13.4781 
G01 X-46.5201 Y13.3678 
G01 X-46.6498 Y13.2811 
G01 X-46.7940 Y13.2214 
G01 X-46.9470 Y13.1910 
G01 X-47.1030 Y13.1910 
G01 X-47.2560 Y13.2214 
G01 X-47.4001 Y13.2811 
G01 X-47.5299 Y13.3678 
G01 X-47.6402 Y13.4781 
G01 X-47.7269 Y13.6078 
G01 X-47.7866 Y13.7520 
G01 X-47.8170 Y13.9050 
G01 X-47.8170 Y15.5850 
G01 X-47.7866 Y15.7380 
G01 X-47.7269 Y15.8821 
G01 X-47.6402 Y16.0119 
G01 X-47.5299 Y16.1222 
G01 X-47.4001 Y16.2089 
G01 X-47.2560 Y16.2686 
G01 X-47.1030 Y16.2990 
G01 X-46.9470 Y16.2990 
G01 X-46.7940 Y16.2686 
G01 X-46.6498 Y16.2089 
G01 X-46.5201 Y16.1222 
G00 Z2.5400 
G00 X-49.0601 Y16.1222 
G01 Z-0.1778 F254.00 
G01 X-48.9498 Y16.0119 F508.00 
G01 X-48.8631 Y15.8821 
G01 X-48.8034 Y15.7380 
G01 X-48.7730 Y15.5850 
G01 X-48.7730 Y13.9050 
G01 X-48.8034 Y13.7520 
G01 X-48.8631 Y13.6078 
G01 X-48.9498 Y13.4781 
G01 X-49.0601 Y13.3678 
G01 X-49.1898 Y13.2811 
G01 X-49.3340 Y13.2214 
G01 X-49.4870 Y13.1910 
G01 X-49.6430 Y13.1910 
G01 X-49.7960 Y13.2214 
G01 X-49.9402 Y13.2811 
G01 X-50.0699 Y13.3678 
G01 X-50.1802 Y13.4781 
G01 X-50.2669 Y13.6078 
G01 X-50.3266 Y13.7520 
G01 X-50.3570 Y13.9050 
G01 X-50.3570 Y15.5850 
G01 X-50.3266 Y15.7380 
G01 X-50.2669 Y15.8821 
G01 X-50.1802 Y16.0119 
G01 X-50.0699 Y16.1222 
G01 X-49.9402 Y16.2089 
G01 X-49.7960 Y16.2686 
G01 X-49.6430 Y16.2990 
G01 X-49.4870 Y16.2990 
G01 X-49.3340 Y16.2686 
G01 X-49.1898 Y16.2089 
G01 X-49.0601 Y16.1222 
G00 Z2.5400 
G00 X-49.0901 Y3.9872 
G01 Z-0.1778 F254.00 
G01 X-48.9798 Y3.8769 F508.00 
G01 X-48.8931 Y3.7471 
G01 X-48.8334 Y3.6030 
G01 X-48.8030 Y3.4500 
G01 X-48.8030 Y1.7700 
G01 X-48.8334 Y1.6170 
G01 X-48.8931 Y1.4728 
G01 X-48.9798 Y1.3431 
G01 X-49.0901 Y1.2328 
G01 X-49.2198 Y1.1461 
G01 X-49.3640 Y1.0864 
G01 X-49.5170 Y1.0560 
G01 X-49.6730 Y1.0560 
G01 X-49.8260 Y1.0864 
G01 X-49.9701 Y1.1461 
G01 X-50.0999 Y1.2328 
G01 X-50.2102 Y1.3431 
G01 X-50.2969 Y1.4728 
G01 X-50.3566 Y1.6170 
G01 X-50.3870 Y1.7700 
G01 X-50.3870 Y3.4500 
G01 X-50.3566 Y3.6030 
G01 X-50.2969 Y3.7471 
G01 X-50.2102 Y3.8769 
G01 X-50.0999 Y3.9872 
G01 X-49.9701 Y4.0739 
G01 X-49.8260 Y4.1336 
G01 X-49.6730 Y4.1640 
G01 X-49.5170 Y4.1640 
G01 X-49.3640 Y4.1336 
G01 X-49.2198 Y4.0739 
G01 X-49.0901 Y3.9872 
G00 Z2.5400 
G00 X-47.6702 Y3.8769 
G01 Z-0.1778 F254.00 
G01 X-47.5599 Y3.9872 F508.00 
G01 X-47.4301 Y4.0739 
G01 X-47.2860 Y4.1336 
G01 X-47.1330 Y4.1640 
G01 X-46.9770 Y4.1640 
G01 X-46.8240 Y4.1336 
G01 X-46.6798 Y4.0739 
G01 X-46.5501 Y3.9872 
G01 X-46.4398 Y3.8769 
G01 X-46.3531 Y3.7471 
G01 X-46.2934 Y3.6030 
G01 X-46.2630 Y3.4500 
G01 X-46.2630 Y1.7700 
G01 X-46.2934 Y1.6170 
G01 X-46.3531 Y1.4728 
G01 X-46.4398 Y1.3431 
G01 X-46.5501 Y1.2328 
G01 X-46.6798 Y1.1461 
G01 X-46.8240 Y1.0864 
G01 X-46.9770 Y1.0560 
G01 X-47.1330 Y1.0560 
G01 X-47.2860 Y1.0864 
G01 X-47.4301 Y1.1461 
G01 X-47.5599 Y1.2328 
G01 X-47.6702 Y1.3431 
G01 X-47.7569 Y1.4728 
G01 X-47.8166 Y1.6170 
G01 X-47.8470 Y1.7700 
G01 X-47.8470 Y3.4500 
G01 X-47.8166 Y3.6030 
G01 X-47.7569 Y3.7471 
G01 X-47.6702 Y3.8769 
G00 Z2.5400 
G00 X-45.1302 Y3.8769 
G01 Z-0.1778 F254.00 
G01 X-45.0199 Y3.9872 F508.00 
G01 X-44.8901 Y4.0739 
G01 X-44.7460 Y4.1336 
G01 X-44.5930 Y4.1640 
G01 X-44.4370 Y4.1640 
G01 X-44.2840 Y4.1336 
G01 X-44.1398 Y4.0739 
G01 X-44.0101 Y3.9872 
G01 X-43.8998 Y3.8769 
G01 X-43.8131 Y3.7471 
G01 X-43.7534 Y3.6030 
G01 X-43.7230 Y3.4500 
G01 X-43.7230 Y1.7700 
G01 X-43.7534 Y1.6170 
G01 X-43.8131 Y1.4728 
G01 X-43.8998 Y1.3431 
G01 X-44.0101 Y1.2328 
G01 X-44.1398 Y1.1461 
G01 X-44.2840 Y1.0864 
G01 X-44.4370 Y1.0560 
G01 X-44.5930 Y1.0560 
G01 X-44.7460 Y1.0864 
G01 X-44.8901 Y1.1461 
G01 X-45.0199 Y1.2328 
G01 X-45.1302 Y1.3431 
G01 X-45.2169 Y1.4728 
G01 X-45.2766 Y1.6170 
G01 X-45.3070 Y1.7700 
G01 X-45.3070 Y3.4500 
G01 X-45.2766 Y3.6030 
G01 X-45.2169 Y3.7471 
G01 X-45.1302 Y3.8769 
G00 Z2.5400 
G00 X-40.1444 Y3.8344 
G01 Z-0.1778 F254.00 
G01 X-40.0494 Y3.9766 F508.00 
G01 X-39.9284 Y4.0976 
G01 X-39.7862 Y4.1926 
G01 X-39.6282 Y4.2580 
G01 X-39.4605 Y4.2914 
G01 X-39.2895 Y4.2914 
G01 X-39.1218 Y4.2580 
G01 X-38.9637 Y4.1926 
G01 X-38.8216 Y4.0976 
G01 X-38.7006 Y3.9766 
G01 X-38.6056 Y3.8344 
G01 X-38.5402 Y3.6764 
G01 X-38.5068 Y3.5087 
G01 X-38.5068 Y1.6613 
G01 X-38.5402 Y1.4936 
G01 X-38.6056 Y1.3356 
G01 X-38.7006 Y1.1934 
G01 X-38.8216 Y1.0724 
G01 X-38.9637 Y0.9774 
G01 X-39.1218 Y0.9120 
G01 X-39.2895 Y0.8786 
G01 X-39.4605 Y0.8786 
G01 X-39.6282 Y0.9120 
G01 X-39.7862 Y0.9774 
G01 X-39.9284 Y1.0724 
G01 X-40.0494 Y1.1934 
G01 X-40.1444 Y1.3356 
G01 X-40.2098 Y1.4936 
G01 X-40.2432 Y1.6613 
G01 X-40.2432 Y3.5087 
G01 X-40.2098 Y3.6764 
G01 X-40.1444 Y3.8344 
G00 Z2.5400 
G00 X-37.6044 Y3.8344 
G01 Z-0.1778 F254.00 
G01 X-37.5094 Y3.9766 F508.00 
G01 X-37.3884 Y4.0976 
G01 X-37.2462 Y4.1926 
G01 X-37.0882 Y4.2580 
G01 X-36.9205 Y4.2914 
G01 X-36.7495 Y4.2914 
G01 X-36.5818 Y4.2580 
G01 X-36.4237 Y4.1926 
G01 X-36.2816 Y4.0976 
G01 X-36.1606 Y3.9766 
G01 X-36.0656 Y3.8344 
G01 X-36.0002 Y3.6764 
G01 X-35.9668 Y3.5087 
G01 X-35.9668 Y1.6613 
G01 X-36.0002 Y1.4936 
G01 X-36.0656 Y1.3356 
G01 X-36.1606 Y1.1934 
G01 X-36.2816 Y1.0724 
G01 X-36.4237 Y0.9774 
G01 X-36.5818 Y0.9120 
G01 X-36.7495 Y0.8786 
G01 X-36.9205 Y0.8786 
G01 X-37.0882 Y0.9120 
G01 X-37.2462 Y0.9774 
G01 X-37.3884 Y1.0724 
G01 X-37.5094 Y1.1934 
G01 X-37.6044 Y1.3356 
G01 X-37.6698 Y1.4936 
G01 X-37.7032 Y1.6613 
G01 X-37.7032 Y3.5087 
G01 X-37.6698 Y3.6764 
G01 X-37.6044 Y3.8344 
G00 Z2.5400 
G00 X-35.0644 Y3.8344 
G01 Z-0.1778 F254.00 
G01 X-34.9694 Y3.9766 F508.00 
G01 X-34.8484 Y4.0976 
G01 X-34.7062 Y4.1926 
G01 X-34.5482 Y4.2580 
G01 X-34.3805 Y4.2914 
G01 X-34.2095 Y4.2914 
G01 X-34.0418 Y4.2580 
G01 X-33.8837 Y4.1926 
G01 X-33.7416 Y4.0976 
G01 X-33.6206 Y3.9766 
G01 X-33.5256 Y3.8344 
G01 X-33.4602 Y3.6764 
G01 X-33.4268 Y3.5087 
G01 X-33.4268 Y1.6613 
G01 X-33.4602 Y1.4936 
G01 X-33.5256 Y1.3356 
G01 X-33.6206 Y1.1934 
G01 X-33.7416 Y1.0724 
G01 X-33.8837 Y0.9774 
G01 X-34.0418 Y0.9120 
G01 X-34.2095 Y0.8786 
G01 X-34.3805 Y0.8786 
G01 X-34.5482 Y0.9120 
G01 X-34.7062 Y0.9774 
G01 X-34.8484 Y1.0724 
G01 X-34.9694 Y1.1934 
G01 X-35.0644 Y1.3356 
G01 X-35.1298 Y1.4936 
G01 X-35.1632 Y1.6613 
G01 X-35.1632 Y3.5087 
G01 X-35.1298 Y3.6764 
G01 X-35.0644 Y3.8344 
G00 Z2.5400 
G00 X-16.6904 Y-3.8140 
G01 Z-0.1778 F254.00 
G01 X-16.2860 Y-3.4096 F508.00 
G01 X-15.7140 Y-3.4096 
G01 X-15.3096 Y-3.8140 
G01 X-15.3096 Y-4.3860 
G01 X-15.7140 Y-4.7904 
G01 X-16.2860 Y-4.7904 
G01 X-16.6904 Y-4.3860 
G01 X-16.6904 Y-3.8140 
G00 Z2.5400 
G00 X-21.2740 Y-11.8096 
G01 Z-0.1778 F254.00 
G01 X-20.8696 Y-12.2140 F508.00 
G01 X-20.8696 Y-12.7860 
G01 X-21.2740 Y-13.1904 
G01 X-21.8460 Y-13.1904 
G01 X-22.2504 Y-12.7860 
G01 X-22.2504 Y-12.2140 
G01 X-21.8460 Y-11.8096 
G01 X-21.2740 Y-11.8096 
G00 Z2.5400 
G00 X-21.6740 Y-15.8096 
G01 Z-0.1778 F254.00 
G01 X-21.2696 Y-16.2140 F508.00 
G01 X-21.2696 Y-16.7860 
G01 X-21.6740 Y-17.1904 
G01 X-22.2460 Y-17.1904 
G01 X-22.6504 Y-16.7860 
G01 X-22.6504 Y-16.2140 
G01 X-22.2460 Y-15.8096 
G01 X-21.6740 Y-15.8096 
G00 Z2.5400 
G00 X-1.6241 Y-0.4856 
G01 Z-0.1778 F254.00 
G01 X-1.2056 Y-0.9041 F508.00 
G01 X-1.2056 Y-1.4959 
G01 X-1.6241 Y-1.9144 
G01 X-2.2159 Y-1.9144 
G01 X-2.6344 Y-1.4959 
G01 X-2.6344 Y-0.9041 
G01 X-2.2159 Y-0.4856 
G01 X-1.6241 Y-0.4856 
G00 Z2.5400 
G00 X-1.6441 Y0.7856 
G01 Z-0.1778 F254.00 
G01 X-2.2359 Y0.7856 F508.00 
G01 X-2.6544 Y1.2041 
G01 X-2.6544 Y1.7959 
G01 X-2.2359 Y2.2144 
G01 X-1.6441 Y2.2144 
G01 X-1.2256 Y1.7959 
G01 X-1.2256 Y1.2041 
G01 X-1.6441 Y0.7856 
G00 Z2.5400 
G00 X-1.6041 Y-3.7856 
G01 Z-0.1778 F254.00 
G01 X-1.1856 Y-4.2041 F508.00 
G01 X-1.1856 Y-4.7959 
G01 X-1.6041 Y-5.2144 
G01 X-2.1959 Y-5.2144 
G01 X-2.6144 Y-4.7959 
G01 X-2.6144 Y-4.2041 
G01 X-2.1959 Y-3.7856 
G01 X-1.6041 Y-3.7856 
G00 Z2.5400 
G00 X-2.7489 Y-8.9086 
G01 Z-0.1778 F254.00 
G01 X-2.6326 Y-9.0249 F508.00 
G01 X-2.5360 Y-9.1579 
G01 X-2.4613 Y-9.3044 
G01 X-2.4105 Y-9.4608 
G01 X-2.3848 Y-9.6232 
G01 X-2.3848 Y-9.7876 
G01 X-2.4105 Y-9.9500 
G01 X-2.4613 Y-10.1064 
G01 X-2.5360 Y-10.2529 
G01 X-2.6326 Y-10.3859 
G01 X-2.7489 Y-10.5022 
G01 X-2.8819 Y-10.5988 
G01 X-3.0284 Y-10.6735 
G01 X-3.1848 Y-10.7243 
G01 X-3.3472 Y-10.7500 
G01 X-5.4928 Y-10.7500 
G01 X-5.6552 Y-10.7243 
G01 X-5.8116 Y-10.6735 
G01 X-5.9581 Y-10.5988 
G01 X-6.0911 Y-10.5022 
G01 X-6.2074 Y-10.3859 
G01 X-6.3040 Y-10.2529 
G01 X-6.3787 Y-10.1064 
G01 X-6.4295 Y-9.9500 
G01 X-6.4552 Y-9.7876 
G01 X-6.4552 Y-9.6232 
G01 X-6.4295 Y-9.4608 
G01 X-6.3787 Y-9.3044 
G01 X-6.3040 Y-9.1579 
G01 X-6.2074 Y-9.0249 
G01 X-6.0911 Y-8.9086 
G01 X-5.9581 Y-8.8120 
G01 X-5.8116 Y-8.7373 
G01 X-5.6552 Y-8.6865 
G01 X-5.4928 Y-8.6608 
G01 X-3.3472 Y-8.6608 
G01 X-3.1848 Y-8.6865 
G01 X-3.0284 Y-8.7373 
G01 X-2.8819 Y-8.8120 
G01 X-2.7489 Y-8.9086 
G00 Z2.5400 
G00 X-2.7489 Y-13.9378 
G01 Z-0.1778 F254.00 
G01 X-2.6326 Y-14.0541 F508.00 
G01 X-2.5360 Y-14.1871 
G01 X-2.4613 Y-14.3336 
G01 X-2.4105 Y-14.4900 
G01 X-2.3848 Y-14.6524 
G01 X-2.3848 Y-14.8168 
G01 X-2.4105 Y-14.9792 
G01 X-2.4613 Y-15.1356 
G01 X-2.5360 Y-15.2821 
G01 X-2.6326 Y-15.4151 
G01 X-2.7489 Y-15.5314 
G01 X-2.8819 Y-15.6280 
