(.../pcb-gcode-3.6.2.4/pcb-gcode.ulp)
(Copyright 2005 - 2012 by John Johnson)
(See readme.txt for licensing terms.)
(This file generated from the board:)
(.../Documents/eagle/H2/untitled.brd)
(Current profile is .../pcb-gcode-3.6.2.4/profiles/generic.pp  )
(This file generated 17.05.2017 16:51)
(Settings from pcb-machine.h)
(spindle on time = 3.0000)
(  Tool Size)
(0.0600 )
(spindle speed = 30000.0000)
(tool change at 0.0000 0.0000 25.4000 )
(feed rate xy = F508.00 )
(feed rate z  = F254.00 )
(Z Axis Settings)
(  High     Up        Down     Drill)
(12.7000 	2.5400 	-0.1778 	-0.8128 )
(Settings from pcb-defaults.h)
(isolate min = 0.0000)
(isolate max = 0.3810)
(isolate step = 0.0240)
(Generated top outlines, top drill, bottom outlines, bottom drill, )
(Unit of measure: mm)
(Metric Mode)
G21
(Absolute Coordinates)
G90
S30000
G00 Z12.7000 
G00 X0.0000 Y0.0000 
M03
G04 P3.000000
G00 Z2.5400 
G00 X1.5852 Y-0.5584 
G01 Z-0.1778 F254.00 
G01 X1.5852 Y0.8784 F508.00 
G01 X1.2496 Y1.2140 
G01 X1.2496 Y1.7860 
G01 X1.6052 Y2.1416 
G01 X1.6052 Y6.0555 
G01 X1.5844 Y6.0675 
G01 X1.5221 Y6.1298 
G01 X1.4780 Y6.2062 
G01 X1.4552 Y6.2913 
G01 X1.4552 Y16.0184 
G01 X1.0996 Y16.3740 
G01 X1.0996 Y16.9460 
G01 X1.4452 Y17.2916 
G01 X1.4452 Y19.2984 
G01 X1.0896 Y19.6540 
G01 X1.0896 Y20.2260 
G01 X1.4940 Y20.6304 
G01 X2.0660 Y20.6304 
G01 X2.4704 Y20.2260 
G01 X2.4704 Y19.6540 
G01 X2.1148 Y19.2984 
G01 X2.1148 Y17.3116 
G01 X2.4804 Y16.9460 
G01 X2.4804 Y16.3740 
G01 X2.1248 Y16.0184 
G01 X2.1248 Y6.6702 
G01 X2.6234 Y6.6702 
G01 X2.6850 Y6.8188 
G01 X2.7966 Y6.9860 
G01 X2.9388 Y7.1281 
G01 X3.1060 Y7.2398 
G01 X3.2917 Y7.3168 
G01 X3.4889 Y7.3560 
G01 X5.6711 Y7.3560 
G01 X5.8683 Y7.3168 
G01 X6.0540 Y7.2398 
G01 X6.2212 Y7.1281 
G01 X6.3633 Y6.9860 
G01 X6.4750 Y6.8188 
G01 X6.5520 Y6.6331 
G01 X6.5912 Y6.4359 
G01 X6.5912 Y6.2349 
G01 X6.5520 Y6.0377 
G01 X6.4750 Y5.8520 
G01 X6.3633 Y5.6848 
G01 X6.2212 Y5.5426 
G01 X6.0540 Y5.4310 
G01 X5.8683 Y5.3540 
G01 X5.6711 Y5.3148 
G01 X3.4889 Y5.3148 
G01 X3.2917 Y5.3540 
G01 X3.1060 Y5.4310 
G01 X2.9388 Y5.5426 
G01 X2.7966 Y5.6848 
G01 X2.6850 Y5.8520 
G01 X2.6234 Y6.0006 
G01 X2.2748 Y6.0006 
G01 X2.2748 Y2.1416 
G01 X2.6304 Y1.7860 
G01 X2.6304 Y1.2140 
G01 X2.2548 Y0.8384 
G01 X2.2548 Y-0.5584 
G01 X2.6104 Y-0.9140 
G01 X2.6104 Y-1.4860 
G01 X2.2060 Y-1.8904 
G01 X1.6340 Y-1.8904 
G01 X1.2296 Y-1.4860 
G01 X1.2296 Y-0.9140 
G01 X1.5852 Y-0.5584 
G00 Z2.5400 
G00 X2.7497 Y-0.5634 
G01 Z-0.1778 F254.00 
G01 X2.6769 Y-0.4545 F508.00 
G01 X2.6268 Y-0.3335 
G01 X2.6012 Y-0.2050 
G01 X2.6012 Y0.4850 
G01 X2.6268 Y0.6135 
G01 X2.6769 Y0.7345 
G01 X2.7497 Y0.8434 
G01 X2.9768 Y1.0705 
G01 X2.9768 Y1.9295 
G01 X2.8623 Y2.0440 
G01 X2.7697 Y2.1366 
G01 X2.6969 Y2.2455 
G01 X2.6468 Y2.3665 
G01 X2.6212 Y2.4950 
G01 X2.6212 Y4.3689 
G01 X2.6468 Y4.4974 
G01 X2.6969 Y4.6184 
G01 X2.7697 Y4.7273 
G01 X2.8623 Y4.8199 
G01 X2.9712 Y4.8927 
G01 X3.0922 Y4.9428 
G01 X3.2207 Y4.9684 
G01 X5.8425 Y4.9684 
G01 X6.3449 Y5.1765 
G01 X6.7295 Y5.5611 
G01 X6.9376 Y6.0635 
G01 X6.9376 Y6.6073 
G01 X6.7295 Y7.1097 
G01 X6.3449 Y7.4943 
G01 X5.8425 Y7.7024 
G01 X3.3038 Y7.7024 
G01 X3.2645 Y7.6946 
G01 X3.2017 Y7.6821 
G01 X3.1355 Y7.6821 
G01 X3.0707 Y7.6821 
G01 X3.0065 Y7.6949 
G01 X2.9423 Y7.7076 
G01 X2.8844 Y7.7316 
G01 X2.8212 Y7.7578 
G01 X2.7542 Y7.8026 
G01 X2.7123 Y7.8305 
G01 X2.6501 Y7.8928 
G01 X2.6197 Y7.9232 
G01 X2.5742 Y7.9912 
G01 X2.5469 Y8.0321 
G01 X2.5202 Y8.0964 
G01 X2.4968 Y8.1531 
G01 X2.4837 Y8.2187 
G01 X2.4712 Y8.2816 
G01 X2.4712 Y8.3478 
G01 X2.4712 Y8.4126 
G01 X2.4712 Y9.4966 
G01 X2.4683 Y9.5183 
G01 X2.4712 Y9.5619 
G01 X2.4712 Y9.6056 
G01 X2.4755 Y9.6271 
G01 X2.4769 Y9.6490 
G01 X2.4882 Y9.6912 
G01 X2.4968 Y9.7341 
G01 X2.5051 Y9.7544 
G01 X2.5108 Y9.7755 
G01 X2.5302 Y9.8147 
G01 X2.5469 Y9.8551 
G01 X2.5591 Y9.8734 
G01 X2.5688 Y9.8930 
G01 X2.5954 Y9.9277 
G01 X2.6197 Y9.9640 
G01 X2.6352 Y9.9795 
G01 X2.6485 Y9.9969 
G01 X2.6814 Y10.0258 
G01 X2.7123 Y10.0567 
G01 X2.7305 Y10.0688 
G01 X2.7470 Y10.0833 
G01 X2.7849 Y10.1052 
G01 X2.8212 Y10.1294 
G01 X2.8415 Y10.1378 
G01 X2.8604 Y10.1488 
G01 X2.9018 Y10.1628 
G01 X2.9422 Y10.1796 
G01 X2.9637 Y10.1838 
G01 X2.9845 Y10.1909 
G01 X3.0278 Y10.1966 
G01 X3.0707 Y10.2051 
G01 X3.0926 Y10.2051 
G01 X3.1143 Y10.2080 
G01 X3.1580 Y10.2051 
G01 X3.2017 Y10.2051 
G01 X3.2232 Y10.2009 
G01 X3.2451 Y10.1994 
G01 X3.2873 Y10.1881 
G01 X3.3302 Y10.1796 
G01 X3.3504 Y10.1712 
G01 X3.5098 Y10.1500 
G01 X3.9150 Y10.1500 
G01 X3.9150 Y10.3440 
G01 X3.4889 Y10.3440 
G01 X3.2917 Y10.3832 
G01 X3.1060 Y10.4602 
G01 X2.9388 Y10.5718 
G01 X2.7966 Y10.7140 
G01 X2.6966 Y10.8637 
G01 X2.6197 Y10.9407 
G01 X2.5469 Y11.0496 
G01 X2.4968 Y11.1706 
G01 X2.4712 Y11.2991 
G01 X2.4712 Y11.4301 
G01 X2.4968 Y11.5586 
G01 X2.5469 Y11.6796 
G01 X2.6197 Y11.7885 
G01 X2.6966 Y11.8655 
G01 X2.7966 Y12.0152 
G01 X2.9388 Y12.1573 
G01 X3.1060 Y12.2690 
G01 X3.2917 Y12.3460 
G01 X3.4889 Y12.3852 
G01 X3.9150 Y12.3852 
G01 X3.9150 Y12.5792 
G01 X3.5098 Y12.5792 
G01 X3.3519 Y12.5584 
G01 X3.3302 Y12.5496 
G01 X3.2873 Y12.5411 
G01 X3.2451 Y12.5298 
G01 X3.2232 Y12.5283 
G01 X3.2017 Y12.5241 
G01 X3.1580 Y12.5241 
G01 X3.1143 Y12.5212 
G01 X3.0926 Y12.5241 
G01 X3.0707 Y12.5241 
G01 X3.0278 Y12.5326 
G01 X2.9845 Y12.5383 
G01 X2.9637 Y12.5453 
G01 X2.9422 Y12.5496 
G01 X2.9018 Y12.5664 
G01 X2.8604 Y12.5804 
G01 X2.8415 Y12.5914 
G01 X2.8212 Y12.5998 
G01 X2.7849 Y12.6240 
G01 X2.7470 Y12.6459 
G01 X2.7305 Y12.6603 
G01 X2.7123 Y12.6725 
G01 X2.6814 Y12.7034 
G01 X2.6485 Y12.7323 
G01 X2.6352 Y12.7496 
G01 X2.6197 Y12.7652 
G01 X2.5954 Y12.8015 
G01 X2.5688 Y12.8362 
G01 X2.5591 Y12.8558 
G01 X2.5469 Y12.8741 
G01 X2.5302 Y12.9145 
G01 X2.5108 Y12.9537 
G01 X2.5051 Y12.9748 
G01 X2.4968 Y12.9951 
G01 X2.4882 Y13.0380 
G01 X2.4769 Y13.0802 
G01 X2.4755 Y13.1021 
G01 X2.4712 Y13.1236 
G01 X2.4712 Y13.1673 
G01 X2.4683 Y13.2109 
G01 X2.4712 Y13.2326 
G01 X2.4712 Y15.6650 
G01 X2.4968 Y15.7935 
G01 X2.5469 Y15.9145 
G01 X2.6197 Y16.0234 
G01 X2.8268 Y16.2305 
G01 X2.8268 Y17.0895 
G01 X2.7023 Y17.2140 
G01 X2.6097 Y17.3066 
G01 X2.5369 Y17.4155 
G01 X2.4868 Y17.5365 
G01 X2.4612 Y17.6650 
G01 X2.4612 Y18.9450 
G01 X2.4868 Y19.0735 
G01 X2.5369 Y19.1945 
G01 X2.6097 Y19.3034 
G01 X2.8168 Y19.5105 
G01 X2.8168 Y20.3695 
G01 X2.3578 Y20.8285 
G01 X2.2652 Y20.9211 
G01 X2.2401 Y20.9587 
G01 X2.1924 Y21.0300 
G01 X2.1423 Y21.1510 
G01 X2.1182 Y21.2722 
G01 X2.1167 Y21.2795 
G01 X2.1167 Y21.4105 
G01 X2.1423 Y21.5390 
G01 X2.1924 Y21.6600 
G01 X2.2652 Y21.7689 
G01 X2.8868 Y22.3905 
G01 X2.8868 Y23.2495 
G01 X2.8297 Y23.3066 
G01 X2.7569 Y23.4155 
G01 X2.7068 Y23.5365 
G01 X2.6812 Y23.6650 
G01 X2.6812 Y24.7193 
G01 X2.7068 Y24.8478 
G01 X2.7569 Y24.9688 
G01 X2.8297 Y25.0777 
G01 X2.9223 Y25.1703 
G01 X3.0312 Y25.2431 
G01 X3.1522 Y25.2932 
G01 X3.2807 Y25.3188 
G01 X5.2155 Y25.3188 
G01 X5.4659 Y25.4225 
G01 X5.6580 Y25.6147 
G01 X5.6871 Y25.6582 
G01 X5.7299 Y25.7223 
G01 X5.8226 Y25.8149 
G01 X5.8597 Y25.8397 
G01 X5.9315 Y25.8877 
G01 X5.9745 Y25.9055 
G01 X6.0525 Y25.9378 
G01 X6.0802 Y25.9433 
G01 X6.1810 Y25.9634 
G01 X6.3291 Y25.9634 
G01 X6.3953 Y25.9634 
G01 X6.4601 Y25.9634 
G01 X6.5631 Y25.9429 
G01 X6.5886 Y25.9378 
G01 X6.6758 Y25.9017 
G01 X6.7096 Y25.8877 
G01 X6.7836 Y25.8383 
G01 X6.8185 Y25.8149 
G01 X6.8808 Y25.7527 
G01 X6.9111 Y25.7223 
G01 X6.9476 Y25.6677 
G01 X6.9839 Y25.6134 
G01 X7.0087 Y25.5536 
G01 X7.0340 Y25.4924 
G01 X7.0496 Y25.4139 
G01 X7.0596 Y25.3639 
G01 X7.0596 Y25.2976 
G01 X7.0596 Y25.2329 
G01 X7.0391 Y25.1299 
G01 X7.0340 Y25.1044 
G01 X6.9979 Y25.0172 
G01 X6.9839 Y24.9834 
G01 X6.9344 Y24.9094 
G01 X6.9287 Y24.9007 
G01 X6.8188 Y24.6355 
G01 X6.8188 Y21.2745 
G01 X6.9225 Y21.0241 
G01 X7.1141 Y20.8325 
G01 X7.3645 Y20.7288 
G01 X7.7637 Y20.7288 
G01 X7.8922 Y20.7032 
G01 X8.0132 Y20.6531 
G01 X8.1221 Y20.5803 
G01 X8.2147 Y20.4877 
G01 X8.2875 Y20.3788 
G01 X8.3376 Y20.2578 
G01 X8.3632 Y20.1293 
G01 X8.3632 Y19.5105 
G01 X9.1548 Y18.7189 
G01 X9.2276 Y18.6100 
G01 X9.2777 Y18.4890 
G01 X9.3033 Y18.3605 
G01 X9.3033 Y18.2295 
G01 X9.2777 Y18.1010 
G01 X9.2276 Y17.9800 
G01 X9.1548 Y17.8711 
G01 X9.0622 Y17.7785 
G01 X8.3732 Y17.0895 
G01 X8.3732 Y16.2305 
G01 X8.4877 Y16.1160 
G01 X8.5803 Y16.0234 
G01 X8.6531 Y15.9145 
G01 X8.7032 Y15.7935 
G01 X8.7288 Y15.6650 
G01 X8.7288 Y10.8645 
G01 X8.8325 Y10.6141 
G01 X9.0241 Y10.4225 
G01 X9.2359 Y10.3348 
G01 X13.1741 Y10.3348 
G01 X13.4601 Y10.4532 
G01 X13.5813 Y10.4773 
G01 X13.5885 Y10.4788 
G01 X21.8246 Y10.4788 
G01 X21.9531 Y10.4532 
G01 X22.0741 Y10.4031 
G01 X22.1830 Y10.3303 
G01 X22.2323 Y10.2810 
G01 X22.6134 Y10.1232 
G01 X23.1548 Y10.1232 
G01 X23.1716 Y10.1257 
G01 X23.2202 Y10.1232 
G01 X23.2689 Y10.1232 
G01 X23.2855 Y10.1199 
G01 X23.3024 Y10.1190 
G01 X23.3496 Y10.1071 
G01 X23.3974 Y10.0976 
G01 X23.4130 Y10.0912 
G01 X23.4294 Y10.0870 
G01 X23.4734 Y10.0661 
G01 X23.5184 Y10.0475 
G01 X23.5325 Y10.0381 
G01 X23.5478 Y10.0308 
G01 X23.5868 Y10.0018 
G01 X23.6273 Y9.9747 
G01 X23.6393 Y9.9628 
G01 X23.6529 Y9.9526 
G01 X23.6855 Y9.9165 
G01 X23.7199 Y9.8821 
G01 X23.7293 Y9.8680 
G01 X24.3074 Y9.2283 
G01 X24.3418 Y9.1939 
G01 X24.3512 Y9.1798 
G01 X24.3626 Y9.1672 
G01 X24.3821 Y9.1345 
G01 X24.4399 Y9.0767 
G01 X24.4535 Y9.0666 
G01 X24.4861 Y9.0305 
G01 X24.5206 Y8.9961 
G01 X24.5300 Y8.9820 
G01 X24.5775 Y8.9294 
G01 X24.6430 Y8.9023 
G01 X24.6594 Y8.8981 
G01 X24.7034 Y8.8772 
G01 X24.7484 Y8.8586 
G01 X24.7624 Y8.8492 
G01 X24.8265 Y8.8188 
G01 X24.8974 Y8.8188 
G01 X24.9141 Y8.8213 
G01 X24.9628 Y8.8188 
G01 X25.0114 Y8.8188 
G01 X25.0280 Y8.8155 
G01 X25.1097 Y8.8114 
G01 X25.1470 Y8.8188 
G01 X25.1640 Y8.8188 
G01 X25.1808 Y8.8213 
G01 X25.2294 Y8.8188 
G01 X34.1355 Y8.8188 
G01 X34.3859 Y8.9225 
G01 X34.5775 Y9.1141 
G01 X34.6812 Y9.3645 
G01 X34.6812 Y12.5580 
G01 X34.7068 Y12.6864 
G01 X34.7489 Y12.7881 
G01 X34.7569 Y12.8074 
G01 X34.8297 Y12.9164 
G01 X34.9223 Y13.0090 
G01 X34.9785 Y13.0466 
G01 X35.0312 Y13.0818 
G01 X35.1522 Y13.1319 
G01 X35.2310 Y13.1476 
G01 X35.2807 Y13.1574 
G01 X35.4117 Y13.1574 
G01 X35.5402 Y13.1319 
G01 X35.6419 Y13.0898 
G01 X35.6612 Y13.0818 
G01 X35.7701 Y13.0090 
G01 X35.9020 Y12.8771 
G01 X36.3484 Y12.6922 
G01 X36.8316 Y12.6922 
G01 X37.2780 Y12.8771 
G01 X37.4361 Y13.0352 
G01 X37.5450 Y13.1080 
G01 X37.6660 Y13.1581 
G01 X37.7945 Y13.1836 
G01 X37.9255 Y13.1836 
G01 X38.0540 Y13.1581 
G01 X38.1750 Y13.1080 
G01 X38.2839 Y13.0352 
G01 X38.3765 Y12.9426 
G01 X38.4420 Y12.8771 
G01 X38.8884 Y12.6922 
G01 X39.3716 Y12.6922 
G01 X39.8180 Y12.8771 
G01 X40.1597 Y13.2188 
G01 X40.3446 Y13.6652 
G01 X40.3446 Y15.8248 
G01 X40.1373 Y16.3251 
G01 X40.1283 Y16.3386 
G01 X40.1033 Y16.3989 
G01 X40.0782 Y16.4597 
G01 X40.0652 Y16.5248 
G01 X40.0526 Y16.5881 
G01 X40.0525 Y16.6537 
G01 X40.0525 Y16.7191 
G01 X40.0643 Y16.7784 
G01 X40.0780 Y16.8476 
G01 X40.1012 Y16.9035 
G01 X40.1281 Y16.9686 
G01 X40.1623 Y17.0198 
G01 X40.2009 Y17.0776 
G01 X40.2442 Y17.1209 
G01 X40.2935 Y17.1702 
G01 X40.3489 Y17.2072 
G01 X40.4024 Y17.2430 
G01 X40.4626 Y17.2680 
G01 X40.5234 Y17.2932 
G01 X40.5885 Y17.3062 
G01 X40.6519 Y17.3188 
G01 X40.7175 Y17.3188 
G01 X40.7829 Y17.3188 
G01 X43.1469 Y17.3188 
G01 X43.2250 Y17.3033 
G01 X43.2754 Y17.2932 
G01 X43.3498 Y17.2624 
G01 X43.3964 Y17.2431 
G01 X43.5053 Y17.1703 
G01 X43.5524 Y17.1233 
G01 X43.5979 Y17.0777 
G01 X43.6707 Y16.9688 
G01 X43.7209 Y16.8478 
G01 X43.7339 Y16.7820 
G01 X43.7464 Y16.7193 
G01 X43.7464 Y16.5883 
G01 X43.7309 Y16.5102 
G01 X43.7208 Y16.4598 
G01 X43.6900 Y16.3854 
G01 X43.6707 Y16.3388 
G01 X43.5979 Y16.2299 
G01 X43.5242 Y16.1561 
G01 X43.5199 Y16.1518 
G01 X43.3466 Y15.7334 
G01 X43.3466 Y13.7566 
G01 X43.5199 Y13.3381 
G01 X43.8401 Y13.0179 
G01 X44.2585 Y12.8446 
G01 X44.7114 Y12.8446 
G01 X45.1298 Y13.0179 
G01 X45.2385 Y13.1265 
G01 X45.3311 Y13.2191 
G01 X45.4400 Y13.2919 
G01 X45.5123 Y13.3219 
G01 X45.5610 Y13.3420 
G01 X45.6895 Y13.3676 
G01 X45.8205 Y13.3676 
G01 X45.8475 Y13.3622 
G01 X45.9490 Y13.3421 
G01 X46.0700 Y13.2919 
G01 X46.1789 Y13.2191 
G01 X46.3801 Y13.0179 
G01 X46.7985 Y12.8446 
G01 X47.2514 Y12.8446 
G01 X47.6698 Y13.0179 
G01 X47.8862 Y13.2343 
G01 X47.9789 Y13.3269 
G01 X48.0336 Y13.3635 
G01 X48.0878 Y13.3997 
G01 X48.2088 Y13.4498 
G01 X48.2682 Y13.4616 
G01 X48.3373 Y13.4754 
G01 X48.4683 Y13.4754 
G01 X48.5457 Y13.4600 
G01 X48.5967 Y13.4498 
G01 X48.7178 Y13.3997 
G01 X48.8062 Y13.3406 
G01 X48.8267 Y13.3269 
G01 X48.9000 Y13.2536 
G01 X48.9000 Y13.5527 
G01 X48.8631 Y13.6078 
G01 X48.8034 Y13.7520 
G01 X48.7730 Y13.9050 
G01 X48.7730 Y14.0800 
G01 X48.7629 Y14.0800 
G01 X48.6344 Y14.1055 
G01 X48.5134 Y14.1557 
G01 X48.4045 Y14.2284 
G01 X48.3119 Y14.3211 
G01 X48.2391 Y14.4300 
G01 X48.1890 Y14.5510 
G01 X48.1634 Y14.6795 
G01 X48.1634 Y14.8105 
G01 X48.1890 Y14.9390 
G01 X48.2391 Y15.0600 
G01 X48.3119 Y15.1689 
G01 X48.4045 Y15.2615 
G01 X48.5134 Y15.3343 
G01 X48.6344 Y15.3845 
G01 X48.7629 Y15.4100 
G01 X48.7730 Y15.4100 
G01 X48.7730 Y15.5850 
G01 X48.8034 Y15.7380 
G01 X48.8631 Y15.8821 
G01 X48.9000 Y15.9373 
G01 X48.9000 Y16.2364 
G01 X48.8267 Y16.1631 
G01 X48.8044 Y16.1482 
G01 X48.7178 Y16.0903 
G01 X48.5968 Y16.0402 
G01 X48.5442 Y16.0297 
G01 X48.4683 Y16.0146 
G01 X48.3373 Y16.0146 
G01 X48.2669 Y16.0286 
G01 X48.2088 Y16.0402 
G01 X48.0878 Y16.0903 
G01 X48.0325 Y16.1272 
G01 X47.9789 Y16.1631 
G01 X47.8862 Y16.2557 
G01 X47.6698 Y16.4721 
G01 X47.2514 Y16.6454 
G01 X46.7985 Y16.6454 
G01 X46.3801 Y16.4721 
G01 X46.3627 Y16.4547 
G01 X46.2701 Y16.3620 
G01 X46.1964 Y16.3128 
G01 X46.1612 Y16.2893 
G01 X46.1390 Y16.2801 
G01 X46.0402 Y16.2391 
G01 X45.9117 Y16.2136 
G01 X45.7807 Y16.2136 
G01 X45.7281 Y16.2240 
G01 X45.6522 Y16.2391 
G01 X45.5312 Y16.2893 
G01 X45.4742 Y16.3274 
G01 X45.4223 Y16.3620 
G01 X45.3297 Y16.4547 
G01 X45.2804 Y16.5284 
G01 X45.2569 Y16.5636 
G01 X45.2477 Y16.5858 
G01 X45.2068 Y16.6846 
G01 X45.1812 Y16.8131 
G01 X45.1812 Y18.1355 
G01 X45.0775 Y18.3859 
G01 X44.8859 Y18.5775 
G01 X44.6525 Y18.6741 
G01 X44.5480 Y18.7440 
G01 X44.5436 Y18.7469 
G01 X44.4510 Y18.8395 
G01 X44.4068 Y18.9057 
G01 X44.3782 Y18.9485 
G01 X44.3281 Y19.0695 
G01 X44.3025 Y19.1980 
G01 X44.3025 Y19.3290 
G01 X44.3079 Y19.3560 
G01 X44.3281 Y19.4574 
G01 X44.3782 Y19.5785 
G01 X44.4481 Y19.6830 
G01 X44.4510 Y19.6874 
G01 X44.5436 Y19.7800 
G01 X44.6098 Y19.8242 
G01 X44.6525 Y19.8528 
G01 X44.7735 Y19.9029 
G01 X44.8209 Y19.9225 
G01 X45.0125 Y20.1141 
G01 X45.1162 Y20.3645 
G01 X45.1162 Y29.7119 
G01 X45.1418 Y29.8404 
G01 X45.1839 Y29.9421 
G01 X45.1919 Y29.9614 
G01 X45.2647 Y30.0703 
G01 X45.3573 Y30.1629 
G01 X45.4135 Y30.2005 
G01 X45.4662 Y30.2357 
G01 X45.5872 Y30.2859 
G01 X45.6660 Y30.3015 
G01 X45.7157 Y30.3114 
G01 X45.8467 Y30.3114 
G01 X45.9752 Y30.2858 
G01 X46.0769 Y30.2437 
G01 X46.0962 Y30.2357 
G01 X46.2051 Y30.1629 
G01 X46.3301 Y30.0379 
G01 X46.7486 Y29.8646 
G01 X47.2014 Y29.8646 
G01 X47.6198 Y30.0379 
G01 X47.8362 Y30.2543 
G01 X47.9289 Y30.3469 
G01 X47.9836 Y30.3835 
G01 X48.0378 Y30.4197 
G01 X48.1588 Y30.4698 
G01 X48.2182 Y30.4816 
G01 X48.2873 Y30.4954 
G01 X48.4183 Y30.4954 
G01 X48.4957 Y30.4800 
G01 X48.5467 Y30.4698 
G01 X48.6678 Y30.4197 
G01 X48.7562 Y30.3606 
G01 X48.7767 Y30.3469 
G01 X48.8500 Y30.2736 
G01 X48.8500 Y30.5727 
G01 X48.8131 Y30.6278 
G01 X48.7534 Y30.7720 
G01 X48.7230 Y30.9250 
G01 X48.7230 Y32.6050 
G01 X48.7534 Y32.7580 
G01 X48.8131 Y32.9021 
G01 X48.8500 Y32.9573 
G01 X48.8500 Y33.2564 
G01 X48.7767 Y33.1831 
G01 X48.7544 Y33.1682 
G01 X48.6678 Y33.1103 
G01 X48.5468 Y33.0602 
G01 X48.4942 Y33.0497 
G01 X48.4183 Y33.0346 
G01 X48.2873 Y33.0346 
G01 X48.2169 Y33.0486 
G01 X48.1588 Y33.0602 
G01 X48.0378 Y33.1103 
G01 X47.9825 Y33.1472 
G01 X47.9289 Y33.1831 
G01 X47.8362 Y33.2757 
G01 X47.6198 Y33.4921 
G01 X47.2014 Y33.6654 
G01 X46.7486 Y33.6654 
G01 X46.3301 Y33.4921 
G01 X46.2215 Y33.3835 
G01 X46.1289 Y33.2908 
G01 X46.0200 Y33.2181 
G01 X45.8990 Y33.1679 
G01 X45.7946 Y33.1472 
G01 X45.7705 Y33.1424 
G01 X45.6395 Y33.1424 
G01 X45.5110 Y33.1679 
G01 X45.4594 Y33.1893 
G01 X45.3900 Y33.2181 
G01 X45.2811 Y33.2908 
G01 X45.2758 Y33.2962 
G01 X45.1885 Y33.3835 
G01 X45.0799 Y33.4921 
G01 X44.6614 Y33.6654 
G01 X44.2086 Y33.6654 
G01 X43.7901 Y33.4921 
G01 X43.4699 Y33.1719 
G01 X43.2966 Y32.7534 
G01 X43.2966 Y30.7766 
G01 X43.4699 Y30.3581 
G01 X43.5127 Y30.3153 
G01 X43.6053 Y30.2227 
G01 X43.6781 Y30.1138 
G01 X43.7282 Y29.9928 
G01 X43.7538 Y29.8643 
G01 X43.7538 Y21.7807 
G01 X43.7282 Y21.6522 
G01 X43.6781 Y21.5312 
G01 X43.6053 Y21.4223 
G01 X43.5127 Y21.3297 
G01 X43.4038 Y21.2569 
G01 X43.2828 Y21.2068 
G01 X43.1543 Y21.1812 
G01 X37.0675 Y21.1812 
G01 X36.9390 Y21.2068 
G01 X36.8180 Y21.2569 
G01 X36.7260 Y21.3183 
G01 X36.5781 Y21.3796 
G01 X35.4219 Y21.3796 
G01 X35.2836 Y21.3223 
G01 X35.2701 Y21.3088 
G01 X35.1969 Y21.2599 
G01 X35.1612 Y21.2360 
G01 X35.1043 Y21.2125 
G01 X35.0402 Y21.1859 
G01 X34.9117 Y21.1604 
G01 X34.8455 Y21.1604 
G01 X34.7807 Y21.1604 
G01 X34.7588 Y21.1647 
G01 X34.6522 Y21.1859 
G01 X34.6422 Y21.1901 
G01 X34.5312 Y21.2360 
G01 X34.4735 Y21.2746 
G01 X34.4223 Y21.3088 
G01 X34.3753 Y21.3558 
G01 X34.3297 Y21.4014 
G01 X34.2807 Y21.4747 
G01 X34.2569 Y21.5103 
G01 X34.2333 Y21.5673 
G01 X34.2068 Y21.6314 
G01 X34.1812 Y21.7599 
G01 X34.1812 Y21.8261 
G01 X34.1812 Y21.8908 
G01 X34.1812 Y22.1355 
G01 X34.0775 Y22.3859 
G01 X33.8859 Y22.5775 
G01 X33.6355 Y22.6812 
G01 X31.5650 Y22.6812 
G01 X31.4365 Y22.7068 
G01 X31.3155 Y22.7569 
G01 X31.2066 Y22.8297 
G01 X30.7895 Y23.2468 
G01 X29.9305 Y23.2468 
G01 X29.5165 Y22.8328 
G01 X29.4239 Y22.7402 
G01 X29.3150 Y22.6674 
G01 X29.1940 Y22.6173 
G01 X29.1867 Y22.6158 
G01 X29.0655 Y22.5917 
G01 X28.9345 Y22.5917 
G01 X28.8060 Y22.6173 
G01 X28.6850 Y22.6674 
G01 X28.5761 Y22.7402 
G01 X27.9095 Y23.4068 
G01 X27.2807 Y23.4068 
G01 X27.1522 Y23.4324 
G01 X27.0312 Y23.4825 
G01 X26.9223 Y23.5553 
G01 X26.8297 Y23.6479 
G01 X26.7569 Y23.7568 
G01 X26.7068 Y23.8778 
G01 X26.6812 Y24.0063 
G01 X26.6812 Y26.7193 
G01 X26.7068 Y26.8478 
G01 X26.7569 Y26.9688 
G01 X26.8297 Y27.0777 
G01 X26.9223 Y27.1703 
G01 X27.0312 Y27.2431 
G01 X27.1522 Y27.2932 
G01 X27.2807 Y27.3188 
G01 X34.6355 Y27.3188 
G01 X34.8859 Y27.4225 
G01 X35.0775 Y27.6141 
G01 X35.1812 Y27.8645 
G01 X35.1812 Y29.0082 
G01 X35.1783 Y29.0300 
G01 X35.1812 Y29.0736 
G01 X35.1812 Y29.1173 
G01 X35.1855 Y29.1388 
G01 X35.1869 Y29.1607 
G01 X35.1982 Y29.2029 
G01 X35.2068 Y29.2458 
G01 X35.2151 Y29.2660 
G01 X35.2208 Y29.2872 
G01 X35.2402 Y29.3264 
G01 X35.2569 Y29.3668 
G01 X35.2691 Y29.3850 
G01 X35.2787 Y29.4047 
G01 X35.3054 Y29.4394 
G01 X35.3297 Y29.4757 
G01 X35.3451 Y29.4912 
G01 X35.3585 Y29.5086 
G01 X35.3914 Y29.5375 
G01 X35.4223 Y29.5684 
G01 X35.4405 Y29.5805 
G01 X35.4570 Y29.5950 
G01 X35.4949 Y29.6168 
G01 X35.5312 Y29.6411 
G01 X35.5514 Y29.6495 
G01 X35.5704 Y29.6605 
G01 X35.6118 Y29.6745 
G01 X35.6522 Y29.6913 
G01 X35.6737 Y29.6955 
G01 X35.6945 Y29.7026 
G01 X35.7378 Y29.7083 
G01 X35.7807 Y29.7168 
G01 X35.8026 Y29.7168 
G01 X35.8243 Y29.7197 
G01 X35.8680 Y29.7168 
G01 X35.9117 Y29.7168 
G01 X35.9332 Y29.7125 
G01 X35.9551 Y29.7111 
G01 X35.9973 Y29.6998 
G01 X36.0402 Y29.6913 
G01 X36.0604 Y29.6829 
G01 X36.2428 Y29.6340 
G01 X36.9372 Y29.6340 
G01 X37.6078 Y29.8137 
G01 X37.8461 Y29.9512 
G01 X37.8824 Y29.9755 
G01 X37.9027 Y29.9839 
G01 X37.9216 Y29.9949 
G01 X37.9631 Y30.0089 
G01 X38.0035 Y30.0257 
G01 X38.0249 Y30.0299 
G01 X38.0457 Y30.0370 
G01 X38.0890 Y30.0427 
G01 X38.1319 Y30.0512 
G01 X38.1539 Y30.0512 
G01 X38.1756 Y30.0541 
G01 X38.2192 Y30.0512 
G01 X38.2629 Y30.0512 
G01 X38.2844 Y30.0469 
G01 X38.3063 Y30.0455 
G01 X38.3486 Y30.0342 
G01 X38.3914 Y30.0257 
G01 X38.4116 Y30.0173 
G01 X38.4328 Y30.0116 
G01 X38.4720 Y29.9923 
G01 X38.5124 Y29.9755 
G01 X38.5306 Y29.9634 
G01 X38.5503 Y29.9537 
G01 X38.5850 Y29.9270 
G01 X38.6213 Y29.9028 
G01 X38.6270 Y29.8971 
G01 X39.0734 Y29.7122 
G01 X39.5566 Y29.7122 
G01 X40.0030 Y29.8971 
G01 X40.3447 Y30.2388 
G01 X40.5296 Y30.6852 
G01 X40.5296 Y32.8448 
G01 X40.3447 Y33.2912 
G01 X40.0030 Y33.6329 
G01 X39.5566 Y33.8178 
G01 X38.9824 Y33.8178 
G01 X38.8817 Y33.8378 
G01 X38.8540 Y33.8434 
G01 X38.7759 Y33.8757 
G01 X38.7330 Y33.8935 
G01 X38.6255 Y33.9653 
G01 X38.5672 Y34.0231 
G01 X38.5434 Y34.0469 
G01 X38.4858 Y34.1045 
G01 X38.4507 Y34.1395 
G01 X38.4214 Y34.1834 
G01 X38.3780 Y34.2484 
G01 X38.3516 Y34.3122 
G01 X38.3278 Y34.3695 
G01 X38.3174 Y34.4220 
G01 X38.3023 Y34.4979 
G01 X38.3023 Y34.6290 
G01 X38.3278 Y34.7574 
G01 X38.3653 Y34.8480 
G01 X38.3779 Y34.8784 
G01 X38.4507 Y34.9874 
G01 X38.5200 Y35.0566 
G01 X38.5433 Y35.0800 
G01 X38.5775 Y35.1141 
G01 X38.6812 Y35.3645 
G01 X38.6812 Y35.5495 
G01 X38.7068 Y35.6780 
G01 X38.7569 Y35.7990 
G01 X38.8297 Y35.9079 
G01 X38.9223 Y36.0005 
G01 X39.0312 Y36.0733 
G01 X39.1522 Y36.1234 
G01 X39.2807 Y36.1490 
G01 X53.7456 Y36.1490 
G01 X53.8741 Y36.1234 
G01 X53.9951 Y36.0733 
G01 X54.0693 Y36.0237 
G01 X54.1040 Y36.0005 
G01 X54.1967 Y35.9079 
G01 X54.2694 Y35.7990 
G01 X54.3196 Y35.6780 
G01 X54.3451 Y35.5495 
G01 X54.3451 Y35.4185 
G01 X54.3196 Y35.2900 
G01 X54.2694 Y35.1690 
G01 X54.2198 Y35.0948 
G01 X54.1967 Y35.0601 
G01 X54.1890 Y35.0524 
G01 X54.1040 Y34.9675 
G01 X53.8465 Y34.7099 
G01 X53.6384 Y34.2075 
G01 X53.6384 Y31.6825 
G01 X53.8465 Y31.1801 
G01 X54.2311 Y30.7955 
G01 X54.7335 Y30.5874 
G01 X55.2773 Y30.5874 
G01 X55.7797 Y30.7955 
G01 X56.1643 Y31.1801 
G01 X56.3724 Y31.6825 
G01 X56.3724 Y34.2075 
G01 X56.1643 Y34.7099 
G01 X55.9068 Y34.9675 
G01 X55.8141 Y35.0601 
G01 X55.7890 Y35.0977 
G01 X55.7414 Y35.1690 
G01 X55.6912 Y35.2900 
G01 X55.6657 Y35.4185 
G01 X55.6657 Y35.5495 
G01 X55.6912 Y35.6780 
G01 X55.7414 Y35.7990 
G01 X55.8141 Y35.9079 
G01 X55.9068 Y36.0005 
G01 X55.9444 Y36.0256 
G01 X56.0157 Y36.0733 
G01 X56.1367 Y36.1234 
G01 X56.2652 Y36.1490 
G01 X58.7748 Y36.1490 
G01 X58.9033 Y36.1234 
G01 X59.0243 Y36.0733 
G01 X59.0985 Y36.0237 
G01 X59.1332 Y36.0005 
G01 X59.2259 Y35.9079 
G01 X59.2986 Y35.7990 
G01 X59.3488 Y35.6780 
G01 X59.3743 Y35.5495 
G01 X59.3743 Y35.4185 
G01 X59.3488 Y35.2900 
G01 X59.2986 Y35.1690 
G01 X59.2490 Y35.0948 
G01 X59.2259 Y35.0601 
G01 X59.2182 Y35.0524 
G01 X59.1332 Y34.9675 
G01 X58.8757 Y34.7099 
G01 X58.6676 Y34.2075 
G01 X58.6676 Y31.6825 
G01 X58.8757 Y31.1801 
G01 X59.2603 Y30.7955 
G01 X59.7627 Y30.5874 
G01 X60.3065 Y30.5874 
G01 X60.8089 Y30.7955 
G01 X61.1935 Y31.1801 
G01 X61.4016 Y31.6825 
G01 X61.4016 Y34.2075 
G01 X61.1935 Y34.7099 
G01 X60.9360 Y34.9675 
G01 X60.8433 Y35.0601 
G01 X60.8182 Y35.0977 
G01 X60.7706 Y35.1690 
G01 X60.7204 Y35.2900 
G01 X60.6949 Y35.4185 
G01 X60.6949 Y35.5495 
G01 X60.7204 Y35.6780 
G01 X60.7706 Y35.7990 
G01 X60.8433 Y35.9079 
G01 X60.9360 Y36.0005 
G01 X60.9736 Y36.0256 
G01 X61.0449 Y36.0733 
G01 X61.1659 Y36.1234 
G01 X61.2944 Y36.1490 
G01 X62.5655 Y36.1490 
G01 X62.6940 Y36.1234 
G01 X62.8150 Y36.0733 
G01 X62.9239 Y36.0005 
G01 X63.0165 Y35.9079 
G01 X63.0893 Y35.7990 
G01 X63.1394 Y35.6780 
G01 X63.1650 Y35.5495 
G01 X63.1650 Y-18.7045 
G01 X63.1394 Y-18.8330 
G01 X63.0893 Y-18.9540 
G01 X63.0165 Y-19.0629 
G01 X62.9239 Y-19.1555 
G01 X62.8150 Y-19.2283 
G01 X62.6940 Y-19.2784 
G01 X62.5655 Y-19.3040 
G01 X61.1094 Y-19.3040 
G01 X61.0057 Y-19.2834 
G01 X60.9809 Y-19.2784 
G01 X60.8999 Y-19.2449 
G01 X60.8599 Y-19.2283 
G01 X60.7852 Y-19.1784 
G01 X60.7510 Y-19.1555 
G01 X60.6583 Y-19.0629 
G01 X60.6143 Y-18.9970 
G01 X60.5856 Y-18.9540 
G01 X60.5354 Y-18.8330 
G01 X60.5199 Y-18.7549 
G01 X60.5099 Y-18.7045 
G01 X60.5099 Y-18.5735 
G01 X60.5305 Y-18.4698 
G01 X60.5354 Y-18.4450 
G01 X60.5690 Y-18.3641 
G01 X60.5856 Y-18.3240 
G01 X60.6355 Y-18.2493 
G01 X60.6583 Y-18.2151 
G01 X60.6885 Y-18.1849 
G01 X60.8966 Y-17.6825 
G01 X60.8966 Y-15.1575 
G01 X60.6885 Y-14.6551 
G01 X60.3039 Y-14.2705 
G01 X59.8015 Y-14.0624 
G01 X59.2577 Y-14.0624 
G01 X58.7553 Y-14.2705 
G01 X58.3707 Y-14.6551 
G01 X58.1626 Y-15.1575 
G01 X58.1626 Y-17.6825 
G01 X58.3707 Y-18.1849 
G01 X58.4008 Y-18.2151 
G01 X58.4256 Y-18.2522 
G01 X58.4736 Y-18.3240 
G01 X58.4914 Y-18.3670 
G01 X58.5238 Y-18.4450 
G01 X58.5293 Y-18.4727 
G01 X58.5493 Y-18.5735 
G01 X58.5493 Y-18.7045 
G01 X58.5390 Y-18.7563 
G01 X58.5238 Y-18.8330 
G01 X58.4736 Y-18.9540 
G01 X58.4437 Y-18.9988 
G01 X58.4009 Y-19.0629 
G01 X58.3082 Y-19.1555 
G01 X58.2711 Y-19.1803 
G01 X58.1993 Y-19.2283 
G01 X58.1563 Y-19.2461 
G01 X58.0783 Y-19.2784 
G01 X58.0506 Y-19.2839 
G01 X57.9498 Y-19.3040 
G01 X56.0802 Y-19.3040 
G01 X55.9765 Y-19.2834 
G01 X55.9517 Y-19.2784 
G01 X55.8708 Y-19.2449 
G01 X55.8307 Y-19.2283 
G01 X55.7559 Y-19.1784 
G01 X55.7218 Y-19.1555 
G01 X55.6291 Y-19.0629 
G01 X55.5851 Y-18.9970 
G01 X55.5564 Y-18.9540 
G01 X55.5062 Y-18.8330 
G01 X55.4907 Y-18.7549 
G01 X55.4807 Y-18.7045 
G01 X55.4807 Y-18.5735 
G01 X55.5013 Y-18.4698 
G01 X55.5062 Y-18.4450 
G01 X55.5398 Y-18.3641 
G01 X55.5564 Y-18.3240 
G01 X55.6063 Y-18.2493 
G01 X55.6291 Y-18.2151 
G01 X55.6593 Y-18.1849 
G01 X55.8674 Y-17.6825 
G01 X55.8674 Y-15.1575 
G01 X55.6593 Y-14.6551 
G01 X55.2747 Y-14.2705 
G01 X54.7723 Y-14.0624 
G01 X54.2285 Y-14.0624 
G01 X53.7261 Y-14.2705 
G01 X53.3415 Y-14.6551 
G01 X53.1334 Y-15.1575 
G01 X53.1334 Y-17.6825 
G01 X53.3415 Y-18.1849 
G01 X53.3717 Y-18.2151 
G01 X53.3964 Y-18.2522 
G01 X53.4444 Y-18.3240 
G01 X53.4622 Y-18.3670 
G01 X53.4946 Y-18.4450 
G01 X53.5001 Y-18.4727 
G01 X53.5201 Y-18.5735 
G01 X53.5201 Y-18.7045 
G01 X53.5098 Y-18.7563 
G01 X53.4946 Y-18.8330 
G01 X53.4444 Y-18.9540 
G01 X53.4145 Y-18.9988 
G01 X53.3717 Y-19.0629 
G01 X53.2790 Y-19.1555 
G01 X53.2419 Y-19.1803 
G01 X53.1701 Y-19.2283 
G01 X53.1271 Y-19.2461 
G01 X53.0491 Y-19.2784 
G01 X53.0214 Y-19.2839 
G01 X52.9206 Y-19.3040 
G01 X50.9457 Y-19.3040 
G01 X50.8172 Y-19.2784 
G01 X50.6962 Y-19.2283 
G01 X50.5873 Y-19.1555 
G01 X50.4947 Y-19.0629 
G01 X50.4219 Y-18.9540 
G01 X50.3718 Y-18.8330 
G01 X50.3462 Y-18.7045 
G01 X50.3462 Y-16.7907 
G01 X50.3718 Y-16.6622 
G01 X50.4139 Y-16.5605 
G01 X50.4219 Y-16.5412 
G01 X50.4947 Y-16.4323 
G01 X50.6301 Y-16.2968 
G01 X50.8034 Y-15.8784 
G01 X50.8034 Y-13.9016 
G01 X50.6301 Y-13.4831 
G01 X50.3098 Y-13.1629 
G01 X49.8914 Y-12.9896 
G01 X49.4385 Y-12.9896 
G01 X49.0201 Y-13.1629 
G01 X48.9115 Y-13.2715 
G01 X48.8189 Y-13.3641 
G01 X48.7100 Y-13.4369 
G01 X48.6377 Y-13.4669 
G01 X48.5890 Y-13.4870 
G01 X48.4605 Y-13.5126 
G01 X48.3295 Y-13.5126 
G01 X48.3025 Y-13.5072 
G01 X48.2010 Y-13.4870 
G01 X48.0800 Y-13.4369 
G01 X47.9711 Y-13.3641 
G01 X47.7699 Y-13.1629 
G01 X47.3514 Y-12.9896 
G01 X46.8986 Y-12.9896 
G01 X46.4801 Y-13.1629 
G01 X46.2638 Y-13.3793 
G01 X46.1711 Y-13.4719 
G01 X46.1164 Y-13.5085 
G01 X46.0622 Y-13.5447 
G01 X45.9412 Y-13.5948 
G01 X45.8818 Y-13.6066 
G01 X45.8127 Y-13.6204 
G01 X45.6817 Y-13.6204 
G01 X45.6043 Y-13.6050 
G01 X45.5533 Y-13.5948 
G01 X45.4322 Y-13.5447 
G01 X45.3438 Y-13.4856 
G01 X45.3233 Y-13.4719 
G01 X45.2500 Y-13.3986 
G01 X45.2500 Y-13.6977 
G01 X45.2869 Y-13.7528 
G01 X45.3466 Y-13.8970 
G01 X45.3770 Y-14.0500 
G01 X45.3770 Y-15.7300 
G01 X45.3466 Y-15.8830 
G01 X45.2869 Y-16.0271 
G01 X45.2002 Y-16.1569 
G01 X45.0899 Y-16.2672 
G01 X44.9601 Y-16.3539 
G01 X44.8160 Y-16.4136 
G01 X44.6630 Y-16.4440 
G01 X44.5070 Y-16.4440 
G01 X44.3540 Y-16.4136 
G01 X44.2098 Y-16.3539 
G01 X44.0801 Y-16.2672 
G01 X43.9698 Y-16.1569 
G01 X43.8831 Y-16.0271 
G01 X43.8234 Y-15.8830 
G01 X43.7930 Y-15.7300 
G01 X43.7930 Y-15.5550 
G01 X43.5990 Y-15.5550 
G01 X43.5990 Y-15.7166 
G01 X43.6159 Y-15.8448 
G01 X43.6493 Y-15.9696 
G01 X43.6988 Y-16.0890 
G01 X43.7634 Y-16.2009 
G01 X43.8421 Y-16.3035 
G01 X43.9335 Y-16.3949 
G01 X44.0360 Y-16.4736 
G01 X44.1479 Y-16.5382 
G01 X44.2114 Y-16.5645 
G01 X44.2691 Y-16.6031 
G01 X44.3203 Y-16.6373 
G01 X44.3673 Y-16.6843 
G01 X44.4129 Y-16.7299 
G01 X44.4619 Y-16.8031 
G01 X44.4857 Y-16.8388 
G01 X44.5052 Y-16.8860 
G01 X44.5358 Y-16.9598 
G01 X44.5614 Y-17.0883 
G01 X44.5614 Y-17.1545 
G01 X44.5614 Y-17.2193 
G01 X44.5570 Y-17.2412 
G01 X44.5358 Y-17.3478 
G01 X44.5317 Y-17.3578 
G01 X44.4857 Y-17.4688 
G01 X44.4471 Y-17.5265 
G01 X44.4129 Y-17.5777 
G01 X44.3659 Y-17.6247 
G01 X44.3203 Y-17.6703 
G01 X44.2471 Y-17.7193 
G01 X44.2114 Y-17.7431 
G01 X44.1642 Y-17.7626 
G01 X44.0904 Y-17.7932 
G01 X43.9619 Y-17.8188 
G01 X43.8957 Y-17.8188 
G01 X43.8309 Y-17.8188 
G01 X40.7807 Y-17.8188 
G01 X40.6522 Y-17.7932 
G01 X40.5312 Y-17.7431 
G01 X40.4223 Y-17.6703 
G01 X40.3297 Y-17.5777 
G01 X40.2569 Y-17.4688 
G01 X40.2068 Y-17.3478 
G01 X40.1812 Y-17.2193 
G01 X40.1812 Y-16.7246 
G01 X40.2068 Y-16.5962 
G01 X40.2281 Y-16.5446 
G01 X40.2569 Y-16.4752 
G01 X40.3297 Y-16.3662 
G01 X40.5647 Y-16.1312 
G01 X40.7496 Y-15.6848 
G01 X40.7496 Y-13.5252 
G01 X40.5647 Y-13.0788 
G01 X40.2230 Y-12.7371 
G01 X39.7766 Y-12.5522 
G01 X39.2934 Y-12.5522 
G01 X38.8468 Y-12.7372 
G01 X38.8076 Y-12.7565 
G01 X38.7864 Y-12.7622 
G01 X38.7662 Y-12.7706 
G01 X38.7233 Y-12.7791 
G01 X38.6810 Y-12.7904 
G01 X38.6592 Y-12.7919 
G01 X38.6377 Y-12.7961 
G01 X38.5940 Y-12.7961 
G01 X38.5503 Y-12.7990 
G01 X38.5286 Y-12.7961 
G01 X38.5067 Y-12.7961 
G01 X38.4638 Y-12.7876 
G01 X38.4205 Y-12.7819 
G01 X38.3997 Y-12.7749 
G01 X38.3782 Y-12.7706 
G01 X38.3378 Y-12.7539 
G01 X38.2964 Y-12.7398 
G01 X38.2774 Y-12.7288 
G01 X38.2572 Y-12.7205 
G01 X38.2208 Y-12.6962 
G01 X37.8528 Y-12.4837 
G01 X37.1822 Y-12.3040 
G01 X36.4878 Y-12.3040 
G01 X35.8172 Y-12.4837 
G01 X35.5828 Y-12.6190 
G01 X35.5465 Y-12.6433 
G01 X35.5262 Y-12.6517 
G01 X35.5073 Y-12.6626 
G01 X35.4659 Y-12.6767 
G01 X35.4255 Y-12.6934 
G01 X35.4040 Y-12.6977 
G01 X35.3832 Y-12.7047 
G01 X35.3399 Y-12.7104 
G01 X35.2970 Y-12.7190 
G01 X35.2751 Y-12.7190 
G01 X35.2533 Y-12.7218 
G01 X35.2097 Y-12.7190 
G01 X35.1660 Y-12.7190 
G01 X35.1445 Y-12.7147 
G01 X35.1226 Y-12.7133 
G01 X35.0804 Y-12.7019 
G01 X35.0375 Y-12.6934 
G01 X35.0173 Y-12.6850 
G01 X34.9961 Y-12.6794 
G01 X34.9569 Y-12.6600 
G01 X34.6966 Y-12.5522 
G01 X34.2134 Y-12.5522 
G01 X34.1612 Y-12.5738 
G01 X34.0817 Y-12.6068 
G01 X34.0402 Y-12.6240 
G01 X33.9737 Y-12.6372 
G01 X33.9117 Y-12.6495 
G01 X33.7807 Y-12.6495 
G01 X33.7156 Y-12.6365 
G01 X33.6522 Y-12.6240 
G01 X33.5312 Y-12.5738 
G01 X33.4223 Y-12.5010 
G01 X33.3297 Y-12.4084 
G01 X33.2804 Y-12.3347 
G01 X33.2569 Y-12.2995 
G01 X33.2347 Y-12.2459 
G01 X33.2068 Y-12.1785 
G01 X33.1935 Y-12.1120 
G01 X33.1812 Y-12.0500 
G01 X33.1812 Y-9.4791 
G01 X33.2068 Y-9.3506 
G01 X33.2569 Y-9.2296 
G01 X33.3297 Y-9.1207 
G01 X33.4223 Y-9.0281 
G01 X33.5312 Y-8.9553 
G01 X33.6522 Y-8.9052 
G01 X33.7807 Y-8.8796 
G01 X34.5781 Y-8.8796 
G01 X34.7164 Y-8.8223 
G01 X34.8223 Y-8.7164 
G01 X34.8796 Y-8.5781 
G01 X34.8796 Y-7.4219 
G01 X34.8183 Y-7.2740 
G01 X34.7569 Y-7.1820 
G01 X34.7068 Y-7.0610 
G01 X34.6812 Y-6.9325 
G01 X34.6812 Y-1.7807 
G01 X34.7068 Y-1.6522 
G01 X34.7569 Y-1.5312 
G01 X34.8297 Y-1.4223 
G01 X34.9223 Y-1.3297 
G01 X35.0312 Y-1.2569 
G01 X35.1522 Y-1.2068 
G01 X35.2807 Y-1.1812 
G01 X39.5105 Y-1.1812 
G01 X39.7609 Y-1.0775 
G01 X39.9525 Y-0.8859 
G01 X39.9771 Y-0.8264 
G01 X40.0273 Y-0.7054 
G01 X40.1000 Y-0.5965 
G01 X40.1471 Y-0.5494 
G01 X40.1927 Y-0.5038 
G01 X40.1956 Y-0.5019 
G01 X40.3016 Y-0.4311 
G01 X40.4226 Y-0.3809 
G01 X40.4883 Y-0.3679 
G01 X40.5511 Y-0.3554 
G01 X40.6821 Y-0.3554 
G01 X40.7602 Y-0.3709 
G01 X40.8105 Y-0.3809 
G01 X40.9316 Y-0.4311 
G01 X41.0405 Y-0.5038 
G01 X41.0908 Y-0.5542 
G01 X41.1141 Y-0.5775 
G01 X41.3645 Y-0.6812 
G01 X49.7305 Y-0.6812 
G01 X49.9809 Y-0.5775 
G01 X50.1725 Y-0.3859 
G01 X50.2762 Y-0.1355 
G01 X50.2762 Y0.7093 
G01 X50.3018 Y0.8378 
G01 X50.3439 Y0.9395 
G01 X50.3519 Y0.9588 
G01 X50.4247 Y1.0677 
G01 X50.5601 Y1.2031 
G01 X50.7334 Y1.6216 
G01 X50.7334 Y3.5984 
G01 X50.5601 Y4.0169 
G01 X50.2399 Y4.3371 
G01 X49.8214 Y4.5104 
G01 X49.3685 Y4.5104 
G01 X48.9501 Y4.3371 
G01 X48.8415 Y4.2285 
G01 X48.7489 Y4.1358 
G01 X48.6400 Y4.0631 
G01 X48.5677 Y4.0331 
G01 X48.5190 Y4.0129 
G01 X48.3905 Y3.9874 
G01 X48.2595 Y3.9874 
G01 X48.2325 Y3.9928 
G01 X48.1310 Y4.0129 
G01 X48.0100 Y4.0631 
G01 X47.9011 Y4.1358 
G01 X47.6999 Y4.3371 
G01 X47.2814 Y4.5104 
G01 X46.8285 Y4.5104 
G01 X46.4101 Y4.3371 
G01 X46.1938 Y4.1207 
G01 X46.1011 Y4.0281 
G01 X46.0464 Y3.9915 
G01 X45.9922 Y3.9553 
G01 X45.8712 Y3.9052 
G01 X45.8118 Y3.8934 
G01 X45.7427 Y3.8796 
G01 X45.6117 Y3.8796 
G01 X45.5343 Y3.8950 
G01 X45.4833 Y3.9052 
G01 X45.3622 Y3.9553 
G01 X45.2738 Y4.0144 
G01 X45.2533 Y4.0281 
G01 X45.1800 Y4.1014 
G01 X45.1800 Y3.8023 
G01 X45.2169 Y3.7471 
G01 X45.2766 Y3.6030 
G01 X45.3070 Y3.4500 
G01 X45.3070 Y1.7700 
G01 X45.2766 Y1.6170 
G01 X45.2169 Y1.4728 
G01 X45.1302 Y1.3431 
G01 X45.0199 Y1.2328 
G01 X44.8901 Y1.1461 
G01 X44.7460 Y1.0864 
G01 X44.5930 Y1.0560 
G01 X44.4370 Y1.0560 
G01 X44.2840 Y1.0864 
G01 X44.1398 Y1.1461 
G01 X44.0101 Y1.2328 
G01 X43.8998 Y1.3431 
G01 X43.8131 Y1.4728 
G01 X43.7534 Y1.6170 
G01 X43.7230 Y1.7700 
G01 X43.7230 Y1.9450 
G01 X43.5290 Y1.9450 
G01 X43.5290 Y1.7834 
G01 X43.5459 Y1.6552 
G01 X43.5713 Y1.5604 
G01 X43.5797 Y1.5402 
G01 X43.5882 Y1.4973 
G01 X43.5995 Y1.4550 
G01 X43.6009 Y1.4332 
G01 X43.6052 Y1.4117 
G01 X43.6052 Y1.3680 
G01 X43.6081 Y1.3243 
G01 X43.6052 Y1.3026 
G01 X43.6052 Y1.2807 
G01 X43.5967 Y1.2378 
G01 X43.5910 Y1.1945 
G01 X43.5839 Y1.1737 
G01 X43.5797 Y1.1522 
G01 X43.5629 Y1.1118 
G01 X43.5489 Y1.0704 
G01 X43.5379 Y1.0514 
G01 X43.5295 Y1.0312 
G01 X43.5052 Y0.9948 
G01 X43.4834 Y0.9570 
G01 X43.4689 Y0.9405 
G01 X43.4568 Y0.9223 
G01 X43.4258 Y0.8914 
G01 X43.3970 Y0.8585 
G01 X43.3796 Y0.8451 
G01 X43.3641 Y0.8297 
G01 X43.3278 Y0.8054 
G01 X43.2931 Y0.7787 
G01 X43.2734 Y0.7690 
G01 X43.2552 Y0.7569 
G01 X43.2148 Y0.7402 
G01 X43.1756 Y0.7208 
G01 X43.1544 Y0.7151 
G01 X43.1342 Y0.7068 
G01 X43.0913 Y0.6982 
G01 X43.0491 Y0.6869 
G01 X43.0272 Y0.6855 
G01 X43.0057 Y0.6812 
G01 X42.9620 Y0.6812 
G01 X42.9183 Y0.6783 
G01 X42.8966 Y0.6812 
G01 X42.7807 Y0.6812 
G01 X42.6522 Y0.7068 
G01 X42.5312 Y0.7569 
G01 X42.4223 Y0.8297 
G01 X42.3297 Y0.9223 
G01 X42.2569 Y1.0312 
G01 X42.2068 Y1.1522 
G01 X42.1812 Y1.2807 
G01 X42.1812 Y5.1355 
G01 X42.0775 Y5.3859 
G01 X41.8859 Y5.5775 
G01 X41.6741 Y5.6652 
G01 X32.3259 Y5.6652 
G01 X32.1141 Y5.5775 
G01 X31.9225 Y5.3859 
G01 X31.8188 Y5.1355 
G01 X31.8188 Y3.7807 
G01 X31.7932 Y3.6522 
G01 X31.7431 Y3.5312 
G01 X31.6703 Y3.4223 
G01 X31.5777 Y3.3297 
G01 X31.4688 Y3.2569 
G01 X31.3478 Y3.2068 
G01 X31.2193 Y3.1812 
G01 X24.7807 Y3.1812 
G01 X24.6522 Y3.2068 
G01 X24.5312 Y3.2569 
G01 X24.4223 Y3.3297 
G01 X24.3297 Y3.4223 
G01 X24.2569 Y3.5312 
G01 X24.2068 Y3.6522 
G01 X24.1812 Y3.7807 
G01 X24.1812 Y6.1355 
G01 X24.0775 Y6.3859 
G01 X23.8859 Y6.5775 
G01 X23.6741 Y6.6652 
G01 X12.8259 Y6.6652 
G01 X12.6141 Y6.5775 
G01 X12.4225 Y6.3859 
G01 X12.3188 Y6.1355 
G01 X12.3188 Y4.9250 
G01 X12.2932 Y4.7965 
G01 X12.2431 Y4.6755 
G01 X12.1703 Y4.5666 
G01 X11.4632 Y3.8595 
G01 X11.4632 Y3.0005 
G01 X12.0705 Y2.3932 
G01 X12.9295 Y2.3932 
G01 X13.5754 Y3.0392 
G01 X13.6588 Y3.2403 
G01 X13.7089 Y3.3613 
G01 X13.7817 Y3.4703 
G01 X13.8743 Y3.5629 
G01 X13.9119 Y3.5880 
G01 X13.9832 Y3.6357 
G01 X14.1042 Y3.6858 
G01 X14.2327 Y3.7113 
G01 X14.3637 Y3.7113 
G01 X14.3907 Y3.7060 
G01 X14.4922 Y3.6858 
G01 X14.5616 Y3.6570 
G01 X14.6132 Y3.6357 
G01 X14.7221 Y3.5629 
G01 X14.8147 Y3.4703 
G01 X14.8399 Y3.4327 
G01 X14.8875 Y3.3613 
G01 X14.9376 Y3.2403 
G01 X14.9632 Y3.1119 
G01 X14.9632 Y3.0905 
G01 X15.5705 Y2.4832 
G01 X16.4295 Y2.4832 
G01 X17.0368 Y3.0905 
G01 X17.0368 Y3.5945 
G01 X17.0362 Y3.5978 
G01 X17.0368 Y3.6600 
G01 X17.0368 Y3.7222 
G01 X17.0374 Y3.7255 
G01 X17.0375 Y3.7288 
G01 X17.0502 Y3.7898 
G01 X17.0624 Y3.8507 
G01 X17.0636 Y3.8538 
G01 X17.0643 Y3.8570 
G01 X17.0887 Y3.9143 
G01 X17.1125 Y3.9717 
G01 X17.1143 Y3.9745 
G01 X17.1156 Y3.9775 
G01 X17.1507 Y4.0289 
G01 X17.1853 Y4.0806 
G01 X17.1895 Y4.0857 
G01 X17.2339 Y4.1293 
G01 X17.2779 Y4.1733 
G01 X17.2806 Y4.1751 
G01 X17.3351 Y4.2115 
G01 X17.3868 Y4.2460 
G01 X17.3899 Y4.2473 
G01 X17.3927 Y4.2491 
G01 X17.4504 Y4.2724 
G01 X17.5078 Y4.2962 
G01 X17.5111 Y4.2968 
G01 X17.5142 Y4.2980 
G01 X17.5752 Y4.3096 
G01 X17.6363 Y4.3217 
G01 X17.6396 Y4.3217 
G01 X17.6429 Y4.3223 
G01 X17.7051 Y4.3217 
G01 X17.7673 Y4.3217 
G01 X17.7915 Y4.3215 
G01 X17.7946 Y4.3208 
G01 X17.7978 Y4.3208 
G01 X17.8074 Y4.3188 
G01 X17.9312 Y4.3188 
G01 X17.9345 Y4.3194 
G01 X17.9967 Y4.3188 
G01 X18.0588 Y4.3188 
G01 X18.0621 Y4.3181 
G01 X18.1858 Y4.3169 
G01 X18.1953 Y4.3188 
G01 X18.1986 Y4.3188 
G01 X18.2019 Y4.3194 
G01 X18.2641 Y4.3188 
G01 X18.5209 Y4.3188 
G01 X18.6494 Y4.2932 
G01 X18.7704 Y4.2431 
G01 X18.8793 Y4.1703 
G01 X18.9719 Y4.0777 
G01 X19.0447 Y3.9688 
G01 X19.0948 Y3.8478 
G01 X19.1204 Y3.7193 
G01 X19.1204 Y2.5243 
G01 X19.0948 Y2.3958 
G01 X19.0447 Y2.2748 
G01 X18.9719 Y2.1659 
G01 X18.8854 Y2.0793 
G01 X18.8948 Y2.0441 
G01 X18.8948 Y1.6470 
G01 X19.0001 Y1.5767 
G01 X19.0963 Y1.4805 
G01 X19.1718 Y1.3674 
G01 X19.2239 Y1.2418 
G01 X19.2504 Y1.1084 
G01 X19.2504 Y-0.3484 
G01 X19.2239 Y-0.4818 
G01 X19.1718 Y-0.6074 
G01 X19.0963 Y-0.7205 
G01 X19.0001 Y-0.8167 
G01 X18.8870 Y-0.8922 
G01 X18.7614 Y-0.9443 
G01 X18.6280 Y-0.9708 
G01 X18.4920 Y-0.9708 
G01 X18.3586 Y-0.9443 
G01 X18.2330 Y-0.8922 
G01 X18.1199 Y-0.8167 
G01 X18.0237 Y-0.7205 
G01 X17.9482 Y-0.6074 
G01 X17.8961 Y-0.4818 
G01 X17.8696 Y-0.3484 
G01 X17.8696 Y-0.2850 
G01 X17.6756 Y-0.2850 
G01 X17.6756 Y-0.3500 
G01 X17.6974 Y-0.4874 
G01 X17.7048 Y-0.5104 
G01 X17.7095 Y-0.5496 
G01 X17.7172 Y-0.5883 
G01 X17.7172 Y-0.6145 
G01 X17.7203 Y-0.6405 
G01 X17.7172 Y-0.6798 
G01 X17.7172 Y-0.7193 
G01 X17.7121 Y-0.7450 
G01 X17.7100 Y-0.7711 
G01 X17.6993 Y-0.8091 
G01 X17.6916 Y-0.8478 
G01 X17.6816 Y-0.8720 
G01 X17.6745 Y-0.8972 
G01 X17.6566 Y-0.9324 
G01 X17.6415 Y-0.9688 
G01 X17.6269 Y-0.9906 
G01 X17.6151 Y-1.0139 
G01 X17.5906 Y-1.0449 
G01 X17.5687 Y-1.0777 
G01 X17.5502 Y-1.0962 
G01 X17.5340 Y-1.1168 
G01 X17.5040 Y-1.1424 
G01 X17.4761 Y-1.1703 
G01 X17.4543 Y-1.1849 
G01 X17.4344 Y-1.2019 
G01 X17.4000 Y-1.2212 
G01 X17.3672 Y-1.2431 
G01 X17.3430 Y-1.2531 
G01 X17.3201 Y-1.2659 
G01 X17.2826 Y-1.2781 
G01 X17.2462 Y-1.2932 
G01 X17.2205 Y-1.2984 
G01 X17.1955 Y-1.3065 
G01 X17.1564 Y-1.3111 
G01 X17.1177 Y-1.3188 
G01 X17.0915 Y-1.3188 
G01 X17.0655 Y-1.3219 
G01 X17.0261 Y-1.3188 
G01 X12.1654 Y-1.3188 
G01 X12.0369 Y-1.2932 
G01 X11.9159 Y-1.2431 
G01 X11.8070 Y-1.1703 
G01 X11.7143 Y-1.0777 
G01 X11.6416 Y-0.9688 
G01 X11.5775 Y-0.8141 
G01 X11.3859 Y-0.6225 
G01 X11.1355 Y-0.5188 
G01 X10.5474 Y-0.5188 
G01 X10.4189 Y-0.4932 
G01 X10.2979 Y-0.4431 
G01 X10.2237 Y-0.3935 
G01 X10.1890 Y-0.3703 
G01 X10.0964 Y-0.2777 
G01 X10.0236 Y-0.1688 
G01 X9.9735 Y-0.0478 
G01 X9.9720 Y-0.0405 
G01 X9.9479 Y0.0807 
G01 X9.9479 Y0.2117 
G01 X9.9735 Y0.3402 
G01 X10.0236 Y0.4612 
G01 X10.0732 Y0.5354 
G01 X10.0964 Y0.5701 
G01 X10.1080 Y0.5817 
G01 X10.1890 Y0.6627 
G01 X10.5968 Y1.0705 
G01 X10.5968 Y1.9295 
G01 X9.9895 Y2.5368 
G01 X9.1305 Y2.5368 
G01 X9.0160 Y2.4223 
G01 X8.9234 Y2.3297 
G01 X8.8145 Y2.2569 
G01 X8.6935 Y2.2068 
G01 X8.5650 Y2.1812 
G01 X7.3645 Y2.1812 
G01 X7.1141 Y2.0775 
G01 X6.9225 Y1.8859 
G01 X6.8188 Y1.6355 
G01 X6.8188 Y-7.8793 
G01 X6.7932 Y-8.0078 
G01 X6.7634 Y-8.0797 
G01 X6.7431 Y-8.1288 
G01 X6.7084 Y-8.1807 
G01 X6.6703 Y-8.2377 
G01 X6.5777 Y-8.3304 
G01 X6.4688 Y-8.4031 
G01 X6.3478 Y-8.4533 
G01 X6.2607 Y-8.4706 
G01 X6.2193 Y-8.4788 
G01 X6.0883 Y-8.4788 
G01 X5.9598 Y-8.4533 
G01 X5.6657 Y-8.3314 
G01 X5.5722 Y-8.3128 
G01 X5.4512 Y-8.2627 
G01 X5.3423 Y-8.1899 
G01 X5.2497 Y-8.0973 
G01 X5.1769 Y-7.9884 
G01 X5.1268 Y-7.8674 
G01 X5.1012 Y-7.7389 
G01 X5.1012 Y-4.3645 
G01 X4.9975 Y-4.1141 
G01 X4.8059 Y-3.9225 
G01 X4.5555 Y-3.8188 
G01 X2.8950 Y-3.8188 
G01 X2.7665 Y-3.7932 
G01 X2.6455 Y-3.7431 
G01 X2.5366 Y-3.6703 
G01 X2.2428 Y-3.3765 
G01 X2.1502 Y-3.2839 
G01 X2.0774 Y-3.1750 
G01 X2.0273 Y-3.0540 
G01 X2.0017 Y-2.9255 
G01 X2.0017 Y-2.7945 
G01 X2.0273 Y-2.6660 
G01 X2.0774 Y-2.5450 
G01 X2.1502 Y-2.4361 
G01 X2.9568 Y-1.6295 
G01 X2.9568 Y-0.7705 
G01 X2.8423 Y-0.6560 
G01 X2.7497 Y-0.5634 
G00 Z2.5400 
G00 X2.5416 Y-4.1652 
G01 Z-0.1778 F254.00 
G01 X4.4641 Y-4.1652 F508.00 
G01 X4.5492 Y-4.1880 
G01 X4.6256 Y-4.2321 
G01 X4.6879 Y-4.2944 
G01 X4.7320 Y-4.3708 
G01 X4.7548 Y-4.4559 
G01 X4.7548 Y-8.6848 
G01 X5.5111 Y-8.6848 
G01 X5.7083 Y-8.7240 
G01 X5.8940 Y-8.8010 
G01 X6.0612 Y-8.9126 
G01 X6.2034 Y-9.0548 
G01 X6.3150 Y-9.2220 
G01 X6.3920 Y-9.4077 
G01 X6.4312 Y-9.6049 
G01 X6.4312 Y-9.8059 
G01 X6.3920 Y-10.0031 
G01 X6.3150 Y-10.1888 
G01 X6.2034 Y-10.3560 
G01 X6.0612 Y-10.4982 
G01 X5.8940 Y-10.6098 
G01 X5.7083 Y-10.6868 
G01 X5.5111 Y-10.7260 
G01 X3.3289 Y-10.7260 
G01 X3.1317 Y-10.6868 
G01 X2.9460 Y-10.6098 
G01 X2.7788 Y-10.4982 
G01 X2.6366 Y-10.3560 
G01 X2.5250 Y-10.1888 
G01 X2.4480 Y-10.0031 
G01 X2.4088 Y-9.8059 
G01 X2.4088 Y-9.6049 
G01 X2.4480 Y-9.4077 
G01 X2.5250 Y-9.2220 
G01 X2.6366 Y-9.0548 
G01 X2.7788 Y-8.9126 
G01 X2.9460 Y-8.8010 
G01 X3.1317 Y-8.7240 
G01 X3.3289 Y-8.6848 
G01 X4.0852 Y-8.6848 
G01 X4.0852 Y-4.8348 
G01 X2.5416 Y-4.8348 
G01 X2.1860 Y-5.1904 
G01 X1.6140 Y-5.1904 
G01 X1.2096 Y-4.7860 
G01 X1.2096 Y-4.2140 
G01 X1.6140 Y-3.8096 
G01 X2.1860 Y-3.8096 
G01 X2.5416 Y-4.1652 
G00 Z2.5400 
G00 X8.8296 Y-4.2140 
G01 Z-0.1778 F254.00 
G01 X9.2340 Y-3.8096 F508.00 
G01 X9.8060 Y-3.8096 
G01 X10.2104 Y-4.2140 
G01 X10.2104 Y-4.7860 
G01 X9.8348 Y-5.1616 
G01 X9.8348 Y-12.6652 
G01 X11.0791 Y-12.6652 
G01 X11.1642 Y-12.6880 
G01 X11.2406 Y-12.7321 
G01 X11.3029 Y-12.7944 
G01 X11.3470 Y-12.8708 
G01 X11.3698 Y-12.9559 
G01 X11.3698 Y-15.6584 
G01 X11.4751 Y-15.7287 
G01 X11.5713 Y-15.8249 
G01 X11.6468 Y-15.9380 
G01 X11.6989 Y-16.0636 
G01 X11.7254 Y-16.1970 
G01 X11.7254 Y-17.6538 
G01 X11.6989 Y-17.7872 
G01 X11.6468 Y-17.9128 
G01 X11.5713 Y-18.0259 
G01 X11.4751 Y-18.1221 
G01 X11.3620 Y-18.1976 
G01 X11.2364 Y-18.2497 
G01 X11.1030 Y-18.2762 
G01 X10.9670 Y-18.2762 
G01 X10.8336 Y-18.2497 
G01 X10.7080 Y-18.1976 
G01 X10.5949 Y-18.1221 
G01 X10.4987 Y-18.0259 
G01 X10.4232 Y-17.9128 
G01 X10.3711 Y-17.7872 
G01 X10.3446 Y-17.6538 
G01 X10.3446 Y-16.1970 
G01 X10.3711 Y-16.0636 
G01 X10.4232 Y-15.9380 
G01 X10.4987 Y-15.8249 
G01 X10.5949 Y-15.7287 
G01 X10.7002 Y-15.6584 
G01 X10.7002 Y-13.3348 
G01 X9.4559 Y-13.3348 
G01 X9.3708 Y-13.3120 
G01 X9.2944 Y-13.2679 
G01 X9.2321 Y-13.2056 
G01 X9.1880 Y-13.1292 
G01 X9.1652 Y-13.0441 
G01 X9.1652 Y-5.1216 
G01 X8.8296 Y-4.7860 
G01 X8.8296 Y-4.2140 
G00 Z2.5400 
G00 X8.8496 Y-1.4860 
G01 Z-0.1778 F254.00 
G01 X8.8496 Y-0.9140 F508.00 
G01 X9.2540 Y-0.5096 
G01 X9.8260 Y-0.5096 
G01 X10.1816 Y-0.8652 
G01 X11.0441 Y-0.8652 
G01 X11.1292 Y-0.8880 
G01 X11.2056 Y-0.9321 
G01 X11.2679 Y-0.9944 
G01 X11.3120 Y-1.0708 
G01 X11.3348 Y-1.1559 
G01 X11.3348 Y-1.6652 
G01 X18.0441 Y-1.6652 
G01 X18.1292 Y-1.6880 
G01 X18.2056 Y-1.7321 
G01 X18.2679 Y-1.7944 
G01 X18.3120 Y-1.8708 
G01 X18.3348 Y-1.9559 
G01 X18.3348 Y-2.8668 
G01 X18.5156 Y-2.8668 
G01 X18.5332 Y-2.8844 
G01 X18.5332 Y-3.9156 
G01 X18.5156 Y-3.9332 
G01 X17.4844 Y-3.9332 
G01 X17.4668 Y-3.9156 
G01 X17.4668 Y-2.8844 
G01 X17.4844 Y-2.8668 
G01 X17.6652 Y-2.8668 
G01 X17.6652 Y-2.3348 
G01 X10.9559 Y-2.3348 
G01 X10.8708 Y-2.3120 
G01 X10.7944 Y-2.2679 
G01 X10.7321 Y-2.2056 
G01 X10.6880 Y-2.1292 
G01 X10.6652 Y-2.0441 
G01 X10.6652 Y-1.5348 
G01 X10.1816 Y-1.5348 
G01 X9.8260 Y-1.8904 
G01 X9.2540 Y-1.8904 
G01 X8.8496 Y-1.4860 
G00 Z2.5400 
G00 X8.9184 Y1.1652 
G01 Z-0.1778 F254.00 
G01 X7.8348 Y1.1652 F508.00 
G01 X7.8348 Y-13.9668 
G01 X8.0156 Y-13.9668 
G01 X8.0332 Y-13.9844 
G01 X8.0332 Y-15.0156 
G01 X8.0156 Y-15.0332 
G01 X6.9844 Y-15.0332 
G01 X6.9668 Y-15.0156 
G01 X6.9668 Y-13.9844 
G01 X6.9844 Y-13.9668 
G01 X7.1652 Y-13.9668 
G01 X7.1652 Y1.5441 
G01 X7.1880 Y1.6292 
G01 X7.2321 Y1.7056 
G01 X7.2944 Y1.7679 
G01 X7.3708 Y1.8120 
G01 X7.4559 Y1.8348 
G01 X8.9184 Y1.8348 
G01 X9.2740 Y2.1904 
G01 X9.8460 Y2.1904 
G01 X10.2504 Y1.7860 
G01 X10.2504 Y1.2140 
G01 X9.8460 Y0.8096 
G01 X9.2740 Y0.8096 
G01 X8.9184 Y1.1652 
G00 Z2.5400 
G00 X11.8096 Y3.1440 
G01 Z-0.1778 F254.00 
G01 X11.8096 Y3.7160 F508.00 
G01 X12.2140 Y4.1204 
G01 X12.6652 Y4.1204 
G01 X12.6652 Y6.0441 
G01 X12.6880 Y6.1292 
G01 X12.7321 Y6.2056 
G01 X12.7944 Y6.2679 
G01 X12.8708 Y6.3120 
G01 X12.9559 Y6.3348 
G01 X23.5441 Y6.3348 
G01 X23.6292 Y6.3120 
G01 X23.7056 Y6.2679 
G01 X23.7679 Y6.2056 
G01 X23.8120 Y6.1292 
G01 X23.8348 Y6.0441 
G01 X23.8348 Y2.8348 
G01 X32.1652 Y2.8348 
G01 X32.1652 Y5.0441 
G01 X32.1880 Y5.1292 
G01 X32.2321 Y5.2056 
G01 X32.2944 Y5.2679 
G01 X32.3708 Y5.3120 
G01 X32.4559 Y5.3348 
G01 X41.5441 Y5.3348 
G01 X41.6292 Y5.3120 
G01 X41.7056 Y5.2679 
G01 X41.7679 Y5.2056 
G01 X41.8120 Y5.1292 
G01 X41.8348 Y5.0441 
G01 X41.8348 Y0.3348 
G01 X49.2602 Y0.3348 
G01 X49.2602 Y1.1294 
G01 X49.2198 Y1.1461 
G01 X49.0901 Y1.2328 
G01 X48.9798 Y1.3431 
G01 X48.8931 Y1.4728 
G01 X48.8334 Y1.6170 
G01 X48.8030 Y1.7700 
G01 X48.8030 Y3.4500 
G01 X48.8334 Y3.6030 
G01 X48.8931 Y3.7471 
G01 X48.9798 Y3.8769 
G01 X49.0901 Y3.9872 
G01 X49.2198 Y4.0739 
G01 X49.3640 Y4.1336 
G01 X49.5170 Y4.1640 
G01 X49.6730 Y4.1640 
G01 X49.8260 Y4.1336 
G01 X49.9701 Y4.0739 
G01 X50.0999 Y3.9872 
G01 X50.2102 Y3.8769 
G01 X50.2969 Y3.7471 
G01 X50.3566 Y3.6030 
G01 X50.3870 Y3.4500 
G01 X50.3870 Y1.7700 
G01 X50.3566 Y1.6170 
G01 X50.2969 Y1.4728 
G01 X50.2102 Y1.3431 
G01 X50.0999 Y1.2328 
G01 X49.9701 Y1.1461 
G01 X49.9298 Y1.1294 
G01 X49.9298 Y-0.0441 
G01 X49.9070 Y-0.1292 
G01 X49.8629 Y-0.2056 
G01 X49.8006 Y-0.2679 
G01 X49.7242 Y-0.3120 
G01 X49.6391 Y-0.3348 
G01 X41.4559 Y-0.3348 
G01 X41.3708 Y-0.3120 
G01 X41.2944 Y-0.2679 
G01 X41.2321 Y-0.2056 
G01 X41.1880 Y-0.1292 
G01 X41.1652 Y-0.0441 
G01 X41.1652 Y4.6652 
G01 X32.8348 Y4.6652 
G01 X32.8348 Y2.4559 
G01 X32.8120 Y2.3708 
G01 X32.7679 Y2.2944 
G01 X32.7056 Y2.2321 
G01 X32.6292 Y2.1880 
G01 X32.5441 Y2.1652 
G01 X23.4559 Y2.1652 
G01 X23.3708 Y2.1880 
G01 X23.2944 Y2.2321 
G01 X23.2321 Y2.2944 
G01 X23.1880 Y2.3708 
G01 X23.1652 Y2.4559 
G01 X23.1652 Y5.6652 
G01 X13.3348 Y5.6652 
G01 X13.3348 Y3.3859 
G01 X13.3120 Y3.3008 
G01 X13.2679 Y3.2244 
G01 X13.2056 Y3.1621 
G01 X13.1904 Y3.1533 
G01 X13.1904 Y3.1440 
G01 X12.7860 Y2.7396 
G01 X12.2140 Y2.7396 
G01 X11.8096 Y3.1440 
G00 Z2.5400 
G00 X15.3096 Y3.2340 
G01 Z-0.1778 F254.00 
G01 X15.3096 Y3.8060 F508.00 
G01 X15.6652 Y4.1616 
G01 X15.6652 Y4.9776 
G01 X15.6652 Y5.0218 
G01 X15.6652 Y5.0641 
G01 X15.6657 Y5.0674 
G01 X15.6770 Y5.1082 
G01 X15.6880 Y5.1492 
G01 X15.6893 Y5.1523 
G01 X15.7109 Y5.1888 
G01 X15.7321 Y5.2256 
G01 X15.7342 Y5.2282 
G01 X15.7645 Y5.2580 
G01 X15.7944 Y5.2879 
G01 X15.7971 Y5.2899 
G01 X15.8340 Y5.3108 
G01 X15.8708 Y5.3320 
G01 X15.8739 Y5.3333 
G01 X15.9149 Y5.3438 
G01 X15.9559 Y5.3548 
G01 X15.9593 Y5.3552 
G01 X16.0018 Y5.3548 
G01 X16.0441 Y5.3548 
G01 X18.0018 Y5.3348 
G01 X22.4441 Y5.3348 
G01 X22.5292 Y5.3120 
G01 X22.6056 Y5.2679 
G01 X22.6679 Y5.2056 
G01 X22.7120 Y5.1292 
G01 X22.7348 Y5.0441 
G01 X22.7348 Y-1.2652 
G01 X27.5855 Y-1.2652 
G01 X27.5948 Y-1.2633 
G01 X27.6294 Y-1.2652 
G01 X27.6641 Y-1.2652 
G01 X27.6733 Y-1.2677 
G01 X27.6828 Y-1.2682 
G01 X27.7157 Y-1.2790 
G01 X27.7492 Y-1.2880 
G01 X27.7575 Y-1.2928 
G01 X27.7665 Y-1.2958 
G01 X27.7955 Y-1.3148 
G01 X27.8256 Y-1.3321 
G01 X27.8323 Y-1.3388 
G01 X27.8403 Y-1.3440 
G01 X27.8634 Y-1.3699 
G01 X27.8879 Y-1.3944 
G01 X27.8927 Y-1.4027 
G01 X27.8990 Y-1.4098 
G01 X27.9146 Y-1.4407 
G01 X27.9320 Y-1.4708 
G01 X27.9344 Y-1.4800 
G01 X27.9387 Y-1.4885 
G01 X27.9458 Y-1.5224 
G01 X27.9548 Y-1.5559 
G01 X27.9548 Y-1.5655 
G01 X27.9567 Y-1.5748 
G01 X27.9548 Y-1.6094 
G01 X27.9548 Y-1.6441 
G01 X27.9523 Y-1.6533 
G01 X27.9239 Y-2.1591 
G01 X27.9601 Y-2.1833 
G01 X28.0563 Y-2.2795 
G01 X28.1318 Y-2.3926 
G01 X28.1839 Y-2.5182 
G01 X28.2104 Y-2.6516 
G01 X28.2104 Y-4.1084 
G01 X28.1839 Y-4.2418 
G01 X28.1318 Y-4.3674 
G01 X28.0563 Y-4.4805 
G01 X27.9601 Y-4.5767 
G01 X27.8470 Y-4.6522 
G01 X27.7214 Y-4.7043 
G01 X27.5880 Y-4.7308 
G01 X27.4520 Y-4.7308 
G01 X27.3186 Y-4.7043 
G01 X27.1930 Y-4.6522 
G01 X27.0799 Y-4.5767 
G01 X26.9837 Y-4.4805 
G01 X26.9082 Y-4.3674 
G01 X26.8561 Y-4.2418 
G01 X26.8296 Y-4.1084 
G01 X26.8296 Y-2.6516 
G01 X26.8561 Y-2.5182 
G01 X26.9082 Y-2.3926 
G01 X26.9837 Y-2.2795 
G01 X27.0799 Y-2.1833 
G01 X27.1930 Y-2.1078 
G01 X27.2577 Y-2.0810 
G01 X27.2659 Y-1.9348 
G01 X22.3559 Y-1.9348 
G01 X22.2708 Y-1.9120 
G01 X22.1944 Y-1.8679 
G01 X22.1321 Y-1.8056 
G01 X22.0880 Y-1.7292 
G01 X22.0652 Y-1.6441 
G01 X22.0652 Y4.6652 
G01 X18.0424 Y4.6652 
G01 X17.9982 Y4.6652 
G01 X17.9559 Y4.6652 
G01 X16.3348 Y4.6818 
G01 X16.3348 Y4.1616 
G01 X16.6904 Y3.8060 
G01 X16.6904 Y3.2340 
G01 X16.2860 Y2.8296 
G01 X15.7140 Y2.8296 
G01 X15.3096 Y3.2340 
G00 Z2.5400 
G00 X17.8854 Y1.6165 
G01 Z-0.1778 F254.00 
G01 X17.8036 Y1.5039 F508.00 
G01 X17.7404 Y1.3799 
G01 X17.6974 Y1.2475 
G01 X17.6756 Y1.1100 
G01 X17.6756 Y1.0450 
G01 X17.8696 Y1.0450 
G01 X17.8696 Y1.1084 
G01 X17.8961 Y1.2418 
G01 X17.9482 Y1.3674 
G01 X18.0237 Y1.4805 
G01 X18.1199 Y1.5767 
G01 X18.2252 Y1.6470 
G01 X18.2252 Y1.6652 
G01 X17.9341 Y1.6652 
G01 X17.8854 Y1.6165 
G00 Z2.5400 
G00 X19.4668 Y2.4844 
G01 Z-0.1778 F254.00 
G01 X19.4668 Y3.5156 F508.00 
G01 X19.4844 Y3.5332 
G01 X20.5156 Y3.5332 
G01 X20.5332 Y3.5156 
G01 X20.5332 Y2.4844 
G01 X20.5156 Y2.4668 
G01 X20.2348 Y2.4668 
G01 X20.2348 Y-9.4841 
G01 X20.2120 Y-9.5692 
G01 X20.1679 Y-9.6456 
G01 X20.1056 Y-9.7079 
G01 X20.0292 Y-9.7520 
G01 X19.9441 Y-9.7748 
G01 X18.2516 Y-9.7748 
G01 X18.1813 Y-9.8801 
G01 X18.0851 Y-9.9763 
G01 X17.9720 Y-10.0518 
G01 X17.8464 Y-10.1039 
G01 X17.7130 Y-10.1304 
G01 X16.2562 Y-10.1304 
G01 X16.1228 Y-10.1039 
G01 X15.9972 Y-10.0518 
G01 X15.8841 Y-9.9763 
G01 X15.7879 Y-9.8801 
G01 X15.7124 Y-9.7670 
G01 X15.6603 Y-9.6414 
G01 X15.6338 Y-9.5080 
G01 X15.6338 Y-9.3720 
G01 X15.6412 Y-9.3348 
G01 X14.9559 Y-9.3348 
G01 X14.8708 Y-9.3120 
G01 X14.7944 Y-9.2679 
G01 X14.7321 Y-9.2056 
G01 X14.6880 Y-9.1292 
G01 X14.6652 Y-9.0441 
G01 X14.6652 Y-6.3348 
G01 X12.3348 Y-6.3348 
G01 X12.3348 Y-8.6891 
G01 X12.3120 Y-8.7742 
G01 X12.2679 Y-8.8506 
G01 X12.2056 Y-8.9129 
G01 X12.1292 Y-8.9570 
G01 X12.0441 Y-8.9798 
G01 X11.6416 Y-8.9798 
G01 X11.5713 Y-9.0851 
G01 X11.4751 Y-9.1813 
G01 X11.3620 Y-9.2568 
G01 X11.2364 Y-9.3089 
G01 X11.1030 Y-9.3354 
G01 X10.9670 Y-9.3354 
G01 X10.8336 Y-9.3089 
G01 X10.7080 Y-9.2568 
G01 X10.5949 Y-9.1813 
G01 X10.4987 Y-9.0851 
G01 X10.4232 Y-8.9720 
G01 X10.3711 Y-8.8464 
G01 X10.3446 Y-8.7130 
G01 X10.3446 Y-7.2562 
G01 X10.3711 Y-7.1228 
G01 X10.4232 Y-6.9972 
G01 X10.4987 Y-6.8841 
G01 X10.5949 Y-6.7879 
G01 X10.7080 Y-6.7124 
G01 X10.8336 Y-6.6603 
G01 X10.9670 Y-6.6338 
G01 X11.1030 Y-6.6338 
G01 X11.2364 Y-6.6603 
G01 X11.3620 Y-6.7124 
G01 X11.4751 Y-6.7879 
G01 X11.5713 Y-6.8841 
G01 X11.6468 Y-6.9972 
G01 X11.6652 Y-7.0415 
G01 X11.6652 Y-5.9559 
G01 X11.6880 Y-5.8708 
G01 X11.7321 Y-5.7944 
G01 X11.7944 Y-5.7321 
G01 X11.8708 Y-5.6880 
G01 X11.9559 Y-5.6652 
G01 X15.0441 Y-5.6652 
G01 X15.1292 Y-5.6880 
G01 X15.2056 Y-5.7321 
G01 X15.2679 Y-5.7944 
G01 X15.3120 Y-5.8708 
G01 X15.3348 Y-5.9559 
G01 X15.3348 Y-8.6652 
G01 X16.6267 Y-8.6652 
G01 X16.6524 Y-8.6624 
G01 X16.6706 Y-8.6652 
G01 X16.6891 Y-8.6652 
G01 X16.7140 Y-8.6719 
G01 X16.7395 Y-8.6758 
G01 X16.7564 Y-8.6832 
G01 X16.7742 Y-8.6880 
G01 X16.7966 Y-8.7009 
G01 X16.9072 Y-8.7496 
G01 X17.7130 Y-8.7496 
G01 X17.8464 Y-8.7761 
G01 X17.9720 Y-8.8282 
G01 X18.0851 Y-8.9037 
G01 X18.1813 Y-8.9999 
G01 X18.2516 Y-9.1052 
G01 X19.5652 Y-9.1052 
G01 X19.5652 Y2.4668 
G01 X19.4844 Y2.4668 
G01 X19.4668 Y2.4844 
G00 Z2.5400 
G00 X20.6599 Y1.5767 
G01 Z-0.1778 F254.00 
G01 X20.7730 Y1.6522 F508.00 
G01 X20.8986 Y1.7043 
G01 X21.0320 Y1.7308 
G01 X21.1680 Y1.7308 
G01 X21.3014 Y1.7043 
G01 X21.4270 Y1.6522 
G01 X21.5401 Y1.5767 
G01 X21.6363 Y1.4805 
G01 X21.7118 Y1.3674 
G01 X21.7639 Y1.2418 
G01 X21.7904 Y1.1084 
G01 X21.7904 Y-0.3484 
G01 X21.7639 Y-0.4818 
G01 X21.7118 Y-0.6074 
G01 X21.6363 Y-0.7205 
G01 X21.5401 Y-0.8167 
G01 X21.4348 Y-0.8870 
G01 X21.4348 Y-11.8096 
G01 X21.8460 Y-11.8096 
G01 X22.2504 Y-12.2140 
G01 X22.2504 Y-12.7860 
G01 X21.8460 Y-13.1904 
G01 X21.2740 Y-13.1904 
G01 X20.8696 Y-12.7860 
G01 X20.8696 Y-12.7431 
G01 X20.8321 Y-12.7056 
G01 X20.7880 Y-12.6292 
G01 X20.7652 Y-12.5441 
G01 X20.7652 Y-0.8870 
G01 X20.6599 Y-0.8167 
G01 X20.5637 Y-0.7205 
G01 X20.4882 Y-0.6074 
G01 X20.4361 Y-0.4818 
G01 X20.4096 Y-0.3484 
G01 X20.4096 Y1.1084 
G01 X20.4361 Y1.2418 
G01 X20.4882 Y1.3674 
G01 X20.5637 Y1.4805 
G01 X20.6599 Y1.5767 
G00 Z2.5400 
G00 X23.1999 Y1.5767 
G01 Z-0.1778 F254.00 
G01 X23.3130 Y1.6522 F508.00 
G01 X23.4386 Y1.7043 
G01 X23.5720 Y1.7308 
G01 X23.7080 Y1.7308 
G01 X23.8414 Y1.7043 
G01 X23.9670 Y1.6522 
G01 X24.0801 Y1.5767 
G01 X24.1763 Y1.4805 
G01 X24.2518 Y1.3674 
G01 X24.3039 Y1.2418 
G01 X24.3304 Y1.1084 
G01 X24.3304 Y0.7148 
G01 X33.5441 Y0.7148 
G01 X33.6292 Y0.6920 
G01 X33.7056 Y0.6479 
G01 X33.7679 Y0.5856 
G01 X33.8120 Y0.5092 
G01 X33.8348 Y0.4241 
G01 X33.8348 Y-0.1652 
G01 X39.0402 Y-0.1652 
G01 X39.0402 Y0.9457 
G01 X38.9637 Y0.9774 
G01 X38.8216 Y1.0724 
G01 X38.7006 Y1.1934 
G01 X38.6056 Y1.3356 
G01 X38.5402 Y1.4936 
G01 X38.5068 Y1.6613 
G01 X38.5068 Y3.5087 
G01 X38.5402 Y3.6764 
G01 X38.6056 Y3.8344 
G01 X38.7006 Y3.9766 
G01 X38.8216 Y4.0976 
G01 X38.9637 Y4.1926 
G01 X39.1218 Y4.2580 
G01 X39.2895 Y4.2914 
G01 X39.4605 Y4.2914 
G01 X39.6282 Y4.2580 
G01 X39.7862 Y4.1926 
G01 X39.9284 Y4.0976 
G01 X40.0494 Y3.9766 
G01 X40.1444 Y3.8344 
G01 X40.2098 Y3.6764 
G01 X40.2432 Y3.5087 
G01 X40.2432 Y1.6613 
G01 X40.2098 Y1.4936 
G01 X40.1444 Y1.3356 
G01 X40.0494 Y1.1934 
G01 X39.9284 Y1.0724 
G01 X39.7862 Y0.9774 
G01 X39.7098 Y0.9457 
G01 X39.7098 Y-0.5441 
G01 X39.6870 Y-0.6292 
G01 X39.6429 Y-0.7056 
G01 X39.5806 Y-0.7679 
G01 X39.5042 Y-0.8120 
G01 X39.4191 Y-0.8348 
G01 X34.3348 Y-0.8348 
G01 X34.3348 Y-7.4668 
G01 X34.5156 Y-7.4668 
G01 X34.5332 Y-7.4844 
G01 X34.5332 Y-8.5156 
G01 X34.5156 Y-8.5332 
G01 X33.4844 Y-8.5332 
G01 X33.4668 Y-8.5156 
G01 X33.4668 Y-7.4844 
G01 X33.4844 Y-7.4668 
G01 X33.6652 Y-7.4668 
G01 X33.6652 Y-0.8348 
G01 X33.4559 Y-0.8348 
G01 X33.3708 Y-0.8120 
G01 X33.2944 Y-0.7679 
G01 X33.2321 Y-0.7056 
G01 X33.1880 Y-0.6292 
G01 X33.1652 Y-0.5441 
G01 X33.1652 Y0.0452 
G01 X24.3304 Y0.0452 
G01 X24.3304 Y-0.3484 
G01 X24.3039 Y-0.4818 
G01 X24.2518 Y-0.6074 
G01 X24.1763 Y-0.7205 
G01 X24.0801 Y-0.8167 
G01 X23.9670 Y-0.8922 
G01 X23.8414 Y-0.9443 
G01 X23.7080 Y-0.9708 
G01 X23.5720 Y-0.9708 
G01 X23.4386 Y-0.9443 
G01 X23.3130 Y-0.8922 
G01 X23.1999 Y-0.8167 
G01 X23.1037 Y-0.7205 
G01 X23.0282 Y-0.6074 
G01 X22.9761 Y-0.4818 
G01 X22.9496 Y-0.3484 
G01 X22.9496 Y1.1084 
G01 X22.9761 Y1.2418 
G01 X23.0282 Y1.3674 
G01 X23.1037 Y1.4805 
G01 X23.1999 Y1.5767 
G00 Z2.5400 
G00 X23.4156 Y-2.8668 
G01 Z-0.1778 F254.00 
G01 X23.4332 Y-2.8844 F508.00 
G01 X23.4332 Y-3.0652 
G01 X24.2896 Y-3.0652 
G01 X24.2896 Y-2.6516 
G01 X24.3161 Y-2.5182 
G01 X24.3682 Y-2.3926 
G01 X24.4437 Y-2.2795 
G01 X24.5399 Y-2.1833 
G01 X24.6530 Y-2.1078 
G01 X24.7786 Y-2.0557 
G01 X24.9120 Y-2.0292 
G01 X25.0480 Y-2.0292 
G01 X25.1814 Y-2.0557 
G01 X25.3070 Y-2.1078 
G01 X25.4201 Y-2.1833 
G01 X25.5163 Y-2.2795 
G01 X25.5918 Y-2.3926 
G01 X25.6439 Y-2.5182 
G01 X25.6704 Y-2.6516 
G01 X25.6704 Y-4.1084 
G01 X25.6439 Y-4.2418 
G01 X25.5918 Y-4.3674 
G01 X25.5163 Y-4.4805 
G01 X25.4201 Y-4.5767 
G01 X25.3885 Y-4.5978 
G01 X25.4153 Y-5.0452 
G01 X28.4652 Y-5.0452 
G01 X28.4652 Y-0.9559 
G01 X28.4880 Y-0.8708 
G01 X28.5321 Y-0.7944 
G01 X28.5944 Y-0.7321 
G01 X28.6708 Y-0.6880 
G01 X28.7559 Y-0.6652 
G01 X31.5441 Y-0.6652 
G01 X31.6292 Y-0.6880 
G01 X31.7056 Y-0.7321 
G01 X31.7679 Y-0.7944 
G01 X31.8120 Y-0.8708 
G01 X31.8348 Y-0.9559 
G01 X31.8348 Y-4.6652 
G01 X32.5441 Y-4.6652 
G01 X32.6292 Y-4.6880 
G01 X32.7056 Y-4.7321 
G01 X32.7679 Y-4.7944 
G01 X32.8120 Y-4.8708 
G01 X32.8348 Y-4.9559 
G01 X32.8348 Y-17.1652 
G01 X39.1652 Y-17.1652 
G01 X39.1652 Y-16.2298 
G01 X39.1238 Y-16.2126 
G01 X38.9816 Y-16.1176 
G01 X38.8606 Y-15.9966 
G01 X38.7656 Y-15.8544 
G01 X38.7002 Y-15.6964 
G01 X38.6668 Y-15.5287 
G01 X38.6668 Y-13.6813 
G01 X38.7002 Y-13.5136 
G01 X38.7656 Y-13.3555 
G01 X38.8606 Y-13.2134 
G01 X38.9816 Y-13.0924 
G01 X39.1238 Y-12.9974 
G01 X39.2818 Y-12.9320 
G01 X39.4495 Y-12.8986 
G01 X39.6205 Y-12.8986 
G01 X39.7882 Y-12.9320 
G01 X39.9462 Y-12.9974 
G01 X40.0884 Y-13.0924 
G01 X40.2094 Y-13.2134 
G01 X40.3044 Y-13.3555 
G01 X40.3698 Y-13.5136 
G01 X40.4032 Y-13.6813 
G01 X40.4032 Y-15.5287 
G01 X40.3698 Y-15.6964 
G01 X40.3044 Y-15.8544 
G01 X40.2094 Y-15.9966 
G01 X40.0884 Y-16.1176 
G01 X39.9462 Y-16.2126 
G01 X39.8348 Y-16.2587 
G01 X39.8348 Y-17.5441 
G01 X39.8120 Y-17.6292 
G01 X39.7679 Y-17.7056 
G01 X39.7056 Y-17.7679 
G01 X39.6292 Y-17.8120 
G01 X39.5441 Y-17.8348 
G01 X32.4559 Y-17.8348 
G01 X32.3708 Y-17.8120 
G01 X32.2944 Y-17.7679 
G01 X32.2321 Y-17.7056 
G01 X32.1880 Y-17.6292 
G01 X32.1652 Y-17.5441 
G01 X32.1652 Y-5.3348 
G01 X31.4559 Y-5.3348 
G01 X31.3708 Y-5.3120 
G01 X31.2944 Y-5.2679 
G01 X31.2321 Y-5.2056 
G01 X31.1880 Y-5.1292 
G01 X31.1652 Y-5.0441 
G01 X31.1652 Y-1.3348 
G01 X29.1348 Y-1.3348 
G01 X29.1348 Y-5.4241 
G01 X29.1120 Y-5.5092 
G01 X29.0679 Y-5.5856 
G01 X29.0056 Y-5.6479 
G01 X28.9292 Y-5.6920 
G01 X28.8441 Y-5.7148 
G01 X25.1100 Y-5.7148 
G01 X25.0760 Y-5.7168 
G01 X25.0661 Y-5.7148 
G01 X25.0559 Y-5.7148 
G01 X25.0230 Y-5.7060 
G01 X24.9897 Y-5.6992 
G01 X24.9806 Y-5.6946 
G01 X24.9708 Y-5.6920 
G01 X24.9413 Y-5.6750 
G01 X24.9108 Y-5.6597 
G01 X24.9032 Y-5.6530 
G01 X24.8944 Y-5.6479 
G01 X24.8704 Y-5.6239 
G01 X24.8449 Y-5.6012 
G01 X24.8393 Y-5.5927 
G01 X24.8321 Y-5.5856 
G01 X24.8151 Y-5.5561 
G01 X24.7963 Y-5.5277 
G01 X24.7931 Y-5.5180 
G01 X24.7880 Y-5.5092 
G01 X24.7792 Y-5.4763 
G01 X24.7684 Y-5.4440 
G01 X24.7678 Y-5.4339 
G01 X24.7652 Y-5.4241 
G01 X24.7652 Y-5.3900 
G01 X24.7227 Y-4.6811 
G01 X24.6530 Y-4.6522 
G01 X24.5399 Y-4.5767 
G01 X24.4437 Y-4.4805 
G01 X24.3682 Y-4.3674 
G01 X24.3161 Y-4.2418 
G01 X24.2896 Y-4.1084 
G01 X24.2896 Y-3.7348 
G01 X23.4332 Y-3.7348 
G01 X23.4332 Y-3.9156 
G01 X23.4156 Y-3.9332 
G01 X22.3844 Y-3.9332 
G01 X22.3668 Y-3.9156 
G01 X22.3668 Y-2.8844 
G01 X22.3844 Y-2.8668 
G01 X23.4156 Y-2.8668 
G00 Z2.5400 
G00 X23.4470 Y-4.2796 
G01 Z-0.1778 F254.00 
G01 X23.4470 Y-4.2796 F508.00 
G01 X23.5133 Y-4.2796 
G01 X23.5780 Y-4.2796 
G01 X23.7065 Y-4.3052 
G01 X23.7720 Y-4.3323 
G01 X23.8275 Y-4.3553 
G01 X23.8661 Y-4.3811 
G01 X23.9364 Y-4.4281 
G01 X23.9835 Y-4.4751 
G01 X24.0291 Y-4.5207 
G01 X24.0662 Y-4.5762 
G01 X24.0996 Y-4.6262 
G01 X24.1972 Y-4.7239 
G01 X24.2313 Y-4.7541 
G01 X24.2434 Y-4.7701 
G01 X24.2576 Y-4.7843 
G01 X24.2829 Y-4.8222 
G01 X24.3105 Y-4.8584 
G01 X24.3192 Y-4.8765 
G01 X24.3304 Y-4.8932 
G01 X24.3478 Y-4.9353 
G01 X24.3677 Y-4.9763 
G01 X24.3728 Y-4.9957 
G01 X24.3805 Y-5.0142 
G01 X24.3894 Y-5.0589 
G01 X24.4010 Y-5.1030 
G01 X24.4021 Y-5.1230 
G01 X24.4061 Y-5.1427 
G01 X24.4061 Y-5.1882 
G01 X24.4149 Y-5.3352 
G01 X24.4188 Y-5.3549 
G01 X24.4188 Y-5.4004 
G01 X24.4215 Y-5.4459 
G01 X24.4188 Y-5.4658 
G01 X24.4188 Y-5.5369 
G01 X24.4499 Y-5.6008 
G01 X24.4610 Y-5.6175 
G01 X24.4785 Y-5.6596 
G01 X24.4984 Y-5.7005 
G01 X24.5035 Y-5.7199 
G01 X24.5372 Y-5.8012 
G01 X24.5500 Y-5.8242 
G01 X24.5622 Y-5.8616 
G01 X24.5772 Y-5.8980 
G01 X24.5824 Y-5.9238 
G01 X24.5905 Y-5.9488 
G01 X24.5951 Y-5.9878 
G01 X24.6028 Y-6.0265 
G01 X24.6028 Y-6.0527 
G01 X24.6059 Y-6.0788 
G01 X24.6028 Y-6.1181 
G01 X24.6028 Y-6.1574 
G01 X24.5977 Y-6.1832 
G01 X24.5956 Y-6.2094 
G01 X24.5884 Y-6.2350 
G01 X25.0694 Y-6.2350 
G01 X25.1970 Y-6.2096 
G01 X26.6538 Y-6.2096 
G01 X26.7814 Y-6.2350 
G01 X27.6777 Y-6.2350 
G01 X27.7031 Y-6.2097 
G01 X27.7140 Y-6.2024 
G01 X27.7237 Y-6.1934 
G01 X27.7684 Y-6.1660 
G01 X27.8120 Y-6.1369 
G01 X27.8241 Y-6.1319 
G01 X27.8353 Y-6.1250 
G01 X27.8846 Y-6.1068 
G01 X27.9330 Y-6.0868 
G01 X27.9459 Y-6.0842 
G01 X27.9582 Y-6.0796 
G01 X28.0100 Y-6.0714 
G01 X28.0615 Y-6.0612 
G01 X28.0746 Y-6.0612 
G01 X28.0876 Y-6.0591 
G01 X28.1400 Y-6.0612 
G01 X28.9355 Y-6.0612 
G01 X29.1859 Y-5.9575 
G01 X29.3775 Y-5.7659 
G01 X29.4846 Y-5.5074 
G01 X29.5068 Y-5.3958 
G01 X29.5569 Y-5.2748 
G01 X29.6297 Y-5.1659 
G01 X29.7223 Y-5.0733 
G01 X29.7537 Y-5.0523 
G01 X29.7469 Y-4.6580 
G01 X29.7330 Y-4.6522 
G01 X29.6199 Y-4.5767 
G01 X29.5237 Y-4.4805 
G01 X29.4482 Y-4.3674 
G01 X29.3961 Y-4.2418 
G01 X29.3696 Y-4.1084 
G01 X29.3696 Y-2.6516 
G01 X29.3961 Y-2.5182 
G01 X29.4482 Y-2.3926 
G01 X29.5237 Y-2.2795 
G01 X29.6199 Y-2.1833 
G01 X29.7330 Y-2.1078 
G01 X29.8586 Y-2.0557 
G01 X29.9920 Y-2.0292 
G01 X30.1280 Y-2.0292 
G01 X30.2614 Y-2.0557 
G01 X30.3870 Y-2.1078 
G01 X30.5001 Y-2.1833 
G01 X30.5963 Y-2.2795 
G01 X30.6718 Y-2.3926 
G01 X30.7239 Y-2.5182 
G01 X30.7504 Y-2.6516 
G01 X30.7504 Y-4.1084 
G01 X30.7239 Y-4.2418 
G01 X30.6718 Y-4.3674 
G01 X30.5963 Y-4.4805 
G01 X30.5001 Y-4.5767 
G01 X30.4162 Y-4.6327 
G01 X30.4212 Y-4.9240 
G01 X30.4747 Y-4.9347 
G01 X30.4868 Y-4.9397 
G01 X30.4996 Y-4.9428 
G01 X30.5473 Y-4.9648 
G01 X30.5957 Y-4.9848 
G01 X30.6066 Y-4.9921 
G01 X30.6186 Y-4.9977 
G01 X30.6610 Y-5.0285 
G01 X30.7046 Y-5.0576 
G01 X30.7139 Y-5.0669 
G01 X30.7246 Y-5.0747 
G01 X30.7602 Y-5.1132 
G01 X30.7972 Y-5.1502 
G01 X30.8046 Y-5.1612 
G01 X30.8135 Y-5.1708 
G01 X30.8409 Y-5.2155 
G01 X30.8700 Y-5.2592 
G01 X30.8751 Y-5.2713 
G01 X30.8819 Y-5.2825 
G01 X30.9001 Y-5.3317 
G01 X30.9225 Y-5.3859 
G01 X31.1141 Y-5.5775 
G01 X31.4596 Y-5.7206 
G01 X31.4688 Y-5.7244 
G01 X31.5777 Y-5.7972 
G01 X31.6703 Y-5.8898 
G01 X31.7417 Y-5.9966 
G01 X31.7932 Y-6.1197 
G01 X31.8188 Y-6.2482 
G01 X31.8188 Y-15.3792 
G01 X31.7932 Y-15.5077 
G01 X31.7634 Y-15.5796 
G01 X31.7431 Y-15.6287 
G01 X31.7084 Y-15.6806 
G01 X31.6703 Y-15.7376 
G01 X31.5777 Y-15.8302 
G01 X31.4688 Y-15.9030 
G01 X31.3478 Y-15.9531 
G01 X31.2607 Y-15.9705 
G01 X31.2193 Y-15.9787 
G01 X31.0883 Y-15.9787 
G01 X30.9598 Y-15.9531 
G01 X30.6355 Y-15.8188 
G01 X30.5750 Y-15.8188 
G01 X30.4465 Y-15.7932 
G01 X30.3255 Y-15.7431 
G01 X30.2166 Y-15.6703 
G01 X30.0095 Y-15.4632 
G01 X29.1505 Y-15.4632 
G01 X28.8627 Y-15.7510 
G01 X28.7701 Y-15.8436 
G01 X28.7325 Y-15.8687 
G01 X28.6612 Y-15.9164 
G01 X28.6348 Y-15.9273 
G01 X28.6348 Y-17.0210 
G01 X29.1505 Y-17.5368 
G01 X29.2193 Y-17.5368 
G01 X29.3478 Y-17.5624 
G01 X29.4688 Y-17.6125 
G01 X29.5777 Y-17.6853 
G01 X29.6703 Y-17.7779 
G01 X29.7431 Y-17.8868 
G01 X29.7932 Y-18.0078 
G01 X29.8188 Y-18.1363 
G01 X29.8188 Y-18.7045 
G01 X29.7932 Y-18.8330 
G01 X29.7431 Y-18.9540 
G01 X29.6703 Y-19.0629 
G01 X29.5777 Y-19.1555 
G01 X29.4688 Y-19.2283 
G01 X29.3478 Y-19.2784 
G01 X29.2193 Y-19.3040 
G01 X18.1363 Y-19.3040 
G01 X18.0078 Y-19.2784 
G01 X17.8868 Y-19.2283 
G01 X17.7779 Y-19.1555 
G01 X17.6853 Y-19.0629 
G01 X17.6125 Y-18.9540 
G01 X17.5624 Y-18.8330 
G01 X17.5368 Y-18.7045 
G01 X17.5368 Y-18.2408 
G01 X17.5071 Y-18.1964 
G01 X17.4836 Y-18.1612 
G01 X17.4771 Y-18.1455 
G01 X17.4335 Y-18.0402 
G01 X17.4079 Y-17.9117 
G01 X17.4079 Y-17.8348 
G01 X15.8789 Y-17.8348 
G01 X15.6409 Y-18.0728 
G01 X15.5483 Y-18.1654 
G01 X15.4394 Y-18.2382 
G01 X15.3184 Y-18.2883 
G01 X15.1899 Y-18.3139 
G01 X15.0589 Y-18.3139 
G01 X14.9304 Y-18.2883 
G01 X14.8094 Y-18.2382 
G01 X14.7005 Y-18.1654 
G01 X14.6079 Y-18.0728 
G01 X14.5351 Y-17.9639 
G01 X14.4850 Y-17.8429 
G01 X14.4594 Y-17.7144 
G01 X14.4594 Y-16.9300 
G01 X14.2654 Y-16.9300 
G01 X14.2654 Y-17.6538 
G01 X14.2389 Y-17.7872 
G01 X14.1868 Y-17.9128 
G01 X14.1113 Y-18.0259 
G01 X14.0151 Y-18.1221 
G01 X13.9020 Y-18.1976 
G01 X13.7764 Y-18.2497 
G01 X13.6430 Y-18.2762 
G01 X13.5070 Y-18.2762 
G01 X13.3736 Y-18.2497 
G01 X13.2480 Y-18.1976 
G01 X13.1349 Y-18.1221 
G01 X13.0387 Y-18.0259 
G01 X12.9632 Y-17.9128 
G01 X12.9111 Y-17.7872 
G01 X12.8846 Y-17.6538 
G01 X12.8846 Y-16.1970 
G01 X12.9100 Y-16.0694 
G01 X12.9100 Y-15.6793 
G01 X12.8826 Y-15.7067 
G01 X12.8367 Y-15.7526 
G01 X12.7930 Y-15.7817 
G01 X12.7278 Y-15.8254 
G01 X12.6633 Y-15.8520 
G01 X12.6067 Y-15.8755 
G01 X12.5470 Y-15.8874 
G01 X12.4783 Y-15.9011 
G01 X12.4120 Y-15.9011 
G01 X12.3473 Y-15.9011 
G01 X12.2830 Y-15.8883 
G01 X12.2188 Y-15.8755 
G01 X12.1609 Y-15.8515 
G01 X12.0978 Y-15.8254 
G01 X12.0418 Y-15.7880 
G01 X11.9888 Y-15.7526 
G01 X11.9388 Y-15.7025 
G01 X11.8962 Y-15.6600 
G01 X11.8647 Y-15.6284 
G01 X11.8367 Y-15.5865 
G01 X11.7919 Y-15.5195 
G01 X11.7657 Y-15.4563 
G01 X11.7418 Y-15.3985 
G01 X11.7301 Y-15.3400 
G01 X11.7162 Y-15.2700 
G01 X11.7162 Y-15.2052 
G01 X11.7162 Y-13.7195 
G01 X11.7418 Y-13.5910 
G01 X11.7919 Y-13.4700 
G01 X11.8415 Y-13.3958 
G01 X11.8647 Y-13.3611 
G01 X11.9573 Y-13.2685 
G01 X12.0662 Y-13.1957 
G01 X12.1149 Y-13.1755 
G01 X12.1872 Y-13.1456 
G01 X12.2916 Y-13.1248 
G01 X12.3157 Y-13.1200 
G01 X12.4467 Y-13.1200 
G01 X12.5752 Y-13.1456 
G01 X12.6962 Y-13.1957 
G01 X12.7704 Y-13.2453 
G01 X12.8051 Y-13.2685 
G01 X12.8121 Y-13.2755 
G01 X12.8977 Y-13.3611 
G01 X13.1141 Y-13.5775 
G01 X13.3645 Y-13.6812 
G01 X15.2193 Y-13.6812 
G01 X15.3478 Y-13.7068 
G01 X15.4688 Y-13.7569 
G01 X15.5777 Y-13.8297 
G01 X15.6703 Y-13.9223 
G01 X15.7431 Y-14.0312 
G01 X15.7932 Y-14.1522 
G01 X15.8188 Y-14.2807 
G01 X15.8188 Y-16.6355 
G01 X15.9225 Y-16.8859 
G01 X15.9513 Y-16.9146 
G01 X16.0241 Y-17.0236 
G01 X16.0742 Y-17.1446 
G01 X16.0783 Y-17.1652 
G01 X20.5441 Y-17.1652 
G01 X20.6038 Y-17.1812 
G01 X20.9650 Y-17.1812 
G01 X21.0935 Y-17.2068 
G01 X21.2145 Y-17.2569 
G01 X21.3234 Y-17.3297 
G01 X21.5305 Y-17.5368 
G01 X22.3895 Y-17.5368 
G01 X22.5040 Y-17.4223 
G01 X22.5966 Y-17.3297 
G01 X22.7055 Y-17.2569 
G01 X22.8265 Y-17.2068 
G01 X22.9550 Y-17.1812 
G01 X27.1355 Y-17.1812 
G01 X27.3859 Y-17.0775 
G01 X27.5220 Y-16.9414 
G01 X27.6146 Y-16.8487 
G01 X27.7236 Y-16.7759 
G01 X27.8446 Y-16.7258 
G01 X27.8519 Y-16.7244 
G01 X27.9652 Y-16.7018 
G01 X27.9652 Y-15.8723 
G01 X27.9223 Y-15.8436 
G01 X27.8297 Y-15.7510 
G01 X27.8045 Y-15.7134 
G01 X27.7569 Y-15.6421 
G01 X27.7068 Y-15.5211 
G01 X27.6812 Y-15.3926 
G01 X27.6812 Y-14.0074 
G01 X27.7068 Y-13.8789 
G01 X27.7512 Y-13.7716 
G01 X27.7569 Y-13.7579 
G01 X27.7823 Y-13.7198 
G01 X27.8297 Y-13.6490 
G01 X27.9223 Y-13.5564 
G01 X28.0312 Y-13.4836 
G01 X28.1522 Y-13.4335 
G01 X28.2180 Y-13.4204 
G01 X28.2807 Y-13.4079 
G01 X28.4117 Y-13.4079 
G01 X28.5402 Y-13.4335 
G01 X28.6475 Y-13.4779 
G01 X28.6612 Y-13.4836 
G01 X28.6993 Y-13.5090 
G01 X28.7408 Y-13.5368 
G01 X29.6095 Y-13.5368 
G01 X30.2168 Y-12.9295 
G01 X30.2168 Y-12.0705 
G01 X29.6095 Y-11.4632 
G01 X28.7505 Y-11.4632 
G01 X28.6360 Y-11.5777 
G01 X28.5434 Y-11.6703 
G01 X28.4345 Y-11.7431 
G01 X28.3135 Y-11.7932 
G01 X28.1850 Y-11.8188 
G01 X26.7807 Y-11.8188 
G01 X26.6522 Y-11.7932 
G01 X26.5312 Y-11.7431 
G01 X26.4223 Y-11.6703 
G01 X26.3297 Y-11.5777 
G01 X26.2569 Y-11.4688 
G01 X26.2068 Y-11.3478 
G01 X26.1812 Y-11.2193 
G01 X26.1812 Y-11.0763 
G01 X26.2068 Y-10.9478 
G01 X26.2569 Y-10.8268 
G01 X26.3297 Y-10.7179 
G01 X26.4223 Y-10.6253 
G01 X26.5312 Y-10.5525 
G01 X26.6522 Y-10.5024 
G01 X26.7807 Y-10.4768 
G01 X26.7920 Y-10.4768 
G01 X27.1731 Y-10.3190 
G01 X27.4648 Y-10.0273 
G01 X27.6226 Y-9.6462 
G01 X27.6226 Y-9.2338 
G01 X27.4647 Y-8.8527 
G01 X27.1908 Y-8.5788 
G01 X27.0982 Y-8.4861 
G01 X27.0731 Y-8.4486 
G01 X27.0254 Y-8.3772 
G01 X26.9753 Y-8.2562 
G01 X26.9497 Y-8.1277 
G01 X26.9497 Y-7.9967 
G01 X26.9753 Y-7.8683 
G01 X27.0254 Y-7.7472 
G01 X27.0982 Y-7.6383 
G01 X27.1715 Y-7.5650 
G01 X26.7814 Y-7.5650 
G01 X26.6538 Y-7.5904 
G01 X25.1970 Y-7.5904 
G01 X25.0694 Y-7.5650 
G01 X24.6793 Y-7.5650 
G01 X24.7526 Y-7.6383 
G01 X24.8254 Y-7.7472 
G01 X24.8755 Y-7.8683 
G01 X24.9011 Y-7.9967 
G01 X24.9011 Y-8.1277 
G01 X24.8755 Y-8.2562 
G01 X24.8254 Y-8.3772 
G01 X24.7758 Y-8.4515 
G01 X24.7526 Y-8.4861 
G01 X24.7447 Y-8.4941 
G01 X24.6600 Y-8.5788 
G01 X24.3860 Y-8.8527 
G01 X24.2282 Y-9.2338 
G01 X24.2282 Y-9.6462 
G01 X24.3860 Y-10.0273 
G01 X24.5777 Y-10.2190 
G01 X24.6703 Y-10.3116 
G01 X24.6955 Y-10.3492 
G01 X24.7431 Y-10.4205 
G01 X24.7932 Y-10.5415 
G01 X24.8188 Y-10.6700 
G01 X24.8188 Y-13.7193 
G01 X24.7932 Y-13.8478 
G01 X24.7431 Y-13.9688 
G01 X24.6703 Y-14.0777 
G01 X24.5777 Y-14.1703 
G01 X24.4688 Y-14.2431 
G01 X24.3478 Y-14.2932 
G01 X24.2193 Y-14.3188 
G01 X22.7474 Y-14.3188 
G01 X22.6189 Y-14.2932 
G01 X22.4979 Y-14.2431 
G01 X22.4237 Y-14.1935 
G01 X22.3890 Y-14.1703 
G01 X22.2964 Y-14.0777 
G01 X22.2236 Y-13.9688 
G01 X22.1735 Y-13.8478 
G01 X22.1479 Y-13.7193 
G01 X22.1479 Y-13.5883 
G01 X22.1735 Y-13.4598 
G01 X22.2236 Y-13.3388 
G01 X22.2732 Y-13.2646 
G01 X22.2964 Y-13.2299 
G01 X22.3048 Y-13.2214 
G01 X22.3890 Y-13.1373 
G01 X22.5968 Y-12.9295 
G01 X22.5968 Y-12.0705 
G01 X22.0223 Y-11.4960 
G01 X21.9297 Y-11.4034 
G01 X21.8569 Y-11.2945 
G01 X21.8068 Y-11.1735 
G01 X21.7812 Y-11.0450 
G01 X21.7812 Y-4.8791 
G01 X21.8068 Y-4.7506 
G01 X21.8569 Y-4.6296 
G01 X21.9297 Y-4.5207 
G01 X22.0223 Y-4.4281 
G01 X22.1312 Y-4.3553 
G01 X22.2522 Y-4.3052 
G01 X22.3807 Y-4.2796 
G01 X23.4470 Y-4.2796 
G00 Z2.5400 
G00 X24.8249 Y-8.9037 
G01 Z-0.1778 F254.00 
G01 X24.9380 Y-8.8282 F508.00 
G01 X25.0636 Y-8.7761 
G01 X25.1970 Y-8.7496 
G01 X26.6538 Y-8.7496 
G01 X26.7872 Y-8.7761 
G01 X26.9128 Y-8.8282 
G01 X27.0259 Y-8.9037 
G01 X27.1221 Y-8.9999 
G01 X27.1976 Y-9.1130 
G01 X27.2497 Y-9.2386 
G01 X27.2762 Y-9.3720 
G01 X27.2762 Y-9.5080 
G01 X27.2497 Y-9.6414 
G01 X27.1976 Y-9.7670 
G01 X27.1221 Y-9.8801 
G01 X27.0259 Y-9.9763 
G01 X26.9128 Y-10.0518 
G01 X26.7872 Y-10.1039 
G01 X26.6538 Y-10.1304 
G01 X25.8348 Y-10.1304 
G01 X25.8348 Y-15.0441 
G01 X25.8120 Y-15.1292 
G01 X25.7679 Y-15.2056 
G01 X25.7056 Y-15.2679 
G01 X25.6292 Y-15.3120 
G01 X25.5441 Y-15.3348 
G01 X17.9559 Y-15.3348 
G01 X17.8708 Y-15.3120 
G01 X17.7944 Y-15.2679 
G01 X17.7321 Y-15.2056 
G01 X17.6880 Y-15.1292 
G01 X17.6652 Y-15.0441 
G01 X17.6652 Y-11.3485 
G01 X17.1680 Y-11.3683 
G01 X16.7860 Y-11.7504 
G01 X16.2140 Y-11.7504 
G01 X15.8096 Y-11.3460 
G01 X15.8096 Y-10.7740 
G01 X16.2140 Y-10.3696 
G01 X16.7860 Y-10.3696 
G01 X17.1166 Y-10.7003 
G01 X17.9494 Y-10.6670 
G01 X17.9559 Y-10.6652 
G01 X17.9933 Y-10.6652 
G01 X18.0307 Y-10.6637 
G01 X18.0373 Y-10.6652 
G01 X18.0441 Y-10.6652 
G01 X18.0802 Y-10.6749 
G01 X18.1167 Y-10.6831 
G01 X18.1227 Y-10.6863 
G01 X18.1292 Y-10.6880 
G01 X18.1616 Y-10.7067 
G01 X18.1947 Y-10.7241 
G01 X18.1997 Y-10.7287 
G01 X18.2056 Y-10.7321 
G01 X18.2320 Y-10.7585 
G01 X18.2595 Y-10.7839 
G01 X18.2631 Y-10.7896 
G01 X18.2679 Y-10.7944 
G01 X18.2866 Y-10.8268 
G01 X18.3066 Y-10.8584 
G01 X18.3086 Y-10.8649 
G01 X18.3120 Y-10.8708 
G01 X18.3217 Y-10.9069 
G01 X18.3328 Y-10.9426 
G01 X18.3330 Y-10.9494 
G01 X18.3348 Y-10.9559 
G01 X18.3348 Y-10.9933 
G01 X18.3363 Y-11.0307 
G01 X18.3348 Y-11.0373 
G01 X18.3348 Y-14.6652 
G01 X25.1652 Y-14.6652 
G01 X25.1652 Y-10.1241 
G01 X25.0636 Y-10.1039 
G01 X24.9380 Y-10.0518 
G01 X24.8249 Y-9.9763 
G01 X24.7287 Y-9.8801 
G01 X24.6532 Y-9.7670 
G01 X24.6011 Y-9.6414 
G01 X24.5746 Y-9.5080 
G01 X24.5746 Y-9.3720 
G01 X24.6011 Y-9.2386 
G01 X24.6532 Y-9.1130 
G01 X24.7287 Y-8.9999 
G01 X24.8249 Y-8.9037 
G00 Z2.5400 
G00 X26.7944 Y-12.2321 
G01 Z-0.1778 F254.00 
G01 X26.8708 Y-12.1880 F508.00 
G01 X26.9559 Y-12.1652 
G01 X28.5384 Y-12.1652 
G01 X28.8940 Y-11.8096 
G01 X29.4660 Y-11.8096 
G01 X29.8704 Y-12.2140 
G01 X29.8704 Y-12.7860 
G01 X29.4660 Y-13.1904 
G01 X28.8940 Y-13.1904 
G01 X28.5384 Y-12.8348 
G01 X27.3348 Y-12.8348 
G01 X27.3348 Y-16.5441 
G01 X27.3120 Y-16.6292 
G01 X27.2679 Y-16.7056 
G01 X27.2056 Y-16.7679 
G01 X27.1292 Y-16.8120 
G01 X27.0441 Y-16.8348 
G01 X22.6016 Y-16.8348 
G01 X22.2460 Y-17.1904 
G01 X21.6740 Y-17.1904 
G01 X21.3184 Y-16.8348 
G01 X16.4559 Y-16.8348 
G01 X16.3708 Y-16.8120 
G01 X16.2944 Y-16.7679 
G01 X16.2321 Y-16.7056 
G01 X16.1880 Y-16.6292 
G01 X16.1652 Y-16.5441 
G01 X16.1652 Y-13.3348 
G01 X13.4559 Y-13.3348 
G01 X13.3708 Y-13.3120 
G01 X13.2944 Y-13.2679 
G01 X13.2321 Y-13.2056 
G01 X13.1880 Y-13.1292 
G01 X13.1652 Y-13.0441 
G01 X13.1652 Y-9.2015 
G01 X13.1349 Y-9.1813 
G01 X13.0387 Y-9.0851 
G01 X12.9632 Y-8.9720 
G01 X12.9111 Y-8.8464 
G01 X12.8846 Y-8.7130 
G01 X12.8846 Y-7.2562 
G01 X12.9111 Y-7.1228 
G01 X12.9632 Y-6.9972 
G01 X13.0387 Y-6.8841 
G01 X13.1349 Y-6.7879 
G01 X13.2480 Y-6.7124 
G01 X13.3736 Y-6.6603 
G01 X13.5070 Y-6.6338 
G01 X13.6430 Y-6.6338 
G01 X13.7764 Y-6.6603 
G01 X13.9020 Y-6.7124 
G01 X14.0151 Y-6.7879 
G01 X14.1113 Y-6.8841 
G01 X14.1868 Y-6.9972 
G01 X14.2389 Y-7.1228 
G01 X14.2654 Y-7.2562 
G01 X14.2654 Y-8.7130 
G01 X14.2389 Y-8.8464 
G01 X14.1868 Y-8.9720 
G01 X14.1113 Y-9.0851 
G01 X14.0151 Y-9.1813 
G01 X13.9020 Y-9.2568 
G01 X13.8348 Y-9.2847 
G01 X13.8348 Y-12.6652 
G01 X16.5441 Y-12.6652 
G01 X16.6292 Y-12.6880 
G01 X16.7056 Y-12.7321 
G01 X16.7679 Y-12.7944 
G01 X16.8120 Y-12.8708 
G01 X16.8348 Y-12.9559 
G01 X16.8348 Y-16.1652 
G01 X21.3184 Y-16.1652 
G01 X21.6740 Y-15.8096 
G01 X22.2460 Y-15.8096 
G01 X22.6016 Y-16.1652 
G01 X26.6652 Y-16.1652 
G01 X26.6652 Y-12.4559 
G01 X26.6880 Y-12.3708 
G01 X26.7321 Y-12.2944 
G01 X26.7944 Y-12.2321 
G00 Z2.5400 
G00 X29.2940 Y-15.8096 
G01 Z-0.1778 F254.00 
G01 X29.8660 Y-15.8096 F508.00 
G01 X30.2216 Y-16.1652 
G01 X30.5441 Y-16.1652 
G01 X30.6292 Y-16.1880 
G01 X30.7056 Y-16.2321 
G01 X30.7679 Y-16.2944 
G01 X30.8120 Y-16.3708 
G01 X30.8348 Y-16.4559 
G01 X30.8348 Y-18.1652 
G01 X49.3302 Y-18.1652 
G01 X49.3302 Y-16.3706 
G01 X49.2898 Y-16.3539 
G01 X49.1601 Y-16.2672 
G01 X49.0498 Y-16.1569 
G01 X48.9631 Y-16.0271 
G01 X48.9034 Y-15.8830 
G01 X48.8730 Y-15.7300 
G01 X48.8730 Y-14.0500 
G01 X48.9034 Y-13.8970 
G01 X48.9631 Y-13.7528 
G01 X49.0498 Y-13.6231 
G01 X49.1601 Y-13.5128 
G01 X49.2898 Y-13.4261 
G01 X49.4340 Y-13.3664 
G01 X49.5870 Y-13.3360 
G01 X49.7430 Y-13.3360 
G01 X49.8960 Y-13.3664 
G01 X50.0401 Y-13.4261 
G01 X50.1699 Y-13.5128 
G01 X50.2802 Y-13.6231 
G01 X50.3669 Y-13.7528 
G01 X50.4266 Y-13.8970 
G01 X50.4570 Y-14.0500 
G01 X50.4570 Y-15.7300 
G01 X50.4266 Y-15.8830 
G01 X50.3669 Y-16.0271 
G01 X50.2802 Y-16.1569 
G01 X50.1699 Y-16.2672 
G01 X50.0401 Y-16.3539 
G01 X49.9998 Y-16.3706 
G01 X49.9998 Y-18.5441 
G01 X49.9770 Y-18.6292 
G01 X49.9329 Y-18.7056 
G01 X49.8706 Y-18.7679 
G01 X49.7942 Y-18.8120 
G01 X49.7091 Y-18.8348 
G01 X30.4559 Y-18.8348 
G01 X30.3708 Y-18.8120 
G01 X30.2944 Y-18.7679 
G01 X30.2321 Y-18.7056 
G01 X30.1880 Y-18.6292 
G01 X30.1652 Y-18.5441 
G01 X30.1652 Y-16.8912 
G01 X29.8660 Y-17.1904 
G01 X29.2940 Y-17.1904 
G01 X28.8896 Y-16.7860 
G01 X28.8896 Y-16.2140 
G01 X29.2940 Y-15.8096 
G00 Z2.5400 
G00 X33.6856 Y-15.8544 
G01 Z-0.1778 F254.00 
G01 X33.6202 Y-15.6964 F508.00 
G01 X33.5868 Y-15.5287 
G01 X33.5868 Y-13.6813 
G01 X33.6202 Y-13.5136 
G01 X33.6856 Y-13.3555 
G01 X33.7806 Y-13.2134 
G01 X33.9016 Y-13.0924 
G01 X34.0438 Y-12.9974 
G01 X34.2018 Y-12.9320 
G01 X34.3695 Y-12.8986 
G01 X34.5405 Y-12.8986 
G01 X34.7082 Y-12.9320 
G01 X34.8662 Y-12.9974 
G01 X35.0084 Y-13.0924 
G01 X35.1294 Y-13.2134 
G01 X35.2244 Y-13.3555 
G01 X35.2898 Y-13.5136 
G01 X35.3232 Y-13.6813 
G01 X35.3232 Y-15.5287 
G01 X35.2898 Y-15.6964 
G01 X35.2244 Y-15.8544 
G01 X35.1294 Y-15.9966 
G01 X35.0084 Y-16.1176 
G01 X34.8662 Y-16.2126 
G01 X34.7082 Y-16.2780 
G01 X34.5405 Y-16.3114 
G01 X34.3695 Y-16.3114 
G01 X34.2018 Y-16.2780 
G01 X34.0438 Y-16.2126 
G01 X33.9016 Y-16.1176 
G01 X33.7806 Y-15.9966 
G01 X33.6856 Y-15.8544 
G00 Z2.5400 
G00 X36.2256 Y-15.8544 
G01 Z-0.1778 F254.00 
G01 X36.1602 Y-15.6964 F508.00 
G01 X36.1268 Y-15.5287 
G01 X36.1268 Y-13.6813 
G01 X36.1602 Y-13.5136 
G01 X36.2256 Y-13.3555 
G01 X36.3206 Y-13.2134 
G01 X36.4416 Y-13.0924 
G01 X36.5838 Y-12.9974 
G01 X36.7418 Y-12.9320 
G01 X36.9095 Y-12.8986 
G01 X37.0805 Y-12.8986 
G01 X37.2482 Y-12.9320 
G01 X37.4062 Y-12.9974 
G01 X37.5484 Y-13.0924 
G01 X37.6694 Y-13.2134 
G01 X37.7644 Y-13.3555 
G01 X37.8298 Y-13.5136 
G01 X37.8632 Y-13.6813 
G01 X37.8632 Y-15.5287 
G01 X37.8298 Y-15.6964 
G01 X37.7644 Y-15.8544 
G01 X37.6694 Y-15.9966 
G01 X37.5484 Y-16.1176 
G01 X37.4062 Y-16.2126 
G01 X37.2482 Y-16.2780 
G01 X37.0805 Y-16.3114 
G01 X36.9095 Y-16.3114 
G01 X36.7418 Y-16.2780 
G01 X36.5838 Y-16.2126 
G01 X36.4416 Y-16.1176 
G01 X36.3206 Y-15.9966 
G01 X36.2256 Y-15.8544 
G00 Z2.5400 
G00 X43.5990 Y-14.2250 
G01 Z-0.1778 F254.00 
G01 X43.7930 Y-14.2250 F508.00 
G01 X43.7930 Y-14.0500 
G01 X43.8234 Y-13.8970 
G01 X43.8831 Y-13.7528 
G01 X43.9200 Y-13.6977 
G01 X43.9200 Y-13.3986 
G01 X43.8421 Y-13.4765 
G01 X43.7634 Y-13.5790 
G01 X43.6988 Y-13.6910 
G01 X43.6493 Y-13.8104 
G01 X43.6159 Y-13.9352 
G01 X43.5990 Y-14.0634 
G01 X43.5990 Y-14.2250 
G00 Z2.5400 
G00 X46.3330 Y-14.0500 
G01 Z-0.1778 F254.00 
G01 X46.3634 Y-13.8970 F508.00 
G01 X46.4231 Y-13.7528 
G01 X46.5098 Y-13.6231 
G01 X46.6201 Y-13.5128 
G01 X46.7498 Y-13.4261 
G01 X46.8940 Y-13.3664 
G01 X47.0470 Y-13.3360 
G01 X47.2030 Y-13.3360 
G01 X47.3560 Y-13.3664 
G01 X47.5001 Y-13.4261 
G01 X47.6299 Y-13.5128 
G01 X47.7402 Y-13.6231 
G01 X47.8269 Y-13.7528 
G01 X47.8866 Y-13.8970 
G01 X47.9170 Y-14.0500 
G01 X47.9170 Y-15.7300 
G01 X47.8866 Y-15.8830 
G01 X47.8269 Y-16.0271 
G01 X47.7402 Y-16.1569 
G01 X47.6299 Y-16.2672 
G01 X47.5001 Y-16.3539 
G01 X47.3560 Y-16.4136 
G01 X47.2030 Y-16.4440 
G01 X47.0470 Y-16.4440 
G01 X46.8940 Y-16.4136 
G01 X46.7498 Y-16.3539 
G01 X46.6201 Y-16.2672 
G01 X46.5098 Y-16.1569 
G01 X46.4231 Y-16.0271 
G01 X46.3634 Y-15.8830 
G01 X46.3330 Y-15.7300 
G01 X46.3330 Y-14.0500 
G00 Z2.5400 
G00 X53.8498 Y-14.6366 
G01 Z-0.1778 F254.00 
G01 X54.0170 Y-14.5250 F508.00 
G01 X54.2027 Y-14.4480 
G01 X54.3999 Y-14.4088 
G01 X54.6009 Y-14.4088 
G01 X54.7981 Y-14.4480 
G01 X54.9838 Y-14.5250 
G01 X55.1510 Y-14.6366 
G01 X55.2931 Y-14.7788 
G01 X55.4048 Y-14.9460 
G01 X55.4818 Y-15.1317 
G01 X55.5210 Y-15.3289 
G01 X55.5210 Y-17.5111 
G01 X55.4818 Y-17.7083 
G01 X55.4048 Y-17.8940 
G01 X55.2931 Y-18.0612 
G01 X55.1510 Y-18.2034 
G01 X54.9838 Y-18.3150 
G01 X54.7981 Y-18.3920 
G01 X54.6009 Y-18.4312 
G01 X54.3999 Y-18.4312 
G01 X54.2027 Y-18.3920 
G01 X54.0170 Y-18.3150 
G01 X53.8498 Y-18.2034 
G01 X53.7076 Y-18.0612 
G01 X53.5960 Y-17.8940 
G01 X53.5190 Y-17.7083 
G01 X53.4798 Y-17.5111 
G01 X53.4798 Y-15.3289 
G01 X53.5190 Y-15.1317 
G01 X53.5960 Y-14.9460 
G01 X53.7076 Y-14.7788 
G01 X53.8498 Y-14.6366 
G00 Z2.5400 
G00 X58.8790 Y-14.6366 
G01 Z-0.1778 F254.00 
G01 X59.0462 Y-14.5250 F508.00 
G01 X59.2319 Y-14.4480 
G01 X59.4291 Y-14.4088 
G01 X59.6301 Y-14.4088 
G01 X59.8273 Y-14.4480 
G01 X60.0130 Y-14.5250 
G01 X60.1802 Y-14.6366 
G01 X60.3224 Y-14.7788 
G01 X60.4340 Y-14.9460 
G01 X60.5110 Y-15.1317 
G01 X60.5502 Y-15.3289 
G01 X60.5502 Y-17.5111 
G01 X60.5110 Y-17.7083 
G01 X60.4340 Y-17.8940 
G01 X60.3224 Y-18.0612 
G01 X60.1802 Y-18.2034 
G01 X60.0130 Y-18.3150 
G01 X59.8273 Y-18.3920 
G01 X59.6301 Y-18.4312 
G01 X59.4291 Y-18.4312 
G01 X59.2319 Y-18.3920 
G01 X59.0462 Y-18.3150 
G01 X58.8790 Y-18.2034 
G01 X58.7368 Y-18.0612 
G01 X58.6252 Y-17.8940 
G01 X58.5482 Y-17.7083 
G01 X58.5090 Y-17.5111 
G01 X58.5090 Y-15.3289 
G01 X58.5482 Y-15.1317 
G01 X58.6252 Y-14.9460 
G01 X58.7368 Y-14.7788 
G01 X58.8790 Y-14.6366 
G00 Z2.5400 
G00 X71.4648 Y-13.9089 
G01 Z-0.1778 F254.00 
G01 X71.5040 Y-13.7117 F508.00 
G01 X71.5810 Y-13.5260 
G01 X71.6926 Y-13.3588 
G01 X71.8204 Y-13.2310 
G01 X71.8204 Y-6.7689 
G01 X71.6926 Y-6.6412 
G01 X71.5810 Y-6.4740 
G01 X71.5040 Y-6.2883 
G01 X71.4648 Y-6.0911 
G01 X71.4648 Y-3.9089 
G01 X71.5040 Y-3.7117 
G01 X71.5810 Y-3.5260 
G01 X71.6926 Y-3.3588 
G01 X71.8348 Y-3.2166 
G01 X72.0020 Y-3.1050 
G01 X72.1877 Y-3.0280 
G01 X72.3849 Y-2.9888 
G01 X72.5859 Y-2.9888 
G01 X72.6652 Y-3.0046 
G01 X72.6652 Y-1.9559 
G01 X72.6880 Y-1.8708 
G01 X72.7321 Y-1.7944 
G01 X72.7944 Y-1.7321 
G01 X72.8708 Y-1.6880 
G01 X72.9559 Y-1.6652 
G01 X82.6652 Y-1.6652 
G01 X82.6652 Y0.0441 
G01 X82.6880 Y0.1292 
G01 X82.7321 Y0.2056 
G01 X82.7944 Y0.2679 
G01 X82.8708 Y0.3120 
G01 X82.9559 Y0.3348 
G01 X85.3999 Y0.3348 
G01 X85.5260 Y0.4190 
G01 X85.7117 Y0.4960 
G01 X85.9089 Y0.5352 
G01 X88.0911 Y0.5352 
G01 X88.2883 Y0.4960 
G01 X88.4740 Y0.4190 
G01 X88.6412 Y0.3074 
G01 X88.7833 Y0.1652 
G01 X88.8950 Y-0.0020 
G01 X88.9720 Y-0.1877 
G01 X89.0112 Y-0.3849 
G01 X89.0112 Y-0.5859 
G01 X88.9720 Y-0.7831 
G01 X88.8950 Y-0.9688 
G01 X88.7833 Y-1.1360 
G01 X88.6412 Y-1.2781 
G01 X88.4740 Y-1.3898 
G01 X88.2883 Y-1.4668 
G01 X88.0911 Y-1.5060 
G01 X85.9089 Y-1.5060 
G01 X85.7117 Y-1.4668 
G01 X85.5260 Y-1.3898 
G01 X85.3588 Y-1.2781 
G01 X85.2166 Y-1.1360 
G01 X85.1050 Y-0.9688 
G01 X85.0280 Y-0.7831 
G01 X84.9888 Y-0.5859 
G01 X84.9888 Y-0.3849 
G01 X84.9988 Y-0.3348 
G01 X83.3348 Y-0.3348 
G01 X83.3348 Y-2.0441 
G01 X83.3120 Y-2.1292 
G01 X83.2679 Y-2.2056 
G01 X83.2056 Y-2.2679 
G01 X83.1292 Y-2.3120 
G01 X83.0441 Y-2.3348 
G01 X73.3348 Y-2.3348 
G01 X73.3348 Y-3.4436 
G01 X73.3898 Y-3.5260 
G01 X73.4668 Y-3.7117 
G01 X73.5060 Y-3.9089 
G01 X73.5060 Y-6.0911 
G01 X73.4668 Y-6.2883 
G01 X73.3898 Y-6.4740 
G01 X73.2781 Y-6.6412 
G01 X73.1504 Y-6.7689 
G01 X73.1504 Y-13.2310 
G01 X73.2781 Y-13.3588 
G01 X73.3898 Y-13.5260 
G01 X73.4668 Y-13.7117 
G01 X73.5060 Y-13.9089 
G01 X73.5060 Y-16.0911 
G01 X73.4668 Y-16.2883 
G01 X73.3898 Y-16.4740 
G01 X73.2781 Y-16.6412 
G01 X73.1360 Y-16.7833 
G01 X72.9688 Y-16.8950 
G01 X72.7831 Y-16.9720 
G01 X72.5859 Y-17.0112 
G01 X72.3849 Y-17.0112 
G01 X72.1877 Y-16.9720 
G01 X72.0020 Y-16.8950 
G01 X71.8348 Y-16.7833 
G01 X71.6926 Y-16.6412 
G01 X71.5810 Y-16.4740 
G01 X71.5040 Y-16.2883 
G01 X71.4648 Y-16.0911 
G01 X71.4648 Y-13.9089 
G00 Z2.5400 
G00 X76.4940 Y-13.9089 
G01 Z-0.1778 F254.00 
G01 X76.5332 Y-13.7117 F508.00 
G01 X76.6102 Y-13.5260 
G01 X76.7218 Y-13.3588 
G01 X76.8640 Y-13.2166 
G01 X77.0312 Y-13.1050 
G01 X77.2169 Y-13.0280 
G01 X77.4141 Y-12.9888 
G01 X77.6151 Y-12.9888 
G01 X77.8123 Y-13.0280 
G01 X77.9980 Y-13.1050 
G01 X78.1652 Y-13.2166 
G01 X78.3073 Y-13.3588 
G01 X78.4190 Y-13.5260 
G01 X78.4960 Y-13.7117 
G01 X78.5352 Y-13.9089 
G01 X78.5352 Y-15.9850 
G01 X83.5918 Y-15.9850 
G01 X83.5918 Y-15.7263 
G01 X83.6252 Y-15.5586 
G01 X83.6906 Y-15.4006 
G01 X83.7856 Y-15.2584 
G01 X83.9066 Y-15.1374 
G01 X84.0487 Y-15.0424 
G01 X84.2068 Y-14.9770 
G01 X84.3745 Y-14.9436 
G01 X84.5455 Y-14.9436 
G01 X84.7132 Y-14.9770 
G01 X84.8712 Y-15.0424 
G01 X85.0134 Y-15.1374 
G01 X85.1344 Y-15.2584 
G01 X85.2294 Y-15.4006 
G01 X85.2948 Y-15.5586 
G01 X85.3282 Y-15.7263 
G01 X85.3282 Y-17.5737 
G01 X85.2948 Y-17.7414 
G01 X85.2294 Y-17.8994 
G01 X85.1344 Y-18.0416 
G01 X85.0134 Y-18.1626 
G01 X84.8712 Y-18.2576 
G01 X84.7132 Y-18.3230 
G01 X84.5455 Y-18.3564 
G01 X84.3745 Y-18.3564 
G01 X84.2068 Y-18.3230 
G01 X84.0487 Y-18.2576 
G01 X83.9066 Y-18.1626 
G01 X83.7856 Y-18.0416 
G01 X83.6906 Y-17.8994 
G01 X83.6252 Y-17.7414 
G01 X83.5918 Y-17.5737 
G01 X83.5918 Y-17.3150 
G01 X77.4491 Y-17.3150 
G01 X77.3206 Y-17.2894 
G01 X77.1996 Y-17.2393 
G01 X77.0907 Y-17.1665 
G01 X76.9981 Y-17.0739 
G01 X76.9253 Y-16.9650 
G01 X76.8752 Y-16.8440 
G01 X76.8629 Y-16.7822 
G01 X76.7218 Y-16.6412 
G01 X76.6102 Y-16.4740 
G01 X76.5332 Y-16.2883 
G01 X76.4940 Y-16.0911 
G01 X76.4940 Y-13.9089 
G00 Z2.5400 
G00 X77.4835 Y-11.4239 
G01 Z-0.1778 F254.00 
G01 X77.4107 Y-11.3150 F508.00 
G01 X77.3606 Y-11.1940 
G01 X77.3350 Y-11.0655 
G01 X77.3350 Y-6.9955 
G01 X77.2169 Y-6.9720 
G01 X77.0312 Y-6.8950 
G01 X76.8640 Y-6.7834 
G01 X76.7218 Y-6.6412 
G01 X76.6102 Y-6.4740 
G01 X76.5332 Y-6.2883 
G01 X76.4940 Y-6.0911 
G01 X76.4940 Y-3.9089 
G01 X76.5332 Y-3.7117 
G01 X76.6102 Y-3.5260 
G01 X76.7218 Y-3.3588 
G01 X76.8640 Y-3.2166 
G01 X77.0312 Y-3.1050 
G01 X77.2169 Y-3.0280 
G01 X77.4141 Y-2.9888 
G01 X77.6151 Y-2.9888 
G01 X77.8123 Y-3.0280 
G01 X77.9980 Y-3.1050 
G01 X78.1652 Y-3.2166 
G01 X78.3073 Y-3.3588 
G01 X78.4190 Y-3.5260 
G01 X78.4960 Y-3.7117 
G01 X78.5352 Y-3.9089 
G01 X78.5352 Y-4.6040 
G01 X78.5893 Y-4.6850 
G01 X78.6394 Y-4.8060 
G01 X78.6650 Y-4.9345 
G01 X78.6650 Y-10.3350 
G01 X81.0655 Y-10.3350 
G01 X81.1940 Y-10.3606 
G01 X81.3150 Y-10.4107 
G01 X81.4239 Y-10.4835 
G01 X81.5165 Y-10.5761 
G01 X81.5893 Y-10.6850 
G01 X81.6394 Y-10.8060 
G01 X81.6650 Y-10.9345 
G01 X81.6650 Y-12.3350 
G01 X87.0655 Y-12.3350 
G01 X87.1940 Y-12.3606 
G01 X87.3150 Y-12.4107 
G01 X87.4239 Y-12.4835 
G01 X87.5165 Y-12.5761 
G01 X87.5893 Y-12.6850 
G01 X87.6394 Y-12.8060 
G01 X87.6650 Y-12.9345 
G01 X87.6650 Y-15.2490 
G01 X87.6744 Y-15.2584 
G01 X87.7694 Y-15.4006 
G01 X87.8348 Y-15.5586 
G01 X87.8682 Y-15.7263 
G01 X87.8682 Y-17.5737 
G01 X87.8348 Y-17.7414 
G01 X87.7694 Y-17.8994 
G01 X87.6744 Y-18.0416 
G01 X87.5534 Y-18.1626 
G01 X87.4112 Y-18.2576 
G01 X87.2532 Y-18.3230 
G01 X87.0855 Y-18.3564 
G01 X86.9145 Y-18.3564 
G01 X86.7468 Y-18.3230 
G01 X86.5888 Y-18.2576 
G01 X86.4466 Y-18.1626 
G01 X86.3256 Y-18.0416 
G01 X86.2306 Y-17.8994 
G01 X86.1652 Y-17.7414 
G01 X86.1318 Y-17.5737 
G01 X86.1318 Y-15.7263 
G01 X86.1652 Y-15.5586 
G01 X86.2306 Y-15.4006 
G01 X86.3256 Y-15.2584 
G01 X86.3350 Y-15.2490 
G01 X86.3350 Y-13.6650 
G01 X80.9345 Y-13.6650 
G01 X80.8060 Y-13.6394 
G01 X80.6850 Y-13.5893 
G01 X80.5761 Y-13.5165 
G01 X80.4835 Y-13.4239 
G01 X80.4107 Y-13.3150 
G01 X80.3606 Y-13.1940 
G01 X80.3350 Y-13.0655 
G01 X80.3350 Y-11.6650 
G01 X77.9345 Y-11.6650 
G01 X77.8060 Y-11.6394 
G01 X77.6850 Y-11.5893 
G01 X77.5761 Y-11.5165 
G01 X77.4835 Y-11.4239 
G00 Z2.5400 
G00 X82.4996 Y-11.2860 
G01 Z-0.1778 F254.00 
G01 X82.4996 Y-10.7140 F508.00 
G01 X82.8552 Y-10.3584 
G01 X82.8552 Y-5.4705 
G01 X82.8780 Y-5.3854 
G01 X82.9221 Y-5.3090 
G01 X82.9844 Y-5.2467 
G01 X83.0608 Y-5.2026 
G01 X83.1459 Y-5.1798 
G01 X85.0434 Y-5.1798 
G01 X85.1050 Y-5.0312 
G01 X85.2166 Y-4.8640 
G01 X85.3588 Y-4.7218 
G01 X85.5260 Y-4.6102 
G01 X85.7117 Y-4.5332 
G01 X85.9089 Y-4.4940 
G01 X88.0911 Y-4.4940 
G01 X88.2883 Y-4.5332 
G01 X88.4740 Y-4.6102 
G01 X88.6412 Y-4.7218 
G01 X88.7833 Y-4.8640 
G01 X88.8950 Y-5.0312 
G01 X88.9720 Y-5.2169 
G01 X89.0112 Y-5.4141 
G01 X89.0112 Y-5.6151 
G01 X88.9720 Y-5.8123 
G01 X88.8950 Y-5.9980 
G01 X88.7833 Y-6.1652 
G01 X88.6412 Y-6.3073 
G01 X88.4740 Y-6.4190 
G01 X88.2883 Y-6.4960 
G01 X88.0911 Y-6.5352 
G01 X85.9089 Y-6.5352 
G01 X85.7117 Y-6.4960 
G01 X85.5260 Y-6.4190 
G01 X85.3588 Y-6.3073 
G01 X85.2166 Y-6.1652 
G01 X85.1050 Y-5.9980 
G01 X85.0434 Y-5.8494 
G01 X83.5248 Y-5.8494 
G01 X83.5248 Y-10.3584 
G01 X83.8804 Y-10.7140 
G01 X83.8804 Y-11.2860 
G01 X83.4760 Y-11.6904 
G01 X82.9040 Y-11.6904 
G01 X82.4996 Y-11.2860 
G00 Z2.5400 
G00 X89.2052 Y-10.9559 
G01 Z-0.1778 F254.00 
G01 X89.2280 Y-10.8708 F508.00 
G01 X89.2721 Y-10.7944 
G01 X89.3344 Y-10.7321 
G01 X89.4108 Y-10.6880 
G01 X89.4959 Y-10.6652 
G01 X90.1684 Y-10.6652 
G01 X90.5240 Y-10.3096 
G01 X91.0960 Y-10.3096 
G01 X91.5004 Y-10.7140 
G01 X91.5004 Y-11.2860 
G01 X91.0960 Y-11.6904 
G01 X90.5240 Y-11.6904 
G01 X90.1684 Y-11.3348 
G01 X89.8748 Y-11.3348 
G01 X89.8748 Y-15.0107 
G01 X89.9512 Y-15.0424 
G01 X90.0934 Y-15.1374 
G01 X90.2144 Y-15.2584 
G01 X90.3094 Y-15.4006 
G01 X90.3748 Y-15.5586 
G01 X90.4082 Y-15.7263 
G01 X90.4082 Y-17.5737 
G01 X90.3748 Y-17.7414 
G01 X90.3094 Y-17.8994 
G01 X90.2144 Y-18.0416 
G01 X90.0934 Y-18.1626 
G01 X89.9512 Y-18.2576 
G01 X89.7932 Y-18.3230 
G01 X89.6255 Y-18.3564 
G01 X89.4545 Y-18.3564 
G01 X89.2868 Y-18.3230 
G01 X89.1287 Y-18.2576 
G01 X88.9866 Y-18.1626 
G01 X88.8656 Y-18.0416 
G01 X88.7706 Y-17.8994 
G01 X88.7052 Y-17.7414 
G01 X88.6718 Y-17.5737 
G01 X88.6718 Y-15.7263 
G01 X88.7052 Y-15.5586 
G01 X88.7706 Y-15.4006 
G01 X88.8656 Y-15.2584 
G01 X88.9866 Y-15.1374 
G01 X89.1287 Y-15.0424 
G01 X89.2052 Y-15.0107 
G01 X89.2052 Y-10.9559 
G00 Z2.5400 
G00 X93.0655 Y4.8350 
G01 Z-0.1778 F254.00 
G01 X80.0486 Y4.8350 F508.00 
G01 X79.4159 Y4.8186 
G01 X79.3618 Y4.7961 
G01 X79.2284 Y4.7696 
G01 X77.7716 Y4.7696 
G01 X77.6382 Y4.7961 
G01 X77.5444 Y4.8350 
G01 X72.4556 Y4.8350 
G01 X72.3618 Y4.7961 
G01 X72.2284 Y4.7696 
G01 X70.7716 Y4.7696 
G01 X70.6382 Y4.7961 
G01 X70.5126 Y4.8482 
G01 X70.3995 Y4.9237 
G01 X70.3033 Y5.0199 
G01 X70.2278 Y5.1330 
G01 X70.1757 Y5.2586 
G01 X70.1492 Y5.3920 
G01 X70.1492 Y5.5280 
G01 X70.1757 Y5.6614 
G01 X70.2278 Y5.7870 
G01 X70.3033 Y5.9001 
G01 X70.3995 Y5.9963 
G01 X70.5126 Y6.0718 
G01 X70.6382 Y6.1239 
G01 X70.7716 Y6.1504 
G01 X70.8089 Y6.1504 
G01 X70.8138 Y6.1520 
G01 X70.8544 Y6.1570 
G01 X70.8945 Y6.1650 
G01 X70.9192 Y6.1650 
G01 X70.9438 Y6.1680 
G01 X70.9846 Y6.1650 
G01 X80.0314 Y6.1650 
G01 X80.0882 Y6.1665 
G01 X80.0968 Y6.1650 
G01 X92.3350 Y6.1650 
G01 X92.3350 Y23.3350 
G01 X91.4345 Y23.3350 
G01 X91.3060 Y23.3606 
G01 X91.1850 Y23.4107 
G01 X91.0761 Y23.4835 
G01 X90.9835 Y23.5761 
G01 X90.9107 Y23.6850 
G01 X90.8606 Y23.8060 
G01 X90.8350 Y23.9345 
G01 X90.8350 Y28.8350 
G01 X85.3650 Y28.8350 
G01 X85.3650 Y24.9345 
G01 X85.3394 Y24.8060 
G01 X85.2893 Y24.6850 
G01 X85.2165 Y24.5761 
G01 X85.1239 Y24.4835 
G01 X85.0150 Y24.4107 
G01 X84.8940 Y24.3606 
G01 X84.7655 Y24.3350 
G01 X82.0461 Y24.3350 
G01 X81.9184 Y24.3096 
G01 X80.4616 Y24.3096 
G01 X80.3282 Y24.3361 
G01 X80.2026 Y24.3882 
G01 X80.0895 Y24.4637 
G01 X79.9933 Y24.5599 
G01 X79.9178 Y24.6730 
G01 X79.8657 Y24.7986 
G01 X79.8392 Y24.9320 
G01 X79.8392 Y25.0680 
G01 X79.8657 Y25.2014 
G01 X79.9178 Y25.3270 
G01 X79.9933 Y25.4401 
G01 X80.0895 Y25.5363 
G01 X80.2026 Y25.6118 
G01 X80.3282 Y25.6639 
G01 X80.4616 Y25.6904 
G01 X80.5250 Y25.6904 
G01 X80.5250 Y26.8096 
G01 X80.4616 Y26.8096 
G01 X80.3282 Y26.8361 
G01 X80.2026 Y26.8882 
G01 X80.0895 Y26.9637 
G01 X79.9933 Y27.0599 
G01 X79.9178 Y27.1730 
G01 X79.8657 Y27.2986 
G01 X79.8392 Y27.4320 
G01 X79.8392 Y27.5680 
G01 X79.8657 Y27.7014 
G01 X79.9178 Y27.8270 
G01 X79.9933 Y27.9401 
G01 X80.0895 Y28.0363 
G01 X80.2026 Y28.1118 
G01 X80.3282 Y28.1639 
G01 X80.4616 Y28.1904 
G01 X80.5250 Y28.1904 
G01 X80.5250 Y29.5655 
G01 X80.5506 Y29.6940 
G01 X80.6007 Y29.8150 
G01 X80.6735 Y29.9239 
G01 X80.7661 Y30.0165 
G01 X80.8750 Y30.0893 
G01 X80.9960 Y30.1394 
G01 X81.1245 Y30.1650 
G01 X82.3350 Y30.1650 
G01 X82.3350 Y32.5655 
G01 X82.3606 Y32.6940 
G01 X82.4107 Y32.8150 
G01 X82.4835 Y32.9239 
G01 X82.5761 Y33.0165 
G01 X82.6850 Y33.0893 
G01 X82.8060 Y33.1394 
G01 X82.9345 Y33.1650 
G01 X83.9940 Y33.1650 
G01 X83.9940 Y33.5911 
G01 X84.0332 Y33.7883 
G01 X84.1102 Y33.9740 
G01 X84.2218 Y34.1412 
G01 X84.3640 Y34.2833 
G01 X84.5312 Y34.3950 
G01 X84.7169 Y34.4720 
G01 X84.9141 Y34.5112 
G01 X85.1151 Y34.5112 
G01 X85.3123 Y34.4720 
G01 X85.4980 Y34.3950 
G01 X85.6652 Y34.2833 
G01 X85.8073 Y34.1412 
G01 X85.9190 Y33.9740 
G01 X85.9960 Y33.7883 
G01 X86.0352 Y33.5911 
G01 X86.0352 Y31.4089 
G01 X85.9960 Y31.2117 
G01 X85.9190 Y31.0260 
G01 X85.8073 Y30.8588 
G01 X85.6652 Y30.7166 
G01 X85.4980 Y30.6050 
G01 X85.3123 Y30.5280 
G01 X85.1151 Y30.4888 
G01 X84.9141 Y30.4888 
G01 X84.7169 Y30.5280 
G01 X84.5312 Y30.6050 
G01 X84.3640 Y30.7166 
G01 X84.2218 Y30.8588 
G01 X84.1102 Y31.0260 
G01 X84.0332 Y31.2117 
G01 X83.9940 Y31.4089 
G01 X83.9940 Y31.8350 
G01 X83.6650 Y31.8350 
G01 X83.6650 Y29.4345 
G01 X83.6394 Y29.3060 
G01 X83.5893 Y29.1850 
G01 X83.5165 Y29.0761 
G01 X83.4239 Y28.9835 
G01 X83.3150 Y28.9107 
G01 X83.1940 Y28.8606 
G01 X83.0655 Y28.8350 
G01 X81.8550 Y28.8350 
G01 X81.8550 Y28.1904 
G01 X81.9184 Y28.1904 
G01 X82.0518 Y28.1639 
G01 X82.1774 Y28.1118 
G01 X82.2905 Y28.0363 
G01 X82.3867 Y27.9401 
G01 X82.4622 Y27.8270 
G01 X82.5143 Y27.7014 
G01 X82.5408 Y27.5680 
G01 X82.5408 Y27.4320 
G01 X82.5143 Y27.2986 
G01 X82.4622 Y27.1730 
G01 X82.3867 Y27.0599 
G01 X82.2905 Y26.9637 
G01 X82.1774 Y26.8882 
G01 X82.0518 Y26.8361 
G01 X81.9184 Y26.8096 
G01 X81.8550 Y26.8096 
G01 X81.8550 Y25.6904 
G01 X81.9184 Y25.6904 
G01 X82.0461 Y25.6650 
G01 X84.0350 Y25.6650 
G01 X84.0350 Y29.5655 
G01 X84.0606 Y29.6940 
G01 X84.1107 Y29.8150 
G01 X84.1835 Y29.9239 
G01 X84.2761 Y30.0165 
G01 X84.3850 Y30.0893 
G01 X84.5060 Y30.1394 
G01 X84.6345 Y30.1650 
G01 X91.5655 Y30.1650 
G01 X91.6940 Y30.1394 
G01 X91.8150 Y30.0893 
G01 X91.9239 Y30.0165 
G01 X92.0165 Y29.9239 
G01 X92.0893 Y29.8150 
G01 X92.1394 Y29.6940 
G01 X92.1650 Y29.5655 
G01 X92.1650 Y24.6650 
G01 X93.0655 Y24.6650 
G01 X93.1940 Y24.6394 
G01 X93.3150 Y24.5893 
G01 X93.4239 Y24.5165 
G01 X93.5165 Y24.4239 
G01 X93.5893 Y24.3150 
G01 X93.6394 Y24.1940 
G01 X93.6650 Y24.0655 
G01 X93.6650 Y5.4345 
G01 X93.6394 Y5.3060 
G01 X93.5893 Y5.1850 
G01 X93.5165 Y5.0761 
G01 X93.4239 Y4.9835 
G01 X93.3150 Y4.9107 
G01 X93.1940 Y4.8606 
G01 X93.0655 Y4.8350 
G00 Z2.5400 
G00 X89.9385 Y10.0235 
G01 Z-0.1778 F254.00 
G01 X89.8296 Y9.9507 F508.00 
G01 X89.7086 Y9.9006 
G01 X89.5801 Y9.8750 
G01 X79.3561 Y9.8750 
G01 X79.2284 Y9.8496 
G01 X77.7716 Y9.8496 
G01 X77.6382 Y9.8761 
G01 X77.5126 Y9.9282 
G01 X77.3995 Y10.0037 
G01 X77.3033 Y10.0999 
G01 X77.2278 Y10.2130 
G01 X77.1757 Y10.3386 
G01 X77.1492 Y10.4720 
G01 X77.1492 Y10.6080 
G01 X77.1757 Y10.7414 
G01 X77.2278 Y10.8670 
G01 X77.3033 Y10.9801 
G01 X77.3995 Y11.0763 
G01 X77.5126 Y11.1518 
G01 X77.6382 Y11.2039 
G01 X77.7716 Y11.2304 
G01 X79.2284 Y11.2304 
G01 X79.3561 Y11.2050 
G01 X88.8496 Y11.2050 
G01 X88.8496 Y11.7311 
G01 X88.7218 Y11.8588 
G01 X88.6102 Y12.0260 
G01 X88.5332 Y12.2117 
G01 X88.4940 Y12.4089 
G01 X88.4940 Y14.5911 
G01 X88.5332 Y14.7883 
G01 X88.6102 Y14.9740 
G01 X88.7218 Y15.1412 
G01 X88.8496 Y15.2689 
G01 X88.8496 Y15.5655 
G01 X88.8752 Y15.6940 
G01 X88.9253 Y15.8150 
G01 X88.9981 Y15.9239 
G01 X89.0907 Y16.0165 
G01 X89.1996 Y16.0893 
G01 X89.3206 Y16.1394 
G01 X89.4491 Y16.1650 
G01 X90.4350 Y16.1650 
G01 X90.4350 Y21.3350 
G01 X89.6661 Y21.3350 
G01 X89.5384 Y21.3096 
G01 X88.0816 Y21.3096 
G01 X87.9482 Y21.3361 
G01 X87.8226 Y21.3882 
G01 X87.7095 Y21.4637 
G01 X87.6133 Y21.5599 
G01 X87.5378 Y21.6730 
G01 X87.4857 Y21.7986 
G01 X87.4592 Y21.9320 
G01 X87.4592 Y22.0680 
G01 X87.4857 Y22.2014 
G01 X87.5378 Y22.3270 
G01 X87.6133 Y22.4401 
G01 X87.7095 Y22.5363 
G01 X87.8226 Y22.6118 
G01 X87.9482 Y22.6639 
G01 X88.0816 Y22.6904 
G01 X88.1450 Y22.6904 
G01 X88.1450 Y24.3096 
G01 X88.0816 Y24.3096 
G01 X87.9482 Y24.3361 
G01 X87.8226 Y24.3882 
G01 X87.7095 Y24.4637 
G01 X87.6133 Y24.5599 
G01 X87.5378 Y24.6730 
G01 X87.4857 Y24.7986 
G01 X87.4592 Y24.9320 
G01 X87.4592 Y25.0680 
G01 X87.4857 Y25.2014 
G01 X87.5378 Y25.3270 
G01 X87.6133 Y25.4401 
G01 X87.7095 Y25.5363 
G01 X87.8226 Y25.6118 
G01 X87.9482 Y25.6639 
G01 X88.0816 Y25.6904 
G01 X89.5384 Y25.6904 
G01 X89.6718 Y25.6639 
G01 X89.7974 Y25.6118 
G01 X89.9105 Y25.5363 
G01 X90.0067 Y25.4401 
G01 X90.0822 Y25.3270 
G01 X90.1343 Y25.2014 
G01 X90.1608 Y25.0680 
G01 X90.1608 Y24.9320 
G01 X90.1343 Y24.7986 
G01 X90.0822 Y24.6730 
G01 X90.0067 Y24.5599 
G01 X89.9105 Y24.4637 
G01 X89.7974 Y24.3882 
G01 X89.6718 Y24.3361 
G01 X89.5384 Y24.3096 
G01 X89.4750 Y24.3096 
G01 X89.4750 Y22.6904 
G01 X89.5384 Y22.6904 
G01 X89.6661 Y22.6650 
G01 X91.1655 Y22.6650 
G01 X91.2940 Y22.6394 
G01 X91.4150 Y22.5893 
G01 X91.5239 Y22.5165 
G01 X91.6165 Y22.4239 
G01 X91.6893 Y22.3150 
G01 X91.7394 Y22.1940 
G01 X91.7650 Y22.0655 
G01 X91.7650 Y15.4345 
G01 X91.7394 Y15.3060 
G01 X91.6893 Y15.1850 
G01 X91.6165 Y15.0761 
G01 X91.5239 Y14.9835 
G01 X91.4150 Y14.9107 
G01 X91.2940 Y14.8606 
G01 X91.1655 Y14.8350 
G01 X90.4766 Y14.8350 
G01 X90.4960 Y14.7883 
G01 X90.5352 Y14.5911 
G01 X90.5352 Y12.4089 
G01 X90.4960 Y12.2117 
G01 X90.4190 Y12.0260 
G01 X90.3073 Y11.8588 
G01 X90.1796 Y11.7311 
G01 X90.1796 Y10.4745 
G01 X90.1540 Y10.3460 
G01 X90.1039 Y10.2250 
G01 X90.0311 Y10.1161 
G01 X89.9385 Y10.0235 
G00 Z2.5400 
G00 X85.1360 Y11.7166 
G01 Z-0.1778 F254.00 
G01 X84.9688 Y11.6050 F508.00 
G01 X84.7831 Y11.5280 
G01 X84.5859 Y11.4888 
G01 X84.3849 Y11.4888 
G01 X84.1877 Y11.5280 
G01 X84.0020 Y11.6050 
G01 X83.8348 Y11.7166 
G01 X83.6926 Y11.8588 
G01 X83.5810 Y12.0260 
G01 X83.5040 Y12.2117 
G01 X83.4795 Y12.3350 
G01 X72.3131 Y12.3350 
G01 X72.2233 Y11.2304 
G01 X72.2284 Y11.2304 
G01 X72.3618 Y11.2039 
G01 X72.4874 Y11.1518 
G01 X72.6005 Y11.0763 
G01 X72.6967 Y10.9801 
G01 X72.7722 Y10.8670 
G01 X72.8243 Y10.7414 
G01 X72.8508 Y10.6080 
G01 X72.8508 Y10.4720 
G01 X72.8243 Y10.3386 
G01 X72.7722 Y10.2130 
G01 X72.6967 Y10.0999 
G01 X72.6005 Y10.0037 
G01 X72.4874 Y9.9282 
G01 X72.3618 Y9.8761 
G01 X72.2284 Y9.8496 
G01 X70.7716 Y9.8496 
G01 X70.6382 Y9.8761 
G01 X70.5126 Y9.9282 
G01 X70.3995 Y10.0037 
G01 X70.3033 Y10.0999 
G01 X70.2278 Y10.2130 
G01 X70.1757 Y10.3386 
G01 X70.1492 Y10.4720 
G01 X70.1492 Y10.6080 
G01 X70.1757 Y10.7414 
G01 X70.2278 Y10.8670 
G01 X70.3033 Y10.9801 
G01 X70.3995 Y11.0763 
G01 X70.5126 Y11.1518 
G01 X70.6382 Y11.2039 
G01 X70.7716 Y11.2304 
G01 X70.8461 Y11.2304 
G01 X70.8641 Y12.3350 
G01 X67.3945 Y12.3350 
G01 X67.2660 Y12.3606 
G01 X67.1450 Y12.4107 
G01 X67.0361 Y12.4835 
G01 X66.9435 Y12.5761 
G01 X66.8707 Y12.6850 
G01 X66.8206 Y12.8060 
G01 X66.7950 Y12.9345 
G01 X66.7950 Y14.9139 
G01 X66.7696 Y15.0416 
G01 X66.7696 Y16.4984 
G01 X66.7961 Y16.6318 
G01 X66.8482 Y16.7574 
G01 X66.9237 Y16.8705 
G01 X67.0199 Y16.9667 
G01 X67.1330 Y17.0422 
G01 X67.2586 Y17.0943 
G01 X67.3920 Y17.1208 
G01 X67.5280 Y17.1208 
G01 X67.6614 Y17.0943 
G01 X67.7870 Y17.0422 
G01 X67.9001 Y16.9667 
G01 X67.9963 Y16.8705 
G01 X68.0718 Y16.7574 
G01 X68.1239 Y16.6318 
G01 X68.1504 Y16.4984 
G01 X68.1504 Y15.0416 
G01 X68.1250 Y14.9139 
G01 X68.1250 Y13.6650 
G01 X71.4800 Y13.6650 
G01 X71.4853 Y13.6660 
G01 X71.5454 Y13.6650 
G01 X71.6616 Y13.6650 
G01 X71.6886 Y13.6681 
G01 X71.7270 Y13.6650 
G01 X83.4648 Y13.6650 
G01 X83.4648 Y14.5911 
G01 X83.5040 Y14.7883 
G01 X83.5810 Y14.9740 
G01 X83.6926 Y15.1412 
G01 X83.8204 Y15.2689 
G01 X83.8204 Y15.5655 
G01 X83.8460 Y15.6940 
G01 X83.8961 Y15.8150 
G01 X83.9689 Y15.9239 
G01 X84.0615 Y16.0165 
G01 X84.1704 Y16.0893 
G01 X84.2914 Y16.1394 
G01 X84.4199 Y16.1650 
G01 X85.8350 Y16.1650 
G01 X85.8350 Y27.5655 
G01 X85.8606 Y27.6940 
G01 X85.9107 Y27.8150 
G01 X85.9835 Y27.9239 
G01 X86.0761 Y28.0165 
G01 X86.1850 Y28.0893 
G01 X86.3060 Y28.1394 
G01 X86.4345 Y28.1650 
G01 X87.9539 Y28.1650 
G01 X88.0816 Y28.1904 
G01 X89.5384 Y28.1904 
G01 X89.6718 Y28.1639 
G01 X89.7974 Y28.1118 
G01 X89.9105 Y28.0363 
G01 X90.0067 Y27.9401 
G01 X90.0822 Y27.8270 
G01 X90.1343 Y27.7014 
G01 X90.1608 Y27.5680 
G01 X90.1608 Y27.4320 
G01 X90.1343 Y27.2986 
G01 X90.0822 Y27.1730 
G01 X90.0067 Y27.0599 
G01 X89.9105 Y26.9637 
G01 X89.7974 Y26.8882 
G01 X89.6718 Y26.8361 
G01 X89.5384 Y26.8096 
G01 X88.0816 Y26.8096 
G01 X87.9539 Y26.8350 
G01 X87.1650 Y26.8350 
G01 X87.1650 Y19.6650 
G01 X87.9539 Y19.6650 
G01 X88.0816 Y19.6904 
G01 X89.5384 Y19.6904 
G01 X89.6718 Y19.6639 
G01 X89.7974 Y19.6118 
G01 X89.9105 Y19.5363 
G01 X90.0067 Y19.4401 
G01 X90.0822 Y19.3270 
G01 X90.1343 Y19.2014 
G01 X90.1608 Y19.0680 
G01 X90.1608 Y18.9320 
G01 X90.1343 Y18.7986 
G01 X90.0822 Y18.6730 
G01 X90.0067 Y18.5599 
G01 X89.9105 Y18.4637 
G01 X89.7974 Y18.3882 
G01 X89.6718 Y18.3361 
G01 X89.5384 Y18.3096 
G01 X88.0816 Y18.3096 
G01 X87.9539 Y18.3350 
G01 X87.1650 Y18.3350 
G01 X87.1650 Y15.4345 
G01 X87.1394 Y15.3060 
G01 X87.0893 Y15.1850 
G01 X87.0165 Y15.0761 
G01 X86.9239 Y14.9835 
G01 X86.8150 Y14.9107 
G01 X86.6940 Y14.8606 
G01 X86.5655 Y14.8350 
G01 X85.4474 Y14.8350 
G01 X85.4668 Y14.7883 
G01 X85.5060 Y14.5911 
G01 X85.5060 Y12.4089 
G01 X85.4668 Y12.2117 
G01 X85.3898 Y12.0260 
G01 X85.2781 Y11.8588 
G01 X85.1360 Y11.7166 
G00 Z2.5400 
G00 X80.4801 Y14.5333 
G01 Z-0.1778 F254.00 
G01 X80.3670 Y14.4578 F508.00 
G01 X80.2414 Y14.4057 
G01 X80.1080 Y14.3792 
G01 X79.9720 Y14.3792 
G01 X79.8386 Y14.4057 
G01 X79.7130 Y14.4578 
G01 X79.5999 Y14.5333 
G01 X79.5037 Y14.6295 
G01 X79.4282 Y14.7426 
G01 X79.3761 Y14.8682 
G01 X79.3496 Y15.0016 
G01 X79.3496 Y16.4584 
G01 X79.3761 Y16.5918 
G01 X79.4282 Y16.7174 
G01 X79.5037 Y16.8305 
G01 X79.5999 Y16.9267 
G01 X79.7130 Y17.0022 
G01 X79.8386 Y17.0543 
G01 X79.9720 Y17.0808 
G01 X80.1080 Y17.0808 
G01 X80.2414 Y17.0543 
G01 X80.3670 Y17.0022 
G01 X80.4801 Y16.9267 
G01 X80.5763 Y16.8305 
G01 X80.6518 Y16.7174 
G01 X80.7039 Y16.5918 
G01 X80.7304 Y16.4584 
G01 X80.7304 Y15.0016 
G01 X80.7039 Y14.8682 
G01 X80.6518 Y14.7426 
G01 X80.5763 Y14.6295 
G01 X80.4801 Y14.5333 
G00 Z2.5400 
G00 X77.9401 Y14.5333 
