(.../pcb-gcode-3.6.2.4/pcb-gcode.ulp)
(Copyright 2005 - 2012 by John Johnson)
(See readme.txt for licensing terms.)
(This file generated from the board:)
(.../Stm32f4/STM32_SHIELD/untitled.brd)
(Current profile is .../pcb-gcode-3.6.2.4/profiles/generic.pp  )
(This file generated 21.05.2017 21:11)
(Settings from pcb-machine.h)
(spindle on time = 3.0000)
(  Tool Size)
(0.0600 )
(spindle speed = 30000.0000)
(tool change at 0.0000 0.0000 25.4000 )
(feed rate xy = F508.00 )
(feed rate z  = F254.00 )
(Z Axis Settings)
(  High     Up        Down     Drill)
(12.7000 	2.5400 	-0.1778 	-0.8128 )
(Settings from pcb-defaults.h)
(isolate min = 0.0000)
(isolate max = 0.2000)
(isolate step = 0.0080)
(Generated top outlines, top drill, bottom outlines, bottom drill, )
(Unit of measure: mm)
(Metric Mode)
G21
(Absolute Coordinates)
G90
S30000
G00 Z12.7000 
G00 X0.0000 Y0.0000 
M03
G04 P3.000000
G00 Z2.5400 
G00 X1.0172 Y0.5749 
G01 Z-0.1778 F254.00 
G01 X0.9860 Y0.6502 F508.00 
G01 X0.9860 Y2.1618 
G01 X1.0172 Y2.2371 
G01 X1.0749 Y2.2948 
G01 X1.1099 Y2.3093 
G01 X1.0986 Y2.3663 
G01 X1.0858 Y2.4264 
G01 X1.0858 Y2.4305 
G01 X1.0850 Y2.4345 
G01 X1.0850 Y2.4960 
G01 X1.0847 Y2.5200 
G01 X1.0376 Y2.5200 
G01 X1.0200 Y2.5376 
G01 X1.0200 Y4.9624 
G01 X1.0376 Y4.9800 
G01 X1.5850 Y4.9800 
G01 X1.5850 Y5.1740 
G01 X1.1502 Y5.1740 
G01 X1.0749 Y5.2052 
G01 X1.0172 Y5.2629 
G01 X0.9860 Y5.3382 
G01 X0.9860 Y5.9118 
G01 X1.0172 Y5.9871 
G01 X1.0749 Y6.0448 
G01 X1.1502 Y6.0760 
G01 X1.5850 Y6.0760 
G01 X1.5850 Y6.2700 
G01 X1.0376 Y6.2700 
G01 X1.0200 Y6.2876 
G01 X1.0200 Y8.7124 
G01 X1.0376 Y8.7300 
G01 X1.0550 Y8.7300 
G01 X1.0550 Y8.9751 
G01 X1.0172 Y9.0129 
G01 X0.9860 Y9.0882 
G01 X0.9860 Y9.2618 
G01 X1.0172 Y9.3371 
G01 X1.0550 Y9.3749 
G01 X1.0550 Y10.5155 
G01 X1.0806 Y10.6440 
G01 X1.1307 Y10.7650 
G01 X1.1900 Y10.8538 
G01 X1.1900 Y11.2624 
G01 X1.2076 Y11.2800 
G01 X1.4400 Y11.2800 
G01 X1.4400 Y11.4740 
G01 X1.1502 Y11.4740 
G01 X1.0749 Y11.5052 
G01 X1.0172 Y11.5629 
G01 X0.9860 Y11.6382 
G01 X0.9860 Y14.2618 
G01 X1.0172 Y14.3371 
G01 X1.0749 Y14.3948 
G01 X1.1502 Y14.4260 
G01 X3.2268 Y14.4260 
G01 X3.3021 Y14.3948 
G01 X3.3598 Y14.3371 
G01 X3.3910 Y14.2618 
G01 X3.3910 Y9.3291 
G01 X3.4570 Y9.1698 
G01 X3.4570 Y9.0882 
G01 X3.4258 Y9.0129 
G01 X3.3681 Y8.9552 
G01 X3.2928 Y8.9240 
G01 X2.6300 Y8.9240 
G01 X2.6300 Y8.7300 
G01 X3.4624 Y8.7300 
G01 X3.4800 Y8.7124 
G01 X3.4800 Y6.2876 
G01 X3.4624 Y6.2700 
G01 X2.9150 Y6.2700 
G01 X2.9150 Y6.0760 
G01 X3.4795 Y6.0760 
G01 X3.5365 Y6.0913 
G01 X3.5601 Y6.1049 
G01 X3.5699 Y6.1147 
G01 X3.5951 Y6.1251 
G01 X3.6188 Y6.1388 
G01 X3.6325 Y6.1406 
G01 X3.6452 Y6.1459 
G01 X3.6726 Y6.1459 
G01 X3.6997 Y6.1495 
G01 X3.7130 Y6.1459 
G01 X3.7268 Y6.1459 
G01 X3.7520 Y6.1354 
G01 X3.7784 Y6.1284 
G01 X3.7894 Y6.1200 
G01 X3.8021 Y6.1147 
G01 X3.8214 Y6.0954 
G01 X3.8431 Y6.0787 
G01 X3.8500 Y6.0668 
G01 X3.8598 Y6.0570 
G01 X3.8702 Y6.0318 
G01 X3.8839 Y6.0081 
G01 X3.8857 Y5.9944 
G01 X3.8910 Y5.9817 
G01 X3.8910 Y5.9543 
G01 X3.8946 Y5.9272 
G01 X3.8910 Y5.9139 
G01 X3.8910 Y5.3361 
G01 X3.8946 Y5.3228 
G01 X3.8910 Y5.2957 
G01 X3.8910 Y5.2683 
G01 X3.8857 Y5.2556 
G01 X3.8839 Y5.2419 
G01 X3.8702 Y5.2182 
G01 X3.8598 Y5.1930 
G01 X3.8500 Y5.1832 
G01 X3.8431 Y5.1713 
G01 X3.8214 Y5.1546 
G01 X3.8021 Y5.1353 
G01 X3.7894 Y5.1300 
G01 X3.7784 Y5.1216 
G01 X3.7520 Y5.1146 
G01 X3.7268 Y5.1041 
G01 X3.7130 Y5.1041 
G01 X3.6997 Y5.1005 
G01 X3.6726 Y5.1041 
G01 X3.6452 Y5.1041 
G01 X3.6325 Y5.1094 
G01 X3.6188 Y5.1112 
G01 X3.5951 Y5.1249 
G01 X3.5699 Y5.1353 
G01 X3.5601 Y5.1451 
G01 X3.5365 Y5.1587 
G01 X3.4795 Y5.1740 
G01 X2.9150 Y5.1740 
G01 X2.9150 Y4.9800 
G01 X3.4624 Y4.9800 
G01 X3.4800 Y4.9624 
G01 X3.4800 Y2.5376 
G01 X3.4624 Y2.5200 
G01 X2.6704 Y2.5200 
G01 X2.8645 Y2.3260 
G01 X3.4795 Y2.3260 
G01 X3.5365 Y2.3413 
G01 X3.5875 Y2.3708 
G01 X3.6292 Y2.4125 
G01 X3.6587 Y2.4635 
G01 X3.6740 Y2.5205 
G01 X3.6740 Y3.1571 
G01 X3.7052 Y3.2324 
G01 X3.7629 Y3.2901 
G01 X3.8382 Y3.3213 
G01 X3.9198 Y3.3213 
G01 X3.9951 Y3.2901 
G01 X4.0528 Y3.2324 
G01 X4.2634 Y3.0218 
G01 X4.5791 Y2.8910 
G01 X5.6618 Y2.8910 
G01 X5.7371 Y2.8598 
G01 X5.7948 Y2.8021 
G01 X5.8260 Y2.7268 
G01 X5.8260 Y2.4572 
G01 X5.9572 Y2.3260 
G01 X8.5428 Y2.3260 
G01 X8.6740 Y2.4572 
G01 X8.6740 Y2.8933 
G01 X8.6703 Y2.9193 
G01 X8.6740 Y2.9338 
G01 X8.6740 Y2.9487 
G01 X8.6840 Y2.9729 
G01 X8.6905 Y2.9983 
G01 X8.6995 Y3.0102 
G01 X8.7052 Y3.0240 
G01 X8.7237 Y3.0426 
G01 X8.7395 Y3.0635 
G01 X8.7523 Y3.0711 
G01 X8.7629 Y3.0817 
G01 X8.7871 Y3.0917 
G01 X8.8096 Y3.1051 
G01 X8.8244 Y3.1072 
G01 X8.8382 Y3.1129 
G01 X8.8644 Y3.1129 
G01 X9.0512 Y3.1396 
G01 X9.0579 Y3.1429 
G01 X9.0913 Y3.1453 
G01 X9.1245 Y3.1501 
G01 X9.1318 Y3.1482 
G01 X9.2299 Y3.1552 
G01 X9.2520 Y3.1683 
G01 X9.2595 Y3.1693 
G01 X9.2662 Y3.1727 
G01 X9.2919 Y3.1745 
G01 X9.3766 Y3.2247 
G01 X9.3815 Y3.2303 
G01 X9.4114 Y3.2453 
G01 X9.4403 Y3.2624 
G01 X9.4477 Y3.2635 
G01 X10.1933 Y3.6363 
G01 X10.1986 Y3.6416 
G01 X10.2296 Y3.6544 
G01 X10.2596 Y3.6694 
G01 X10.2671 Y3.6699 
G01 X10.2740 Y3.6728 
G01 X10.3075 Y3.6728 
G01 X10.3409 Y3.6752 
G01 X10.3440 Y3.6741 
G01 X10.3902 Y3.7204 
G01 X10.4122 Y3.7457 
G01 X10.4189 Y3.7490 
G01 X10.4242 Y3.7544 
G01 X10.4551 Y3.7672 
G01 X10.5370 Y3.8081 
G01 X10.7609 Y4.0663 
G01 X10.7709 Y4.0962 
G01 X10.7758 Y4.1019 
G01 X10.7787 Y4.1088 
G01 X10.8023 Y4.1325 
G01 X10.8243 Y4.1578 
G01 X10.8272 Y4.1593 
G01 X10.8272 Y4.2247 
G01 X10.8248 Y4.2581 
G01 X10.8272 Y4.2652 
G01 X10.8272 Y4.2727 
G01 X10.8400 Y4.3037 
G01 X10.8689 Y4.3905 
G01 X10.8447 Y4.7313 
G01 X10.8306 Y4.7596 
G01 X10.8301 Y4.7671 
G01 X10.8272 Y4.7740 
G01 X10.8272 Y4.8075 
G01 X10.8248 Y4.8409 
G01 X10.8258 Y4.8440 
G01 X10.7796 Y4.8902 
G01 X10.7543 Y4.9122 
G01 X10.7509 Y4.9189 
G01 X10.7456 Y4.9242 
G01 X10.7328 Y4.9551 
G01 X10.6919 Y5.0370 
G01 X10.4337 Y5.2609 
G01 X10.4038 Y5.2709 
G01 X10.3981 Y5.2758 
G01 X10.3912 Y5.2787 
G01 X10.3675 Y5.3023 
G01 X10.3422 Y5.3243 
G01 X10.3407 Y5.3272 
G01 X10.2753 Y5.3272 
G01 X10.2419 Y5.3248 
G01 X10.2348 Y5.3272 
G01 X10.2273 Y5.3272 
G01 X10.1963 Y5.3400 
G01 X10.1095 Y5.3689 
G01 X9.7687 Y5.3447 
G01 X9.7404 Y5.3306 
G01 X9.7329 Y5.3301 
G01 X9.7260 Y5.3272 
G01 X9.6925 Y5.3272 
G01 X9.6591 Y5.3248 
G01 X9.6560 Y5.3258 
G01 X9.6098 Y5.2796 
G01 X9.5878 Y5.2543 
G01 X9.5811 Y5.2509 
G01 X9.5758 Y5.2456 
G01 X9.5448 Y5.2328 
G01 X8.9995 Y4.9601 
G01 X8.9942 Y4.9548 
G01 X8.9632 Y4.9420 
G01 X8.9333 Y4.9270 
G01 X8.9258 Y4.9265 
G01 X8.9188 Y4.9236 
G01 X8.8853 Y4.9236 
G01 X8.8519 Y4.9212 
G01 X8.8448 Y4.9236 
G01 X8.8373 Y4.9236 
G01 X8.8063 Y4.9364 
G01 X8.7746 Y4.9470 
G01 X8.7689 Y4.9520 
G01 X8.7619 Y4.9548 
G01 X8.7383 Y4.9785 
G01 X8.7129 Y5.0005 
G01 X8.7096 Y5.0072 
G01 X8.5428 Y5.1740 
G01 X5.9572 Y5.1740 
G01 X5.9301 Y5.1469 
G01 X5.8983 Y5.1337 
G01 X5.8548 Y5.1157 
G01 X5.7732 Y5.1157 
G01 X5.7184 Y5.1384 
G01 X5.6979 Y5.1469 
G01 X5.6402 Y5.2046 
G01 X5.6270 Y5.2364 
G01 X5.6090 Y5.2799 
G01 X5.6090 Y5.9701 
G01 X5.6275 Y6.0149 
G01 X5.6402 Y6.0454 
G01 X5.6979 Y6.1031 
G01 X5.7215 Y6.1129 
G01 X5.7732 Y6.1343 
G01 X5.8548 Y6.1343 
G01 X5.8995 Y6.1158 
G01 X5.9301 Y6.1031 
G01 X5.9572 Y6.0760 
G01 X8.5428 Y6.0760 
G01 X8.6740 Y6.2072 
G01 X8.6740 Y8.7851 
G01 X8.7052 Y8.8604 
G01 X8.7082 Y8.8634 
G01 X8.8390 Y9.1791 
G01 X8.8390 Y9.2618 
G01 X8.8702 Y9.3371 
G01 X8.9279 Y9.3948 
G01 X9.0032 Y9.4260 
G01 X9.1336 Y9.4260 
G01 X8.9535 Y9.6061 
G01 X8.8807 Y9.7150 
G01 X8.8306 Y9.8360 
G01 X8.8050 Y9.9645 
G01 X8.8050 Y10.5155 
G01 X8.8306 Y10.6440 
G01 X8.8807 Y10.7650 
G01 X8.9400 Y10.8538 
G01 X8.9400 Y11.2624 
G01 X8.9576 Y11.2800 
G01 X9.1900 Y11.2800 
G01 X9.1900 Y11.4740 
G01 X9.0032 Y11.4740 
G01 X8.9279 Y11.5052 
G01 X8.8702 Y11.5629 
G01 X8.8390 Y11.6382 
G01 X8.8390 Y12.2609 
G01 X8.8702 Y12.3362 
G01 X8.9279 Y12.3939 
G01 X9.2366 Y12.5218 
G01 X10.7669 Y14.0521 
G01 X10.8246 Y14.1098 
G01 X10.8999 Y14.1410 
G01 X11.6000 Y14.1410 
G01 X11.6754 Y14.1098 
G01 X13.9324 Y11.8528 
G01 X13.9901 Y11.7951 
G01 X14.0213 Y11.7198 
G01 X14.0213 Y11.6382 
G01 X13.9901 Y11.5629 
G01 X13.9324 Y11.5052 
G01 X13.8571 Y11.4740 
G01 X13.4372 Y11.4740 
G01 X13.3060 Y11.3428 
G01 X13.3060 Y11.0146 
G01 X13.3073 Y11.0113 
G01 X13.3060 Y10.9740 
G01 X13.3060 Y10.9367 
G01 X13.3046 Y10.9334 
G01 X13.3045 Y10.9298 
G01 X13.2890 Y10.8958 
G01 X13.2748 Y10.8613 
G01 X13.2722 Y10.8588 
G01 X13.1773 Y10.6499 
G01 X13.1657 Y10.3084 
G01 X13.2917 Y9.9723 
G01 X13.3060 Y9.9378 
G01 X13.3060 Y9.9342 
G01 X13.3073 Y9.9309 
G01 X13.3060 Y9.8936 
G01 X13.3060 Y9.5572 
G01 X13.4669 Y9.3964 
G01 X13.4706 Y9.3948 
G01 X13.4732 Y9.3922 
G01 X13.4765 Y9.3908 
G01 X13.5019 Y9.3635 
G01 X13.5283 Y9.3371 
G01 X13.5297 Y9.3338 
G01 X13.5321 Y9.3312 
G01 X13.5452 Y9.2963 
G01 X13.5595 Y9.2618 
G01 X13.5595 Y9.2582 
G01 X13.6594 Y8.9918 
G01 X13.6737 Y8.9536 
G01 X13.6875 Y8.9168 
G01 X13.8772 Y8.3883 
G01 X13.8910 Y8.3551 
G01 X13.8910 Y8.3501 
G01 X13.8927 Y8.3454 
G01 X13.8918 Y8.3271 
G01 X13.9331 Y8.2275 
G01 X13.9365 Y8.2238 
G01 X13.9486 Y8.1900 
G01 X13.9624 Y8.1568 
G01 X13.9624 Y8.1518 
G01 X13.9989 Y8.0503 
G01 X14.0119 Y8.0374 
G01 X14.0138 Y8.0328 
G01 X14.0171 Y8.0291 
G01 X14.0233 Y8.0119 
G01 X14.0996 Y7.9356 
G01 X14.1041 Y7.9335 
G01 X14.1283 Y7.9069 
G01 X14.1537 Y7.8815 
G01 X14.1556 Y7.8769 
G01 X14.2282 Y7.7971 
G01 X14.2451 Y7.7901 
G01 X14.2486 Y7.7866 
G01 X14.2531 Y7.7845 
G01 X14.2773 Y7.7579 
G01 X15.8634 Y6.1718 
G01 X16.1791 Y6.0410 
G01 X18.1618 Y6.0410 
G01 X18.2371 Y6.0098 
G01 X18.2948 Y5.9521 
G01 X18.3260 Y5.8768 
G01 X18.3260 Y5.3072 
G01 X18.4572 Y5.1760 
G01 X20.0428 Y5.1760 
G01 X20.1740 Y5.3072 
G01 X20.1740 Y5.9768 
G01 X20.2052 Y6.0521 
G01 X20.2629 Y6.1098 
G01 X20.3382 Y6.1410 
G01 X21.1709 Y6.1410 
G01 X21.2476 Y6.1728 
G01 X21.3426 Y6.1728 
G01 X21.4098 Y6.2400 
G01 X21.4851 Y6.2712 
G01 X21.7282 Y6.5134 
G01 X21.7600 Y6.5902 
G01 X21.8272 Y6.6574 
G01 X21.8272 Y6.7524 
G01 X21.8334 Y6.7672 
G01 X21.8584 Y6.8277 
G01 X21.8590 Y7.1709 
G01 X21.8272 Y7.2476 
G01 X21.8272 Y7.3426 
G01 X21.7600 Y7.4098 
G01 X21.7288 Y7.4851 
G01 X21.5324 Y7.6824 
G01 X21.4747 Y7.7401 
G01 X21.4435 Y7.8154 
G01 X21.4435 Y7.8970 
G01 X21.4747 Y7.9723 
G01 X21.5324 Y8.0300 
G01 X21.6077 Y8.0612 
G01 X22.6752 Y8.0612 
G01 X22.7549 Y8.0942 
G01 X22.8302 Y8.1254 
G01 X22.9118 Y8.1254 
G01 X22.9871 Y8.0942 
G01 X23.0448 Y8.0365 
G01 X23.0760 Y7.9612 
G01 X23.0760 Y6.1572 
G01 X23.2072 Y6.0260 
G01 X25.1546 Y6.0260 
G01 X25.2300 Y5.9948 
G01 X25.2877 Y5.9371 
G01 X25.3189 Y5.8618 
G01 X25.3189 Y5.7802 
G01 X25.1140 Y5.2856 
G01 X25.1140 Y4.7144 
G01 X25.3326 Y4.1866 
G01 X25.7366 Y3.7826 
G01 X26.2644 Y3.5640 
G01 X26.8356 Y3.5640 
G01 X27.3634 Y3.7826 
G01 X27.7674 Y4.1866 
G01 X27.9860 Y4.7144 
G01 X27.9860 Y5.2856 
G01 X27.7674 Y5.8134 
G01 X27.6759 Y5.9049 
G01 X27.6447 Y5.9802 
G01 X27.6447 Y6.0618 
G01 X27.6580 Y6.0939 
G01 X27.6759 Y6.1371 
G01 X27.7336 Y6.1948 
G01 X27.8089 Y6.2260 
G01 X29.6911 Y6.2260 
G01 X29.7664 Y6.1948 
G01 X29.8241 Y6.1371 
G01 X29.8427 Y6.0921 
G01 X29.8553 Y6.0618 
G01 X29.8553 Y5.9802 
G01 X29.8241 Y5.9049 
G01 X29.7326 Y5.8134 
G01 X29.5140 Y5.2856 
G01 X29.5140 Y4.7144 
G01 X29.7326 Y4.1866 
G01 X30.1366 Y3.7826 
G01 X30.6644 Y3.5640 
G01 X31.2356 Y3.5640 
G01 X31.7634 Y3.7826 
G01 X32.1674 Y4.1866 
G01 X32.3860 Y4.7144 
G01 X32.3860 Y5.2856 
G01 X32.1811 Y5.7802 
G01 X32.1811 Y5.8618 
G01 X32.2123 Y5.9371 
G01 X32.2700 Y5.9948 
G01 X32.3454 Y6.0260 
G01 X34.2928 Y6.0260 
G01 X34.4240 Y6.1572 
G01 X34.4240 Y9.6428 
G01 X34.2928 Y9.7740 
G01 X32.1072 Y9.7740 
G01 X31.9760 Y9.6428 
G01 X31.9760 Y6.3953 
G01 X31.9448 Y6.3200 
G01 X31.8871 Y6.2623 
G01 X31.8118 Y6.2311 
G01 X31.7302 Y6.2311 
G01 X31.2356 Y6.4360 
G01 X30.9882 Y6.4360 
G01 X30.9129 Y6.4672 
G01 X30.8552 Y6.5249 
G01 X30.8240 Y6.6002 
G01 X30.8240 Y7.7950 
G01 X30.6664 Y7.7950 
G01 X30.6300 Y7.7556 
G01 X30.6300 Y6.4376 
G01 X30.6124 Y6.4200 
G01 X30.0876 Y6.4200 
G01 X30.0700 Y6.4376 
G01 X30.0700 Y7.9337 
G01 X30.0672 Y7.9426 
G01 X30.0637 Y8.0307 
G01 X30.0700 Y8.0586 
G01 X30.0700 Y9.5624 
G01 X30.0876 Y9.5800 
G01 X30.1450 Y9.5800 
G01 X30.1450 Y9.8279 
G01 X30.1100 Y9.8629 
G01 X30.0788 Y9.9382 
G01 X30.0788 Y11.2552 
G01 X29.9983 Y11.4495 
G01 X29.8495 Y11.5983 
G01 X29.6552 Y11.6788 
G01 X22.1382 Y11.6788 
G01 X22.0629 Y11.7100 
G01 X22.0052 Y11.7677 
G01 X21.9740 Y11.8430 
G01 X21.9740 Y11.8928 
G01 X21.9659 Y11.9009 
G01 X21.9606 Y11.9136 
G01 X21.9522 Y11.9245 
G01 X21.9452 Y11.9510 
G01 X21.9347 Y11.9762 
G01 X21.9347 Y11.9900 
G01 X21.9311 Y12.0033 
G01 X21.9347 Y12.0304 
G01 X21.9347 Y12.0578 
G01 X21.9400 Y12.0705 
G01 X21.9418 Y12.0842 
G01 X21.9554 Y12.1078 
G01 X21.9604 Y12.1199 
G01 X21.9740 Y12.1705 
G01 X21.9740 Y12.4950 
G01 X21.7800 Y12.4950 
G01 X21.7800 Y12.1876 
G01 X21.7624 Y12.1700 
G01 X20.2376 Y12.1700 
G01 X20.2200 Y12.1876 
G01 X20.2200 Y13.5124 
G01 X20.2376 Y13.5300 
G01 X20.6450 Y13.5300 
G01 X20.6450 Y13.7240 
G01 X20.2205 Y13.7240 
G01 X20.1635 Y13.7087 
G01 X20.1125 Y13.6792 
G01 X20.1028 Y13.6696 
G01 X20.0451 Y13.6119 
G01 X20.0133 Y13.5987 
G01 X19.9698 Y13.5807 
G01 X19.8882 Y13.5807 
G01 X19.8334 Y13.6034 
G01 X19.8129 Y13.6119 
G01 X19.7552 Y13.6696 
G01 X19.7420 Y13.7014 
G01 X19.7240 Y13.7449 
G01 X19.7240 Y14.3428 
G01 X19.5928 Y14.4740 
G01 X19.5232 Y14.4740 
G01 X19.4479 Y14.5052 
G01 X19.3902 Y14.5629 
G01 X19.3590 Y14.6382 
G01 X19.3590 Y15.3209 
G01 X19.3240 Y15.4054 
G01 X19.3240 Y15.8428 
G01 X19.1928 Y15.9740 
G01 X18.7554 Y15.9740 
G01 X18.6709 Y16.0090 
G01 X18.3291 Y16.0090 
G01 X18.2446 Y15.9740 
G01 X17.8072 Y15.9740 
G01 X17.7058 Y15.8726 
G01 X17.6712 Y15.8380 
G01 X17.6482 Y15.8150 
G01 X17.6059 Y15.7974 
G01 X17.5728 Y15.7837 
G01 X17.5316 Y15.7837 
G01 X17.4913 Y15.7837 
G01 X17.4505 Y15.8007 
G01 X17.4159 Y15.8150 
G01 X17.3772 Y15.8537 
G01 X17.3583 Y15.8726 
G01 X17.3407 Y15.9150 
G01 X17.3271 Y15.9480 
G01 X17.3240 Y15.9554 
G01 X17.3240 Y16.0117 
G01 X17.3240 Y16.3928 
G01 X17.1928 Y16.5240 
G01 X16.7554 Y16.5240 
G01 X16.6709 Y16.5590 
G01 X16.3291 Y16.5590 
G01 X16.2446 Y16.5240 
G01 X15.8072 Y16.5240 
G01 X15.6760 Y16.3928 
G01 X15.6760 Y15.9554 
G01 X15.6410 Y15.8709 
G01 X15.6410 Y14.5019 
G01 X15.6098 Y14.4266 
G01 X15.5260 Y14.3428 
G01 X15.5260 Y13.1429 
G01 X15.4948 Y13.0676 
G01 X15.4371 Y13.0099 
G01 X15.3618 Y12.9787 
G01 X15.2802 Y12.9787 
G01 X15.2049 Y13.0099 
G01 X14.1676 Y14.0472 
G01 X14.1099 Y14.1049 
G01 X14.0787 Y14.1802 
G01 X14.0787 Y14.2618 
G01 X14.1099 Y14.3371 
G01 X14.1676 Y14.3948 
G01 X14.2429 Y14.4260 
G01 X14.5428 Y14.4260 
G01 X14.6740 Y14.5572 
G01 X14.6740 Y20.9428 
G01 X14.5428 Y21.0740 
G01 X12.9929 Y21.0740 
G01 X12.9176 Y21.1052 
G01 X12.8599 Y21.1629 
G01 X12.8287 Y21.2382 
G01 X12.8287 Y21.3198 
G01 X12.8599 Y21.3951 
G01 X12.8665 Y21.4017 
G01 X12.9176 Y21.4528 
G01 X13.2282 Y21.7634 
G01 X13.2600 Y21.8402 
G01 X13.3272 Y21.9074 
G01 X13.3272 Y22.0024 
G01 X13.3334 Y22.0172 
G01 X13.3584 Y22.0777 
G01 X13.3590 Y22.4209 
G01 X13.3272 Y22.4976 
G01 X13.3272 Y22.5926 
G01 X13.2600 Y22.6598 
G01 X13.2288 Y22.7351 
G01 X12.9866 Y22.9782 
G01 X12.9098 Y23.0100 
G01 X12.8426 Y23.0772 
G01 X12.7476 Y23.0772 
G01 X12.7328 Y23.0834 
G01 X12.6723 Y23.1084 
G01 X12.3291 Y23.1090 
G01 X12.2524 Y23.0772 
G01 X12.1574 Y23.0772 
G01 X12.0902 Y23.0100 
G01 X12.0148 Y22.9788 
G01 X11.3211 Y22.2859 
G01 X11.0218 Y21.9866 
G01 X10.8910 Y21.6709 
G01 X10.8910 Y21.2382 
G01 X10.8598 Y21.1629 
G01 X10.8021 Y21.1052 
G01 X10.7268 Y21.0740 
G01 X8.9572 Y21.0740 
G01 X8.8260 Y20.9428 
G01 X8.8260 Y14.5849 
G01 X8.7948 Y14.5096 
G01 X8.4831 Y14.1979 
G01 X8.4254 Y14.1402 
G01 X8.3500 Y14.1090 
G01 X8.0791 Y14.1090 
G01 X7.7634 Y13.9782 
G01 X7.4912 Y13.7060 
G01 X7.4595 Y13.6744 
G01 X7.4336 Y13.6469 
G01 X7.4308 Y13.6456 
G01 X7.3937 Y13.6290 
G01 X7.3592 Y13.6135 
G01 X7.3561 Y13.6134 
G01 X7.3533 Y13.6122 
G01 X7.3155 Y13.6122 
G01 X7.2777 Y13.6111 
G01 X7.2748 Y13.6122 
G01 X7.2717 Y13.6122 
G01 X7.2367 Y13.6267 
G01 X7.2015 Y13.6401 
G01 X7.1964 Y13.6434 
G01 X7.1696 Y13.6701 
G01 X7.1422 Y13.6961 
G01 X7.1409 Y13.6989 
G01 X7.1242 Y13.7360 
G01 X7.1088 Y13.7705 
G01 X7.1087 Y13.7736 
G01 X7.1075 Y13.7764 
G01 X7.1075 Y13.8142 
G01 X7.1037 Y13.9439 
G01 X7.0939 Y13.9674 
G01 X7.0785 Y14.0019 
G01 X7.0784 Y14.0050 
G01 X7.0772 Y14.0079 
G01 X7.0772 Y14.0457 
G01 X7.0761 Y14.0834 
G01 X7.0772 Y14.0863 
G01 X7.0772 Y14.0926 
G01 X7.0344 Y14.1354 
G01 X7.0069 Y14.1613 
G01 X7.0057 Y14.1641 
G01 X6.9890 Y14.2013 
G01 X6.9648 Y14.2552 
G01 X6.9404 Y14.2796 
G01 X6.9130 Y14.3055 
G01 X6.9117 Y14.3083 
G01 X6.8951 Y14.3454 
G01 X6.8796 Y14.3799 
G01 X6.8795 Y14.3830 
G01 X6.8783 Y14.3858 
G01 X6.8783 Y14.4236 
G01 X6.8772 Y14.4614 
G01 X6.8783 Y14.4643 
G01 X6.8783 Y14.4674 
G01 X6.8928 Y14.5023 
G01 X6.9062 Y14.5376 
G01 X6.9095 Y14.5427 
G01 X6.9240 Y14.5572 
G01 X6.9240 Y20.9428 
G01 X6.7928 Y21.0740 
G01 X1.1502 Y21.0740 
G01 X1.0749 Y21.1052 
G01 X1.0172 Y21.1629 
G01 X0.9860 Y21.2382 
G01 X0.9860 Y98.3498 
G01 X1.0172 Y98.4251 
G01 X1.0749 Y98.4828 
G01 X1.1502 Y98.5140 
G01 X14.9118 Y98.5140 
G01 X14.9871 Y98.4828 
G01 X15.0448 Y98.4251 
G01 X15.0760 Y98.3498 
G01 X15.0760 Y95.8072 
G01 X15.2072 Y95.6760 
G01 X17.3928 Y95.6760 
G01 X17.5240 Y95.8072 
G01 X17.5240 Y98.3498 
G01 X17.5552 Y98.4251 
G01 X17.6129 Y98.4828 
G01 X17.6882 Y98.5140 
G01 X23.8118 Y98.5140 
G01 X23.8871 Y98.4828 
G01 X23.9448 Y98.4251 
G01 X23.9760 Y98.3498 
G01 X23.9760 Y95.8072 
G01 X24.1072 Y95.6760 
G01 X26.2928 Y95.6760 
G01 X26.4240 Y95.8072 
G01 X26.4240 Y98.3498 
G01 X26.4552 Y98.4251 
G01 X26.5129 Y98.4828 
G01 X26.5882 Y98.5140 
G01 X37.2993 Y98.5140 
G01 X37.3401 Y98.5141 
G01 X37.3774 Y98.4987 
G01 X37.4155 Y98.4830 
G01 X37.4443 Y98.4542 
G01 X37.4732 Y98.4254 
G01 X37.4887 Y98.3882 
G01 X37.5046 Y98.3501 
G01 X37.5046 Y98.3093 
G01 X37.5049 Y98.1659 
G01 X37.5049 Y98.1253 
G01 X37.5050 Y98.0845 
G01 X37.5049 Y98.0132 
G01 X37.4737 Y97.9379 
G01 X37.4161 Y97.8802 
G01 X37.3407 Y97.8490 
G01 X36.8928 Y97.8490 
G01 X36.8847 Y97.8457 
G01 X36.8574 Y97.8457 
G01 X36.8303 Y97.8421 
G01 X36.8170 Y97.8457 
G01 X36.8032 Y97.8457 
G01 X36.7951 Y97.8490 
G01 X36.7800 Y97.8490 
G01 X36.7800 Y97.6550 
G01 X36.7874 Y97.6550 
G01 X36.8050 Y97.6374 
G01 X36.8050 Y96.1126 
G01 X36.7874 Y96.0950 
G01 X36.7800 Y96.0950 
G01 X36.7800 Y95.8559 
G01 X36.8237 Y95.8121 
G01 X36.8549 Y95.7368 
G01 X36.8549 Y95.6220 
G01 X36.8578 Y95.5905 
G01 X36.8549 Y95.5815 
G01 X36.8549 Y95.5720 
G01 X36.8429 Y95.5428 
G01 X36.8243 Y95.4835 
G01 X36.8258 Y95.4799 
G01 X36.8258 Y95.4484 
G01 X36.8286 Y95.4169 
G01 X36.8258 Y95.4079 
G01 X36.8258 Y95.3984 
G01 X36.8137 Y95.3692 
G01 X36.8043 Y95.3391 
G01 X36.7982 Y95.3318 
G01 X36.7946 Y95.3230 
G01 X36.7728 Y95.3012 
G01 X36.7728 Y94.9547 
G01 X36.7608 Y94.9257 
G01 X36.7636 Y94.7080 
G01 X37.1988 Y94.2728 
G01 X37.8012 Y94.2728 
G01 X38.2272 Y94.6988 
G01 X38.2272 Y95.3012 
G01 X38.0062 Y95.5222 
G01 X37.9485 Y95.5799 
G01 X37.9173 Y95.6552 
G01 X37.9173 Y95.7368 
G01 X37.9485 Y95.8121 
G01 X38.0062 Y95.8698 
G01 X38.0815 Y95.9010 
G01 X38.2072 Y95.9010 
G01 X38.2153 Y95.9043 
G01 X38.2426 Y95.9043 
G01 X38.2697 Y95.9079 
G01 X38.2830 Y95.9043 
G01 X38.2968 Y95.9043 
G01 X38.3049 Y95.9010 
G01 X38.3200 Y95.9010 
G01 X38.3200 Y96.0950 
G01 X38.3126 Y96.0950 
G01 X38.2950 Y96.1126 
G01 X38.2950 Y97.6374 
G01 X38.3126 Y97.6550 
G01 X38.3462 Y97.6550 
G01 X38.3512 Y97.6672 
G01 X38.4089 Y97.7248 
G01 X38.4842 Y97.7560 
G01 X38.5658 Y97.7560 
G01 X38.6411 Y97.7248 
G01 X38.6988 Y97.6672 
G01 X38.7038 Y97.6550 
G01 X38.7374 Y97.6550 
G01 X38.7550 Y97.6374 
G01 X38.7550 Y96.1126 
G01 X38.7374 Y96.0950 
G01 X38.7300 Y96.0950 
G01 X38.7300 Y95.8559 
G01 X38.7737 Y95.8121 
G01 X38.8049 Y95.7368 
G01 X38.8049 Y95.1075 
G01 X38.7737 Y95.0322 
G01 X38.6928 Y94.9512 
G01 X38.6928 Y94.3488 
G01 X39.0427 Y93.9988 
G01 X39.1004 Y93.9412 
G01 X39.1316 Y93.8658 
G01 X39.1316 Y93.7843 
G01 X39.1004 Y93.7089 
G01 X39.0427 Y93.6513 
G01 X38.9674 Y93.6200 
G01 X36.5343 Y93.6200 
G01 X36.4589 Y93.6513 
G01 X36.4013 Y93.7089 
G01 X36.3700 Y93.7843 
G01 X36.3700 Y94.5617 
G01 X36.3661 Y94.5787 
G01 X36.3700 Y94.6021 
G01 X36.3700 Y94.6258 
G01 X36.3767 Y94.6419 
G01 X36.3796 Y94.6591 
G01 X36.3922 Y94.6793 
G01 X36.4013 Y94.7012 
G01 X36.4060 Y94.7060 
G01 X36.4095 Y94.7145 
G01 X36.4095 Y94.8639 
G01 X36.3948 Y94.8785 
G01 X36.3800 Y94.8878 
G01 X36.3662 Y94.9071 
G01 X36.3494 Y94.9239 
G01 X36.3428 Y94.9400 
G01 X36.3327 Y94.9542 
G01 X36.3273 Y94.9773 
G01 X36.3182 Y94.9992 
G01 X36.3182 Y95.0167 
G01 X36.3041 Y95.0778 
G01 X36.2950 Y95.0997 
G01 X36.2950 Y95.1171 
G01 X36.2911 Y95.1341 
G01 X36.2950 Y95.1575 
G01 X36.2950 Y95.7368 
G01 X36.3263 Y95.8121 
G01 X36.3700 Y95.8558 
G01 X36.3700 Y96.0950 
G01 X36.3626 Y96.0950 
G01 X36.3450 Y96.1126 
G01 X36.3450 Y97.6374 
G01 X36.3626 Y97.6550 
G01 X36.3700 Y97.6550 
G01 X36.3700 Y97.8490 
G01 X36.3549 Y97.8490 
G01 X36.3468 Y97.8457 
G01 X36.3330 Y97.8457 
G01 X36.3197 Y97.8421 
G01 X36.2926 Y97.8457 
G01 X36.2653 Y97.8457 
G01 X36.2572 Y97.8490 
G01 X34.2929 Y97.8490 
G01 X34.2848 Y97.8457 
G01 X34.2574 Y97.8457 
G01 X34.2302 Y97.8421 
G01 X34.2170 Y97.8456 
G01 X34.2033 Y97.8456 
G01 X34.1951 Y97.8490 
G01 X34.1800 Y97.8490 
G01 X34.1800 Y97.6550 
G01 X34.1874 Y97.6550 
G01 X34.2050 Y97.6374 
G01 X34.2050 Y96.1126 
G01 X34.1874 Y96.0950 
G01 X34.1800 Y96.0950 
G01 X34.1800 Y95.9010 
G01 X34.1951 Y95.9010 
G01 X34.2033 Y95.9044 
G01 X34.2170 Y95.9044 
G01 X34.2302 Y95.9079 
G01 X34.2574 Y95.9043 
G01 X34.2848 Y95.9043 
G01 X34.2929 Y95.9010 
G01 X34.7407 Y95.9010 
G01 X34.8161 Y95.8698 
G01 X34.8737 Y95.8121 
G01 X34.9049 Y95.7368 
G01 X34.9049 Y92.2843 
G01 X34.8737 Y92.2089 
G01 X34.8161 Y92.1513 
G01 X34.7407 Y92.1200 
G01 X31.8526 Y92.1200 
G01 X31.7772 Y92.1513 
G01 X31.7196 Y92.2089 
G01 X31.6884 Y92.2843 
G01 X31.6884 Y92.3658 
G01 X31.7196 Y92.4412 
G01 X31.7249 Y92.4465 
G01 X31.7772 Y92.4988 
G01 X31.9772 Y92.6988 
G01 X31.9772 Y93.3012 
G01 X31.5512 Y93.7272 
G01 X30.9488 Y93.7272 
G01 X30.6805 Y93.4589 
G01 X30.6228 Y93.4013 
G01 X30.5475 Y93.3700 
G01 X30.3910 Y93.3700 
G01 X30.3156 Y93.4013 
G01 X30.2580 Y93.4589 
G01 X30.2276 Y93.5321 
G01 X30.2267 Y93.6158 
G01 X30.2580 Y93.6912 
G01 X30.3156 Y93.7488 
G01 X30.4740 Y93.9072 
G01 X30.4740 Y95.3928 
G01 X30.4659 Y95.4009 
G01 X30.4606 Y95.4136 
G01 X30.4522 Y95.4245 
G01 X30.4452 Y95.4510 
G01 X30.4347 Y95.4762 
G01 X30.4347 Y95.4900 
G01 X30.4311 Y95.5033 
G01 X30.4347 Y95.5304 
G01 X30.4347 Y95.5578 
G01 X30.4400 Y95.5705 
G01 X30.4418 Y95.5842 
G01 X30.4554 Y95.6078 
G01 X30.4604 Y95.6199 
G01 X30.4740 Y95.6705 
G01 X30.4740 Y95.9950 
G01 X30.2800 Y95.9950 
G01 X30.2800 Y95.6876 
G01 X30.2624 Y95.6700 
G01 X28.7376 Y95.6700 
G01 X28.7200 Y95.6876 
G01 X28.7200 Y95.9950 
G01 X28.5260 Y95.9950 
G01 X28.5260 Y95.6705 
G01 X28.5396 Y95.6199 
G01 X28.5445 Y95.6079 
G01 X28.5582 Y95.5842 
G01 X28.5600 Y95.5705 
G01 X28.5653 Y95.5578 
G01 X28.5653 Y95.5304 
G01 X28.5689 Y95.5033 
G01 X28.5653 Y95.4900 
G01 X28.5653 Y95.4762 
G01 X28.5548 Y95.4510 
G01 X28.5478 Y95.4246 
G01 X28.5394 Y95.4136 
G01 X28.5341 Y95.4009 
G01 X28.5260 Y95.3928 
G01 X28.5260 Y93.9072 
G01 X28.6572 Y93.7760 
G01 X29.1957 Y93.7760 
G01 X29.2057 Y93.7790 
G01 X29.2362 Y93.7760 
G01 X29.2669 Y93.7760 
G01 X29.2765 Y93.7720 
G01 X29.2868 Y93.7710 
G01 X29.3139 Y93.7565 
G01 X29.3422 Y93.7448 
G01 X29.3496 Y93.7374 
G01 X29.3587 Y93.7325 
G01 X29.3782 Y93.7088 
G01 X29.3999 Y93.6871 
G01 X29.4039 Y93.6775 
G01 X29.4105 Y93.6695 
G01 X29.4194 Y93.6401 
G01 X29.4311 Y93.6118 
G01 X29.4311 Y93.6014 
G01 X29.6182 Y92.9839 
G01 X29.6299 Y92.9556 
G01 X29.6299 Y92.9452 
G01 X29.6330 Y92.9352 
G01 X29.6299 Y92.9047 
G01 X29.6299 Y92.8497 
G01 X29.6436 Y92.8331 
G01 X29.6652 Y92.8114 
G01 X29.6692 Y92.8018 
G01 X29.6758 Y92.7938 
G01 X29.6847 Y92.7644 
G01 X29.6929 Y92.7446 
G01 X29.7414 Y92.7187 
G01 X29.7698 Y92.7069 
G01 X29.7771 Y92.6996 
G01 X29.7863 Y92.6947 
G01 X29.8057 Y92.6710 
G01 X29.8446 Y92.6321 
G01 X29.8660 Y92.6299 
G01 X29.8966 Y92.6299 
G01 X29.9062 Y92.6260 
G01 X29.9166 Y92.6249 
G01 X29.9436 Y92.6105 
G01 X29.9635 Y92.6023 
G01 X30.0161 Y92.6182 
G01 X30.0444 Y92.6299 
G01 X30.0548 Y92.6299 
G01 X30.0648 Y92.6330 
G01 X30.0953 Y92.6299 
G01 X30.5475 Y92.6299 
G01 X30.6228 Y92.5987 
G01 X30.7227 Y92.4988 
G01 X30.7804 Y92.4412 
G01 X30.8116 Y92.3658 
G01 X30.8116 Y92.2843 
G01 X30.7804 Y92.2089 
G01 X30.7227 Y92.1513 
G01 X30.6474 Y92.1200 
G01 X28.3467 Y92.1200 
G01 X28.1299 Y91.9033 
G01 X28.1299 Y90.6272 
G01 X28.1317 Y90.5913 
G01 X28.1299 Y90.5866 
G01 X28.1299 Y90.5815 
G01 X28.1162 Y90.5484 
G01 X28.1041 Y90.5146 
G01 X28.1007 Y90.5109 
G01 X28.0987 Y90.5062 
G01 X28.0734 Y90.4808 
G01 X27.3014 Y89.6317 
G01 X27.2753 Y89.6021 
G01 X27.2374 Y89.5837 
G01 X27.2007 Y89.5658 
G01 X27.1883 Y89.5311 
G01 X27.1754 Y89.4939 
G01 X27.1475 Y89.4623 
G01 X27.1231 Y89.4348 
G01 X27.1250 Y89.3942 
G01 X27.1274 Y89.3547 
G01 X27.1271 Y89.3520 
G01 X27.1137 Y89.3149 
G01 X26.7950 Y88.3907 
G01 X26.7950 Y88.3843 
G01 X26.7818 Y88.3523 
G01 X26.7705 Y88.3197 
G01 X26.7663 Y88.3149 
G01 X26.7638 Y88.3089 
G01 X26.7394 Y88.2845 
G01 X26.7165 Y88.2586 
G01 X26.7107 Y88.2558 
G01 X26.7061 Y88.2513 
G01 X26.6742 Y88.2380 
G01 X26.6431 Y88.2229 
G01 X26.6367 Y88.2225 
G01 X26.6308 Y88.2200 
G01 X26.5962 Y88.2200 
G01 X26.5617 Y88.2180 
G01 X26.5557 Y88.2200 
G01 X23.4190 Y88.2200 
G01 X23.4119 Y88.2177 
G01 X23.3785 Y88.2200 
G01 X23.3450 Y88.2200 
G01 X23.3380 Y88.2229 
G01 X23.3305 Y88.2235 
G01 X23.3006 Y88.2384 
G01 X23.2758 Y88.2487 
G01 X23.2284 Y88.2329 
G01 X23.1975 Y88.2200 
G01 X23.1899 Y88.2200 
G01 X23.1828 Y88.2177 
G01 X23.1494 Y88.2200 
G01 X23.0984 Y88.2200 
G01 X23.0875 Y88.2075 
G01 X23.0808 Y88.2041 
G01 X23.0755 Y88.1988 
G01 X23.0445 Y88.1860 
G01 X23.0007 Y88.1641 
G01 X22.9883 Y88.1536 
G01 X22.9646 Y88.1460 
G01 X22.9423 Y88.1349 
G01 X22.9261 Y88.1337 
G01 X22.9107 Y88.1288 
G01 X22.8858 Y88.1308 
G01 X22.8765 Y88.1302 
G01 X22.8491 Y88.1064 
G01 X22.8373 Y88.1021 
G01 X22.8167 Y88.0833 
G01 X22.7995 Y88.0635 
G01 X22.7862 Y88.0568 
G01 X22.7749 Y88.0470 
G01 X22.7500 Y88.0387 
G01 X22.6992 Y88.0133 
G01 X22.6949 Y88.0050 
G01 X22.6870 Y87.9813 
G01 X22.6764 Y87.9691 
G01 X22.6690 Y87.9547 
G01 X22.6500 Y87.9386 
G01 X22.6438 Y87.9314 
G01 X22.6383 Y87.8652 
G01 X22.6400 Y87.8403 
G01 X22.6349 Y87.8249 
G01 X22.6336 Y87.8088 
G01 X22.6221 Y87.7866 
G01 X22.6085 Y87.7458 
G01 X22.6085 Y87.7383 
G01 X22.5957 Y87.7074 
G01 X22.5851 Y87.6756 
G01 X22.5802 Y87.6699 
G01 X22.5773 Y87.6630 
G01 X22.5536 Y87.6393 
G01 X22.5317 Y87.6140 
G01 X22.5250 Y87.6106 
G01 X22.5197 Y87.6053 
G01 X22.4887 Y87.5925 
G01 X22.4587 Y87.5775 
G01 X22.4513 Y87.5770 
G01 X22.4443 Y87.5741 
G01 X22.4108 Y87.5741 
G01 X22.3774 Y87.5717 
G01 X22.3703 Y87.5741 
G01 X22.1790 Y87.5741 
G01 X22.1396 Y87.5740 
G01 X22.1004 Y87.5734 
G01 X22.0972 Y87.5740 
G01 X20.6990 Y87.5741 
G01 X20.5678 Y87.4429 
G01 X20.5678 Y87.0843 
G01 X20.5366 Y87.0089 
G01 X20.4789 Y86.9513 
G01 X20.4036 Y86.9200 
G01 X13.6474 Y86.9200 
G01 X13.5721 Y86.9513 
G01 X12.2089 Y88.3144 
G01 X12.1513 Y88.3721 
G01 X12.1200 Y88.4474 
G01 X12.1200 Y89.6217 
G01 X12.1200 Y89.6623 
G01 X12.1200 Y89.7008 
G01 X12.1211 Y89.7055 
G01 X12.1366 Y89.7406 
G01 X12.1513 Y89.7761 
G01 X12.1540 Y89.7801 
G01 X12.1817 Y89.8066 
G01 X12.2089 Y89.8338 
G01 X12.2130 Y89.8364 
G01 X12.2487 Y89.8503 
G01 X12.2843 Y89.8650 
G01 X12.2890 Y89.8659 
G01 X12.3274 Y89.8650 
G01 X12.3658 Y89.8650 
G01 X12.3706 Y89.8640 
G01 X12.4057 Y89.8485 
G01 X12.4412 Y89.8338 
G01 X12.4452 Y89.8310 
G01 X12.4716 Y89.8033 
G01 X12.4988 Y89.7761 
G01 X12.5621 Y89.7085 
G01 X12.5724 Y89.7043 
G01 X12.5764 Y89.7015 
G01 X12.6029 Y89.6738 
G01 X13.5967 Y88.6799 
G01 X17.2475 Y88.6799 
G01 X17.3228 Y88.6487 
G01 X17.6488 Y88.3228 
G01 X18.2512 Y88.3228 
G01 X18.6772 Y88.7488 
G01 X18.6772 Y89.2118 
G01 X18.7084 Y89.2871 
G01 X18.7661 Y89.3448 
G01 X18.8414 Y89.3760 
G01 X18.9230 Y89.3760 
G01 X18.9450 Y89.3760 
G01 X18.9450 Y89.5700 
G01 X18.8876 Y89.5700 
G01 X18.8700 Y89.5876 
G01 X18.8700 Y90.9450 
G01 X18.6760 Y90.9450 
G01 X18.6760 Y89.8065 
G01 X18.6448 Y89.7312 
G01 X18.5871 Y89.6735 
G01 X18.5118 Y89.6423 
G01 X18.4302 Y89.6423 
G01 X18.3549 Y89.6735 
G01 X18.3519 Y89.6765 
G01 X18.2972 Y89.7312 
G01 X18.2512 Y89.7772 
G01 X17.6882 Y89.7772 
G01 X17.6129 Y89.8084 
G01 X17.5552 Y89.8661 
G01 X17.5240 Y89.9414 
G01 X17.5240 Y92.7546 
G01 X17.5472 Y92.8107 
G01 X17.5552 Y92.8300 
G01 X17.6129 Y92.8877 
G01 X17.6882 Y92.9189 
G01 X17.7698 Y92.9189 
G01 X18.2644 Y92.7140 
G01 X18.5118 Y92.7140 
G01 X18.5871 Y92.6828 
G01 X18.6448 Y92.6251 
G01 X18.6760 Y92.5498 
G01 X18.6760 Y92.4682 
G01 X18.6760 Y91.3550 
G01 X18.8700 Y91.3550 
G01 X18.8700 Y92.7124 
G01 X18.8876 Y92.7300 
G01 X19.4124 Y92.7300 
G01 X19.4300 Y92.7124 
G01 X19.4300 Y89.5876 
G01 X19.4124 Y89.5700 
G01 X19.3550 Y89.5700 
G01 X19.3550 Y89.3760 
G01 X19.4295 Y89.3760 
G01 X19.4424 Y89.3794 
G01 X19.4676 Y89.3899 
G01 X19.4814 Y89.3899 
G01 X19.4947 Y89.3935 
G01 X19.5218 Y89.3899 
G01 X19.5492 Y89.3899 
G01 X19.5619 Y89.3846 
G01 X19.5756 Y89.3828 
G01 X19.5874 Y89.3760 
G01 X21.0274 Y89.3760 
G01 X21.0644 Y89.3774 
G01 X21.0680 Y89.3760 
G01 X21.0720 Y89.3760 
G01 X21.1061 Y89.3619 
G01 X21.1408 Y89.3490 
G01 X21.1437 Y89.3463 
G01 X21.1473 Y89.3448 
G01 X21.1735 Y89.3186 
G01 X21.2006 Y89.2935 
G01 X21.2022 Y89.2899 
G01 X21.2050 Y89.2871 
G01 X21.2191 Y89.2530 
G01 X21.2345 Y89.2193 
G01 X21.2347 Y89.2154 
G01 X21.2362 Y89.2118 
G01 X21.2362 Y89.1828 
G01 X21.2754 Y89.1464 
G01 X21.3011 Y89.1260 
G01 X21.3051 Y89.1189 
G01 X21.3111 Y89.1133 
G01 X21.3248 Y89.0834 
G01 X21.3402 Y89.0556 
G01 X21.3487 Y89.0471 
G01 X21.3598 Y89.0203 
G01 X21.3740 Y88.9949 
G01 X21.3753 Y88.9829 
G01 X21.3799 Y88.9718 
G01 X21.3799 Y88.9427 
G01 X21.3820 Y88.9246 
G01 X21.4231 Y88.8836 
G01 X21.4458 Y88.8655 
G01 X21.4517 Y88.8550 
G01 X21.4602 Y88.8465 
G01 X21.4713 Y88.8196 
G01 X21.4995 Y88.7689 
G01 X21.5163 Y88.7619 
G01 X21.5443 Y88.7539 
G01 X21.5537 Y88.7464 
G01 X21.5649 Y88.7418 
G01 X21.5854 Y88.7213 
G01 X21.5997 Y88.7099 
G01 X21.6577 Y88.7099 
G01 X21.6866 Y88.7133 
G01 X21.6982 Y88.7099 
G01 X21.7102 Y88.7099 
G01 X21.7371 Y88.6988 
G01 X21.7929 Y88.6829 
G01 X21.8097 Y88.6898 
G01 X21.8351 Y88.7040 
G01 X21.8471 Y88.7053 
G01 X21.8582 Y88.7099 
G01 X21.8873 Y88.7099 
G01 X21.9161 Y88.7133 
G01 X21.9277 Y88.7099 
G01 X23.1091 Y88.7099 
G01 X23.1372 Y88.7134 
G01 X23.1495 Y88.7099 
G01 X23.1624 Y88.7099 
G01 X23.1885 Y88.6991 
G01 X23.2459 Y88.6832 
G01 X23.2613 Y88.6896 
G01 X23.2859 Y88.7035 
G01 X23.2986 Y88.7050 
G01 X23.3105 Y88.7099 
G01 X23.3388 Y88.7099 
G01 X23.3553 Y88.7120 
G01 X23.3974 Y88.7541 
G01 X23.4148 Y88.7764 
G01 X23.4260 Y88.7827 
G01 X23.4351 Y88.7917 
G01 X23.4612 Y88.8026 
G01 X23.5130 Y88.8319 
G01 X23.5194 Y88.8473 
G01 X23.5270 Y88.8745 
G01 X23.5349 Y88.8846 
G01 X23.5398 Y88.8965 
G01 X23.5598 Y88.9165 
G01 X23.5700 Y88.9296 
G01 X23.5700 Y88.9891 
G01 X23.5666 Y89.0172 
G01 X23.5700 Y89.0296 
G01 X23.5700 Y89.0424 
G01 X23.5809 Y89.0685 
G01 X23.6606 Y89.3556 
G01 X23.6606 Y89.3685 
G01 X23.6714 Y89.3946 
G01 X23.6790 Y89.4218 
G01 X23.6869 Y89.4319 
G01 X23.6918 Y89.4438 
G01 X23.7118 Y89.4638 
G01 X23.7293 Y89.4861 
G01 X23.7404 Y89.4924 
G01 X23.7495 Y89.5015 
G01 X23.7756 Y89.5123 
G01 X23.8002 Y89.5262 
G01 X23.8130 Y89.5278 
G01 X23.8248 Y89.5327 
G01 X23.8531 Y89.5327 
G01 X23.8812 Y89.5361 
G01 X23.8936 Y89.5327 
G01 X23.9064 Y89.5327 
G01 X23.9325 Y89.5219 
G01 X23.9598 Y89.5143 
G01 X23.9699 Y89.5064 
G01 X23.9817 Y89.5015 
G01 X24.0017 Y89.4815 
G01 X24.0240 Y89.4641 
G01 X24.0303 Y89.4529 
G01 X24.1072 Y89.3760 
G01 X26.2928 Y89.3760 
G01 X26.4240 Y89.5072 
G01 X26.4240 Y92.9928 
G01 X26.2928 Y93.1240 
G01 X24.3453 Y93.1240 
G01 X24.2700 Y93.1552 
G01 X24.2123 Y93.2129 
G01 X24.1811 Y93.2882 
G01 X24.1811 Y93.3698 
G01 X24.3860 Y93.8644 
G01 X24.3860 Y94.4356 
G01 X24.1674 Y94.9634 
G01 X23.7634 Y95.3674 
G01 X23.2356 Y95.5860 
G01 X22.6644 Y95.5860 
G01 X22.1366 Y95.3674 
G01 X21.7326 Y94.9634 
G01 X21.5529 Y94.5296 
G01 X21.5217 Y94.4543 
G01 X21.4641 Y94.3966 
G01 X21.3908 Y94.3663 
G01 X21.3071 Y94.3654 
G01 X21.2318 Y94.3966 
G01 X21.1741 Y94.4543 
G01 X21.0512 Y94.5772 
G01 X20.4488 Y94.5772 
G01 X20.3259 Y94.4543 
G01 X20.2682 Y94.3966 
G01 X20.1928 Y94.3654 
G01 X20.1113 Y94.3654 
G01 X20.0359 Y94.3966 
G01 X19.9783 Y94.4543 
G01 X19.9768 Y94.4579 
G01 X19.9471 Y94.5296 
G01 X19.7674 Y94.9634 
G01 X19.3634 Y95.3674 
G01 X18.8356 Y95.5860 
G01 X18.2644 Y95.5860 
G01 X17.7366 Y95.3674 
G01 X17.3326 Y94.9634 
G01 X17.1140 Y94.4356 
G01 X17.1140 Y93.8644 
G01 X17.3189 Y93.3698 
G01 X17.3189 Y93.2882 
G01 X17.2877 Y93.2129 
G01 X17.2300 Y93.1552 
G01 X17.1546 Y93.1240 
G01 X15.2072 Y93.1240 
G01 X15.0760 Y92.9928 
G01 X15.0760 Y89.5843 
G01 X15.0448 Y89.5089 
G01 X14.9871 Y89.4513 
G01 X14.9118 Y89.4200 
G01 X13.9474 Y89.4200 
G01 X13.8721 Y89.4513 
G01 X13.1627 Y90.1606 
G01 X13.1340 Y90.1894 
G01 X13.1068 Y90.2165 
G01 X13.1042 Y90.2206 
G01 X13.0903 Y90.2564 
G01 X13.0756 Y90.2918 
G01 X13.0747 Y90.2966 
G01 X13.0756 Y90.3351 
G01 X13.0756 Y90.3734 
G01 X13.1145 Y92.0087 
G01 X13.1145 Y92.0471 
G01 X13.1155 Y92.0518 
G01 X13.1200 Y92.0620 
G01 X13.1200 Y92.2051 
G01 X13.1200 Y92.2458 
G01 X13.1200 Y92.2841 
G01 X13.1236 Y92.3997 
G01 X13.0434 Y92.4799 
G01 X13.0147 Y92.5087 
G01 X12.9875 Y92.5358 
G01 X12.8879 Y92.6415 
G01 X12.8776 Y92.6457 
G01 X12.8736 Y92.6485 
G01 X12.8471 Y92.6762 
G01 X12.2089 Y93.3144 
G01 X11.9033 Y93.6200 
G01 X10.1786 Y93.6200 
G01 X10.1032 Y93.6513 
G01 X10.0456 Y93.7089 
G01 X10.0153 Y93.7821 
G01 X10.0144 Y93.8658 
G01 X10.0456 Y93.9412 
G01 X10.1032 Y93.9988 
G01 X10.2560 Y94.1516 
G01 X10.2560 Y94.9684 
G01 X9.6784 Y95.5460 
G01 X8.8616 Y95.5460 
G01 X8.2840 Y94.9684 
G01 X8.2840 Y94.1516 
G01 X8.4367 Y93.9988 
G01 X8.4944 Y93.9412 
G01 X8.5256 Y93.8658 
G01 X8.5256 Y93.7843 
G01 X8.4944 Y93.7089 
G01 X8.4367 Y93.6513 
G01 X8.3614 Y93.6200 
G01 X7.6386 Y93.6200 
G01 X7.5632 Y93.6513 
G01 X7.5056 Y93.7089 
G01 X7.4753 Y93.7821 
G01 X7.4744 Y93.8658 
G01 X7.5056 Y93.9412 
G01 X7.5632 Y93.9988 
G01 X7.7160 Y94.1516 
G01 X7.7160 Y94.9684 
G01 X7.1384 Y95.5460 
G01 X6.3216 Y95.5460 
G01 X5.7440 Y94.9684 
G01 X5.7440 Y94.1516 
G01 X5.8573 Y94.0383 
G01 X5.8861 Y94.0095 
G01 X5.9140 Y93.9816 
G01 X5.9301 Y93.9428 
G01 X5.9452 Y93.9062 
G01 X5.9452 Y93.8642 
G01 X5.9452 Y93.8247 
G01 X5.9291 Y93.7858 
G01 X5.9140 Y93.7493 
G01 X5.8843 Y93.7195 
G01 X5.8564 Y93.6916 
G01 X5.8176 Y93.6756 
G01 X5.7810 Y93.6604 
G01 X5.7165 Y93.6352 
G01 X5.6800 Y93.6200 
G01 X5.6380 Y93.6200 
G01 X5.5974 Y93.6200 
G01 X5.5709 Y93.5942 
G01 X5.5430 Y93.5663 
G01 X5.5042 Y93.5502 
G01 X5.4676 Y93.5351 
G01 X4.4665 Y93.1352 
G01 X4.4300 Y93.1200 
G01 X4.3880 Y93.1200 
G01 X4.3473 Y93.1200 
G01 X4.3209 Y93.0943 
G01 X4.2930 Y93.0663 
G01 X4.2541 Y93.0502 
G01 X4.2200 Y93.0361 
G01 X4.2040 Y92.9988 
G01 X4.1889 Y92.9622 
G01 X4.1592 Y92.9325 
G01 X4.1304 Y92.9037 
G01 X4.1299 Y92.8668 
G01 X4.1299 Y92.8273 
G01 X4.1138 Y92.7883 
G01 X4.0997 Y92.7543 
G01 X4.1148 Y92.7166 
G01 X4.1299 Y92.6800 
G01 X4.1299 Y92.6380 
G01 X4.1299 Y88.6690 
G01 X4.1323 Y88.6619 
G01 X4.1299 Y88.6285 
G01 X4.1299 Y88.5950 
G01 X4.1271 Y88.5880 
G01 X4.1265 Y88.5805 
G01 X4.1116 Y88.5506 
G01 X4.0987 Y88.5196 
G01 X4.0934 Y88.5143 
G01 X3.9640 Y88.2555 
G01 X3.9512 Y88.2245 
G01 X3.9459 Y88.2192 
G01 X3.9425 Y88.2125 
G01 X3.9172 Y88.1906 
G01 X3.8818 Y88.1552 
G01 X3.8799 Y88.1285 
G01 X3.8799 Y88.0950 
G01 X3.8771 Y88.0880 
G01 X3.8765 Y88.0805 
G01 X3.8616 Y88.0506 
G01 X3.8513 Y88.0258 
G01 X3.8671 Y87.9784 
G01 X3.8799 Y87.9475 
G01 X3.8799 Y87.9399 
G01 X3.8823 Y87.9328 
G01 X3.8799 Y87.8994 
G01 X3.8799 Y26.2955 
G01 X3.8809 Y26.2929 
G01 X3.8799 Y26.2548 
G01 X3.8799 Y26.2167 
G01 X3.8789 Y26.2141 
G01 X3.8759 Y26.1007 
G01 X3.9562 Y26.0205 
G01 X3.9850 Y25.9917 
G01 X4.0119 Y25.9648 
G01 X4.0130 Y25.9622 
G01 X5.3218 Y24.5836 
G01 X5.3487 Y24.5566 
G01 X5.3498 Y24.5541 
G01 X5.3561 Y24.5405 
G01 X5.4562 Y24.4405 
G01 X5.4850 Y24.4117 
G01 X5.5119 Y24.3848 
G01 X5.5130 Y24.3822 
G01 X5.5911 Y24.2999 
G01 X5.7414 Y24.2999 
G01 X5.8167 Y24.2687 
G01 X5.8744 Y24.2111 
G01 X5.9056 Y24.1357 
G01 X5.9056 Y24.0542 
G01 X5.8744 Y23.9788 
G01 X5.8710 Y23.9754 
G01 X5.8167 Y23.9212 
G01 X5.7440 Y23.8484 
G01 X5.7440 Y23.7240 
G01 X5.9380 Y23.7240 
G01 X5.9380 Y23.7681 
G01 X6.4019 Y24.2320 
G01 X7.0581 Y24.2320 
G01 X7.1851 Y24.1050 
G01 X7.5544 Y24.1050 
G01 X7.5544 Y24.1357 
G01 X7.5856 Y24.2111 
G01 X7.6432 Y24.2687 
G01 X7.7186 Y24.2999 
G01 X7.8091 Y24.2999 
G01 X7.8467 Y24.3011 
G01 X7.8498 Y24.2999 
G01 X7.8531 Y24.2999 
G01 X7.8667 Y24.2943 
G01 X8.0052 Y24.2987 
G01 X8.0082 Y24.2999 
G01 X8.0458 Y24.2999 
G01 X8.0833 Y24.3011 
G01 X8.0865 Y24.2999 
G01 X8.2814 Y24.2999 
G01 X8.3567 Y24.2687 
G01 X8.4144 Y24.2111 
G01 X8.4456 Y24.1357 
G01 X8.4456 Y24.1050 
G01 X8.8149 Y24.1050 
G01 X8.9419 Y24.2320 
G01 X8.9860 Y24.2320 
G01 X8.9860 Y24.4260 
G01 X8.7954 Y24.4260 
G01 X8.7579 Y24.4248 
G01 X8.7547 Y24.4260 
G01 X8.7514 Y24.4260 
G01 X8.7167 Y24.4404 
G01 X8.6816 Y24.4536 
G01 X8.6761 Y24.4572 
G01 X8.6495 Y24.4838 
G01 X8.6221 Y24.5095 
G01 X8.6208 Y24.5125 
G01 X8.6040 Y24.5495 
G01 X8.5886 Y24.5838 
G01 X8.5885 Y24.5871 
G01 X8.5872 Y24.5902 
G01 X8.5872 Y24.6278 
G01 X8.5860 Y24.6653 
G01 X8.5872 Y24.6684 
G01 X8.5872 Y24.6718 
G01 X8.6016 Y24.7065 
G01 X8.6148 Y24.7416 
G01 X8.6184 Y24.7471 
G01 X8.6449 Y24.7737 
G01 X8.7655 Y24.9020 
G01 X8.7667 Y24.9051 
G01 X8.7933 Y24.9317 
G01 X8.8190 Y24.9590 
G01 X8.8220 Y24.9604 
G01 X8.8591 Y24.9771 
G01 X8.8933 Y24.9926 
G01 X8.8967 Y24.9927 
G01 X8.8998 Y24.9940 
G01 X8.9373 Y24.9940 
G01 X8.9748 Y24.9952 
G01 X8.9780 Y24.9940 
G01 X9.6784 Y24.9940 
G01 X10.2055 Y25.5211 
G01 X10.2631 Y25.5787 
G01 X10.3385 Y25.6099 
G01 X12.6333 Y25.6099 
G01 X12.8813 Y25.8579 
G01 X14.5644 Y27.5411 
G01 X14.6221 Y27.5987 
G01 X14.6974 Y27.6299 
G01 X16.2345 Y27.6299 
G01 X16.2377 Y27.6332 
G01 X16.2910 Y27.6332 
G01 X16.3060 Y27.6394 
G01 X16.4345 Y27.6650 
G01 X16.5655 Y27.6650 
G01 X16.6940 Y27.6394 
G01 X16.7090 Y27.6332 
G01 X16.7623 Y27.6332 
G01 X16.7655 Y27.6299 
G01 X18.7711 Y27.6299 
G01 X18.8077 Y27.6314 
G01 X18.8117 Y27.6299 
G01 X18.8159 Y27.6299 
G01 X18.8328 Y27.6230 
G01 X18.9668 Y27.6283 
G01 X18.9707 Y27.6299 
G01 X19.0074 Y27.6299 
G01 X19.0440 Y27.6314 
G01 X19.0480 Y27.6299 
G01 X19.1620 Y27.6299 
G01 X19.2393 Y27.7137 
G01 X19.2409 Y27.7176 
G01 X19.2669 Y27.7436 
G01 X19.2918 Y27.7705 
G01 X19.2956 Y27.7723 
G01 X19.3905 Y27.8671 
G01 X19.3968 Y27.8842 
G01 X19.3996 Y27.8874 
G01 X19.4013 Y27.8913 
G01 X19.4272 Y27.9172 
G01 X22.2393 Y30.9637 
G01 X22.2409 Y30.9676 
G01 X22.2668 Y30.9935 
G01 X22.2917 Y31.0205 
G01 X22.2956 Y31.0223 
G01 X22.3762 Y31.1029 
G01 X22.3717 Y31.2168 
G01 X22.3700 Y31.2207 
G01 X22.3700 Y31.2574 
G01 X22.3686 Y31.2940 
G01 X22.3700 Y31.2980 
G01 X22.3700 Y37.7195 
G01 X22.4013 Y37.7949 
G01 X26.0145 Y41.4081 
G01 X26.0426 Y41.4367 
G01 X26.0809 Y41.4529 
G01 X26.1177 Y41.4685 
G01 X26.1593 Y41.4688 
G01 X26.1993 Y41.4691 
G01 X26.2376 Y41.4535 
G01 X26.2749 Y41.4385 
G01 X26.3044 Y41.4094 
G01 X26.3330 Y41.3813 
G01 X26.3492 Y41.3430 
G01 X26.3648 Y41.3062 
G01 X26.3651 Y41.2646 
G01 X26.3712 Y40.4705 
G01 X26.3716 Y40.4297 
G01 X26.3719 Y40.3898 
G01 X26.3563 Y40.3514 
G01 X26.3413 Y40.3142 
G01 X26.3121 Y40.2847 
G01 X26.2840 Y40.2561 
G01 X26.2458 Y40.2399 
G01 X26.2089 Y40.2243 
G01 X26.1673 Y40.2240 
G01 X26.1274 Y40.2237 
G01 X25.9072 Y40.2240 
G01 X25.7760 Y40.0928 
G01 X25.7760 Y38.6072 
G01 X25.7841 Y38.5991 
G01 X25.7894 Y38.5864 
G01 X25.7978 Y38.5754 
G01 X25.8048 Y38.5490 
G01 X25.8153 Y38.5238 
G01 X25.8153 Y38.5100 
G01 X25.8189 Y38.4967 
G01 X25.8153 Y38.4696 
G01 X25.8153 Y38.4422 
G01 X25.8100 Y38.4295 
G01 X25.8082 Y38.4158 
G01 X25.7945 Y38.3921 
G01 X25.7896 Y38.3801 
G01 X25.7760 Y38.3295 
G01 X25.7760 Y38.0050 
G01 X25.9700 Y38.0050 
G01 X25.9700 Y38.3124 
G01 X25.9876 Y38.3300 
G01 X27.5124 Y38.3300 
G01 X27.5300 Y38.3124 
G01 X27.5300 Y36.9876 
G01 X27.5124 Y36.9700 
G01 X27.1864 Y36.9700 
G01 X27.1864 Y36.7760 
G01 X27.5295 Y36.7760 
G01 X27.5865 Y36.7913 
G01 X27.6375 Y36.8208 
G01 X27.6792 Y36.8625 
G01 X27.7087 Y36.9135 
G01 X27.7096 Y36.9168 
G01 X27.7096 Y36.9306 
G01 X27.7201 Y36.9558 
G01 X27.7271 Y36.9822 
G01 X27.7355 Y36.9932 
G01 X27.7408 Y37.0059 
G01 X27.7601 Y37.0252 
G01 X27.7768 Y37.0469 
G01 X27.7887 Y37.0538 
G01 X27.7985 Y37.0636 
G01 X27.8237 Y37.0740 
G01 X27.8474 Y37.0877 
G01 X27.8611 Y37.0895 
G01 X27.8738 Y37.0948 
G01 X27.9012 Y37.0948 
G01 X27.9283 Y37.0984 
G01 X27.9416 Y37.0948 
G01 X27.9554 Y37.0948 
G01 X27.9806 Y37.0843 
G01 X28.0070 Y37.0773 
G01 X28.0180 Y37.0689 
G01 X28.0307 Y37.0636 
G01 X28.0500 Y37.0442 
G01 X28.0717 Y37.0276 
G01 X28.0786 Y37.0157 
G01 X28.0884 Y37.0059 
G01 X28.0988 Y36.9807 
G01 X28.1125 Y36.9570 
G01 X28.1143 Y36.9433 
G01 X28.1196 Y36.9306 
G01 X28.1196 Y36.9032 
G01 X28.1232 Y36.8761 
G01 X28.1196 Y36.8628 
G01 X28.1196 Y28.3746 
G01 X28.2156 Y28.1429 
G01 X28.3929 Y27.9656 
G01 X28.6246 Y27.8696 
G01 X39.2054 Y27.8696 
G01 X39.2807 Y27.8384 
G01 X39.3384 Y27.7807 
G01 X39.3696 Y27.7054 
G01 X39.3696 Y24.7532 
G01 X39.3384 Y24.6779 
G01 X39.2807 Y24.6202 
G01 X39.2054 Y24.5890 
G01 X38.4495 Y24.5890 
G01 X38.3742 Y24.6202 
G01 X38.2784 Y24.7160 
G01 X37.4616 Y24.7160 
G01 X37.4235 Y24.6779 
G01 X37.3658 Y24.6202 
G01 X37.2904 Y24.5890 
G01 X35.9095 Y24.5890 
G01 X35.8342 Y24.6202 
G01 X35.7384 Y24.7160 
G01 X34.9216 Y24.7160 
G01 X34.8835 Y24.6779 
G01 X34.8258 Y24.6202 
G01 X34.7504 Y24.5890 
G01 X33.3695 Y24.5890 
G01 X33.2942 Y24.6202 
G01 X33.1984 Y24.7160 
G01 X32.3816 Y24.7160 
G01 X32.3435 Y24.6779 
G01 X32.2858 Y24.6202 
G01 X32.2104 Y24.5890 
G01 X30.8295 Y24.5890 
G01 X30.7542 Y24.6202 
G01 X30.6584 Y24.7160 
G01 X29.8416 Y24.7160 
G01 X29.8035 Y24.6779 
G01 X29.7458 Y24.6202 
G01 X29.6704 Y24.5890 
G01 X28.2895 Y24.5890 
G01 X28.2142 Y24.6202 
G01 X28.1184 Y24.7160 
G01 X27.3016 Y24.7160 
G01 X27.2635 Y24.6779 
G01 X27.2058 Y24.6202 
G01 X27.1304 Y24.5890 
G01 X25.7495 Y24.5890 
G01 X25.6742 Y24.6202 
G01 X25.5784 Y24.7160 
G01 X24.7616 Y24.7160 
G01 X24.7235 Y24.6779 
G01 X24.6658 Y24.6202 
G01 X24.5904 Y24.5890 
G01 X23.2095 Y24.5890 
G01 X23.1342 Y24.6202 
G01 X23.0384 Y24.7160 
G01 X22.7347 Y24.7160 
G01 X22.6309 Y24.7590 
G01 X20.8882 Y24.7590 
G01 X20.8129 Y24.7902 
G01 X20.7552 Y24.8479 
G01 X20.7240 Y24.9232 
G01 X20.7240 Y24.9350 
G01 X20.5274 Y24.9350 
G01 X20.5124 Y24.9200 
G01 X18.9876 Y24.9200 
G01 X18.9726 Y24.9350 
G01 X18.7760 Y24.9350 
G01 X18.7760 Y24.9205 
G01 X18.7896 Y24.8699 
G01 X18.7945 Y24.8578 
G01 X18.8082 Y24.8342 
G01 X18.8100 Y24.8205 
G01 X18.8153 Y24.8078 
G01 X18.8153 Y24.7804 
G01 X18.8189 Y24.7533 
G01 X18.8153 Y24.7400 
G01 X18.8153 Y24.7262 
G01 X18.8048 Y24.7010 
G01 X18.7978 Y24.6745 
G01 X18.7894 Y24.6636 
G01 X18.7841 Y24.6509 
G01 X18.7760 Y24.6428 
G01 X18.7760 Y23.1572 
G01 X18.9072 Y23.0260 
G01 X19.8571 Y23.0260 
G01 X19.9324 Y22.9948 
G01 X19.9901 Y22.9371 
G01 X20.0204 Y22.8639 
G01 X20.0213 Y22.7802 
G01 X19.9901 Y22.7049 
G01 X19.9324 Y22.6472 
G01 X19.8211 Y22.5359 
G01 X19.5218 Y22.2366 
G01 X19.3910 Y21.9209 
G01 X19.3910 Y21.7732 
G01 X19.3598 Y21.6979 
G01 X19.3021 Y21.6402 
G01 X19.2268 Y21.6090 
G01 X18.0791 Y21.6090 
G01 X18.0024 Y21.5772 
G01 X17.9074 Y21.5772 
G01 X17.8402 Y21.5100 
G01 X17.7648 Y21.4788 
G01 X17.5218 Y21.2366 
G01 X17.4900 Y21.1598 
G01 X17.4228 Y21.0926 
G01 X17.4228 Y20.9976 
G01 X17.4166 Y20.9828 
G01 X17.3916 Y20.9223 
G01 X17.3910 Y20.5791 
G01 X17.4228 Y20.5024 
G01 X17.4228 Y20.4074 
G01 X17.4900 Y20.3402 
G01 X17.5212 Y20.2648 
G01 X17.7634 Y20.0218 
G01 X17.8402 Y19.9900 
G01 X17.9074 Y19.9228 
G01 X18.0024 Y19.9228 
G01 X18.0172 Y19.9166 
G01 X18.0777 Y19.8916 
G01 X19.2268 Y19.8910 
G01 X19.3021 Y19.8598 
G01 X19.3598 Y19.8021 
G01 X19.3910 Y19.7268 
G01 X19.3910 Y19.0791 
G01 X19.5218 Y18.7634 
G01 X19.8211 Y18.4641 
G01 X20.0289 Y18.2563 
G01 X20.0517 Y18.2382 
G01 X20.0575 Y18.2277 
G01 X20.0661 Y18.2191 
G01 X20.0772 Y18.1923 
G01 X20.6721 Y17.1214 
G01 X20.6888 Y17.0983 
G01 X20.6917 Y17.0861 
G01 X20.6978 Y17.0751 
G01 X20.7011 Y17.0467 
G01 X20.7039 Y17.0348 
G01 X20.7503 Y16.9707 
G01 X20.7602 Y16.9629 
G01 X20.7740 Y16.9380 
G01 X20.7907 Y16.9149 
G01 X20.7936 Y16.9026 
G01 X20.8321 Y16.8335 
G01 X20.8417 Y16.8258 
G01 X20.8660 Y16.8109 
G01 X20.8734 Y16.8007 
G01 X20.8832 Y16.7929 
G01 X20.8971 Y16.7679 
G01 X20.9043 Y16.7580 
G01 X20.9717 Y16.7165 
G01 X20.9838 Y16.7131 
G01 X21.0061 Y16.6953 
G01 X21.0304 Y16.6804 
G01 X21.0378 Y16.6702 
G01 X21.0997 Y16.6210 
G01 X21.1043 Y16.6197 
G01 X21.1118 Y16.6197 
G01 X21.1200 Y16.6162 
G01 X21.1398 Y16.6131 
G01 X21.1504 Y16.6065 
G01 X21.1625 Y16.6031 
G01 X21.1741 Y16.5939 
G01 X21.1871 Y16.5885 
G01 X21.1990 Y16.5766 
G01 X21.2132 Y16.5678 
G01 X21.2218 Y16.5560 
G01 X21.2264 Y16.5524 
G01 X21.2303 Y16.5453 
G01 X21.2448 Y16.5308 
G01 X21.2512 Y16.5153 
G01 X21.2610 Y16.5017 
G01 X21.2659 Y16.4812 
G01 X21.2667 Y16.4780 
G01 X21.2760 Y16.4554 
G01 X21.2760 Y16.4387 
G01 X21.2799 Y16.4224 
G01 X21.2760 Y16.3983 
G01 X21.2760 Y16.1572 
G01 X21.4072 Y16.0260 
G01 X22.8928 Y16.0260 
G01 X22.9009 Y16.0341 
G01 X22.9136 Y16.0394 
G01 X22.9245 Y16.0478 
G01 X22.9510 Y16.0548 
G01 X22.9762 Y16.0653 
G01 X22.9900 Y16.0653 
G01 X23.0033 Y16.0689 
G01 X23.0304 Y16.0653 
G01 X23.0578 Y16.0653 
G01 X23.0705 Y16.0600 
G01 X23.0842 Y16.0582 
G01 X23.1078 Y16.0445 
G01 X23.1199 Y16.0396 
G01 X23.1705 Y16.0260 
G01 X23.1850 Y16.0260 
G01 X23.1850 Y16.2226 
G01 X23.1700 Y16.2376 
G01 X23.1700 Y17.7624 
G01 X23.1876 Y17.7800 
G01 X23.4950 Y17.7800 
G01 X23.4950 Y17.9740 
G01 X23.1448 Y17.9740 
G01 X23.0694 Y18.0052 
G01 X23.0118 Y18.0629 
G01 X22.9806 Y18.1382 
G01 X22.9806 Y18.2198 
G01 X23.0118 Y18.2951 
G01 X23.0694 Y18.3528 
G01 X23.1885 Y18.4021 
G01 X23.4659 Y18.6795 
G01 X23.6144 Y19.0379 
G01 X23.6202 Y19.0521 
G01 X23.6779 Y19.1098 
G01 X23.7533 Y19.1410 
G01 X24.0467 Y19.1410 
G01 X24.1221 Y19.1098 
G01 X24.1797 Y19.0521 
G01 X24.3341 Y18.6795 
G01 X24.6115 Y18.4021 
G01 X24.9739 Y18.2520 
G01 X25.3661 Y18.2520 
G01 X25.7285 Y18.4021 
G01 X26.0059 Y18.6795 
G01 X26.1544 Y19.0379 
G01 X26.1602 Y19.0521 
G01 X26.2179 Y19.1098 
G01 X26.2933 Y19.1410 
G01 X26.5867 Y19.1410 
G01 X26.6621 Y19.1098 
G01 X26.7198 Y19.0521 
G01 X26.8741 Y18.6795 
G01 X27.1515 Y18.4021 
G01 X27.5139 Y18.2520 
G01 X27.9061 Y18.2520 
G01 X28.2685 Y18.4021 
G01 X28.5459 Y18.6795 
G01 X28.6944 Y19.0379 
G01 X28.7002 Y19.0521 
G01 X28.7579 Y19.1098 
G01 X28.8333 Y19.1410 
G01 X29.1267 Y19.1410 
G01 X29.2021 Y19.1098 
G01 X29.2598 Y19.0521 
G01 X29.3598 Y18.8106 
G01 X29.3910 Y18.7353 
G01 X29.3910 Y15.7732 
G01 X29.3598 Y15.6979 
G01 X29.3021 Y15.6402 
G01 X29.2268 Y15.6090 
G01 X29.1382 Y15.6090 
G01 X29.0629 Y15.6402 
G01 X29.0052 Y15.6979 
G01 X28.9740 Y15.7732 
G01 X28.9740 Y15.8928 
G01 X28.9659 Y15.9009 
G01 X28.9606 Y15.9136 
G01 X28.9522 Y15.9245 
G01 X28.9452 Y15.9510 
G01 X28.9347 Y15.9762 
G01 X28.9347 Y15.9900 
G01 X28.9311 Y16.0033 
G01 X28.9347 Y16.0304 
G01 X28.9347 Y16.0578 
G01 X28.9400 Y16.0705 
G01 X28.9418 Y16.0842 
G01 X28.9554 Y16.1078 
G01 X28.9604 Y16.1199 
G01 X28.9740 Y16.1705 
G01 X28.9740 Y16.4950 
G01 X28.7800 Y16.4950 
G01 X28.7800 Y16.1876 
G01 X28.7624 Y16.1700 
G01 X27.2376 Y16.1700 
G01 X27.2226 Y16.1850 
G01 X27.0260 Y16.1850 
G01 X27.0260 Y16.1705 
G01 X27.0396 Y16.1199 
G01 X27.0445 Y16.1078 
G01 X27.0582 Y16.0842 
G01 X27.0600 Y16.0705 
G01 X27.0653 Y16.0578 
G01 X27.0653 Y16.0304 
G01 X27.0689 Y16.0033 
G01 X27.0653 Y15.9900 
G01 X27.0653 Y15.9762 
G01 X27.0548 Y15.9510 
G01 X27.0478 Y15.9245 
G01 X27.0394 Y15.9136 
G01 X27.0341 Y15.9009 
G01 X27.0260 Y15.8928 
G01 X27.0260 Y14.8361 
G01 X27.0298 Y14.8108 
G01 X27.0260 Y14.7957 
G01 X27.0260 Y14.7872 
G01 X27.0298 Y14.7619 
G01 X27.0260 Y14.7468 
G01 X27.0260 Y14.4072 
G01 X27.1922 Y14.2410 
G01 X27.2128 Y14.2258 
G01 X27.2208 Y14.2124 
G01 X27.2318 Y14.2014 
G01 X27.2416 Y14.1778 
G01 X27.2513 Y14.1615 
G01 X27.3051 Y14.1217 
G01 X27.3194 Y14.1158 
G01 X27.3375 Y14.0976 
G01 X27.3581 Y14.0824 
G01 X27.3661 Y14.0691 
G01 X27.4134 Y14.0218 
G01 X27.4363 Y14.0123 
G01 X27.4611 Y14.0061 
G01 X27.4736 Y13.9969 
G01 X27.4879 Y13.9909 
G01 X27.5060 Y13.9728 
G01 X27.5259 Y13.9581 
G01 X27.5908 Y13.9419 
G01 X27.6063 Y13.9419 
G01 X27.6300 Y13.9321 
G01 X27.6548 Y13.9259 
G01 X27.6673 Y13.9166 
G01 X27.7291 Y13.8910 
G01 X27.7539 Y13.8910 
G01 X27.7792 Y13.8948 
G01 X27.7942 Y13.8910 
G01 X27.8098 Y13.8910 
G01 X27.8335 Y13.8812 
G01 X27.8574 Y13.8752 
G01 X27.9236 Y13.8850 
G01 X27.9380 Y13.8910 
G01 X27.9636 Y13.8910 
G01 X27.9889 Y13.8948 
G01 X28.0040 Y13.8910 
G01 X30.4209 Y13.8910 
G01 X30.4976 Y13.9228 
G01 X30.5926 Y13.9228 
G01 X30.6598 Y13.9900 
G01 X30.7351 Y14.0212 
G01 X30.9782 Y14.2634 
G01 X31.0100 Y14.3402 
G01 X31.0772 Y14.4074 
G01 X31.0772 Y14.5024 
G01 X31.0834 Y14.5172 
G01 X31.1084 Y14.5777 
G01 X31.1090 Y18.7353 
G01 X31.1152 Y18.7502 
G01 X31.1402 Y18.8106 
G01 X31.2340 Y19.0372 
G01 X31.2402 Y19.0521 
G01 X31.2979 Y19.1098 
G01 X31.3733 Y19.1410 
G01 X31.6667 Y19.1410 
G01 X31.7421 Y19.1098 
G01 X31.7997 Y19.0521 
G01 X31.9541 Y18.6795 
G01 X32.2315 Y18.4021 
G01 X32.5939 Y18.2520 
G01 X32.9861 Y18.2520 
G01 X33.3485 Y18.4021 
G01 X33.6259 Y18.6795 
G01 X33.7744 Y19.0379 
G01 X33.7802 Y19.0521 
G01 X33.8379 Y19.1098 
G01 X33.9133 Y19.1410 
G01 X34.2067 Y19.1410 
G01 X34.2821 Y19.1098 
G01 X34.3398 Y19.0521 
G01 X34.4941 Y18.6795 
G01 X34.7715 Y18.4021 
G01 X35.1339 Y18.2520 
G01 X35.5261 Y18.2520 
G01 X35.8885 Y18.4021 
G01 X36.1659 Y18.6795 
G01 X36.3144 Y19.0379 
G01 X36.3202 Y19.0521 
G01 X36.3779 Y19.1098 
G01 X36.4533 Y19.1410 
G01 X36.7467 Y19.1410 
G01 X36.8221 Y19.1098 
G01 X36.8798 Y19.0521 
G01 X37.0341 Y18.6795 
G01 X37.3115 Y18.4021 
G01 X37.6739 Y18.2520 
G01 X38.0661 Y18.2520 
G01 X38.4285 Y18.4021 
G01 X38.7059 Y18.6795 
G01 X38.8560 Y19.0419 
G01 X38.8560 Y20.9581 
G01 X38.7059 Y21.3205 
G01 X38.4285 Y21.5979 
G01 X38.0661 Y21.7480 
G01 X37.6739 Y21.7480 
G01 X37.3115 Y21.5979 
G01 X37.0341 Y21.3205 
G01 X36.8856 Y20.9621 
G01 X36.8798 Y20.9479 
G01 X36.8221 Y20.8902 
G01 X36.7467 Y20.8590 
G01 X36.4533 Y20.8590 
G01 X36.3779 Y20.8902 
G01 X36.3202 Y20.9479 
G01 X36.1659 Y21.3205 
G01 X35.8885 Y21.5979 
G01 X35.5261 Y21.7480 
G01 X35.1339 Y21.7480 
G01 X34.7715 Y21.5979 
G01 X34.4941 Y21.3205 
G01 X34.3456 Y20.9621 
G01 X34.3398 Y20.9479 
G01 X34.2821 Y20.8902 
G01 X34.2067 Y20.8590 
G01 X33.9133 Y20.8590 
G01 X33.8379 Y20.8902 
G01 X33.7802 Y20.9479 
G01 X33.6259 Y21.3205 
G01 X33.3485 Y21.5979 
G01 X32.9861 Y21.7480 
G01 X32.5939 Y21.7480 
G01 X32.2315 Y21.5979 
G01 X31.9541 Y21.3205 
G01 X31.8056 Y20.9621 
G01 X31.7997 Y20.9479 
G01 X31.7421 Y20.8902 
G01 X31.6667 Y20.8590 
G01 X31.3733 Y20.8590 
G01 X31.2979 Y20.8902 
G01 X31.2402 Y20.9479 
G01 X31.0859 Y21.3205 
G01 X30.8085 Y21.5979 
G01 X30.4461 Y21.7480 
G01 X30.0539 Y21.7480 
G01 X29.6915 Y21.5979 
G01 X29.4141 Y21.3205 
G01 X29.2656 Y20.9621 
G01 X29.2598 Y20.9479 
G01 X29.2021 Y20.8902 
G01 X29.1267 Y20.8590 
G01 X28.8333 Y20.8590 
G01 X28.7579 Y20.8902 
G01 X28.7002 Y20.9479 
G01 X28.5459 Y21.3205 
G01 X28.2685 Y21.5979 
G01 X27.9061 Y21.7480 
G01 X27.5139 Y21.7480 
G01 X27.1515 Y21.5979 
G01 X26.8741 Y21.3205 
G01 X26.7256 Y20.9621 
G01 X26.7198 Y20.9479 
G01 X26.6621 Y20.8902 
G01 X26.5867 Y20.8590 
G01 X26.2933 Y20.8590 
G01 X26.2179 Y20.8902 
G01 X26.1602 Y20.9479 
G01 X26.0059 Y21.3205 
G01 X25.7285 Y21.5979 
G01 X25.3661 Y21.7480 
G01 X24.9739 Y21.7480 
G01 X24.6115 Y21.5979 
G01 X24.3341 Y21.3205 
G01 X24.1856 Y20.9621 
G01 X24.1797 Y20.9479 
G01 X24.1221 Y20.8902 
G01 X24.0467 Y20.8590 
G01 X23.7533 Y20.8590 
G01 X23.6779 Y20.8902 
G01 X23.6202 Y20.9479 
G01 X23.4659 Y21.3205 
G01 X23.1885 Y21.5979 
G01 X22.8261 Y21.7480 
G01 X22.4339 Y21.7480 
G01 X22.0715 Y21.5979 
G01 X21.7941 Y21.3205 
G01 X21.6440 Y20.9581 
G01 X21.6440 Y19.5249 
G01 X21.6128 Y19.4496 
G01 X21.5551 Y19.3919 
G01 X21.4798 Y19.3607 
G01 X21.3982 Y19.3607 
G01 X21.3229 Y19.3919 
G01 X21.1416 Y19.5732 
G01 X21.1096 Y19.6484 
G01 X21.1090 Y21.3500 
G01 X21.1402 Y21.4254 
G01 X22.3699 Y22.6551 
G01 X22.4276 Y22.7128 
G01 X22.5029 Y22.7440 
G01 X23.0384 Y22.7440 
G01 X23.0765 Y22.7821 
G01 X23.1342 Y22.8398 
G01 X23.2095 Y22.8710 
G01 X24.5904 Y22.8710 
G01 X24.6658 Y22.8398 
G01 X24.7616 Y22.7440 
G01 X25.5784 Y22.7440 
G01 X25.6165 Y22.7821 
G01 X25.6742 Y22.8398 
G01 X25.7495 Y22.8710 
G01 X27.1304 Y22.8710 
G01 X27.2058 Y22.8398 
G01 X27.3016 Y22.7440 
G01 X28.1184 Y22.7440 
G01 X28.2142 Y22.8398 
G01 X28.2895 Y22.8710 
G01 X29.6704 Y22.8710 
G01 X29.7458 Y22.8398 
G01 X29.8416 Y22.7440 
G01 X30.6584 Y22.7440 
G01 X30.7542 Y22.8398 
G01 X30.8295 Y22.8710 
G01 X32.2104 Y22.8710 
G01 X32.2858 Y22.8398 
G01 X32.3816 Y22.7440 
G01 X33.1984 Y22.7440 
G01 X33.2365 Y22.7821 
G01 X33.2942 Y22.8398 
G01 X33.3695 Y22.8710 
G01 X34.7504 Y22.8710 
G01 X34.8258 Y22.8398 
G01 X34.9216 Y22.7440 
G01 X35.7384 Y22.7440 
G01 X35.7765 Y22.7821 
G01 X35.8342 Y22.8398 
G01 X35.9095 Y22.8710 
G01 X37.2904 Y22.8710 
G01 X37.3658 Y22.8398 
G01 X37.4616 Y22.7440 
G01 X38.2784 Y22.7440 
G01 X38.3165 Y22.7821 
G01 X38.3742 Y22.8398 
G01 X38.4495 Y22.8710 
G01 X39.9041 Y22.8710 
G01 X39.9448 Y22.8710 
G01 X39.9844 Y22.8710 
G01 X40.0232 Y22.8549 
G01 X40.0598 Y22.8398 
G01 X40.0894 Y22.8102 
G01 X40.1174 Y22.7821 
G01 X40.1335 Y22.7434 
G01 X40.1486 Y22.7068 
G01 X40.1486 Y22.6649 
G01 X40.1486 Y22.6252 
G01 X40.1391 Y21.8391 
G01 X40.1576 Y21.7928 
G01 X40.1728 Y21.7562 
G01 X40.1728 Y21.7142 
G01 X40.1728 Y21.6574 
G01 X40.1804 Y21.6498 
G01 X40.2092 Y21.6210 
G01 X40.2372 Y21.5930 
G01 X40.2533 Y21.5541 
G01 X40.2670 Y21.5211 
G01 X40.5050 Y21.2774 
G01 X40.5510 Y21.2578 
G01 X40.5875 Y21.2427 
G01 X40.6171 Y21.2130 
G01 X40.6574 Y21.1728 
G01 X40.6681 Y21.1728 
G01 X40.7089 Y21.1728 
G01 X40.7484 Y21.1728 
G01 X40.7873 Y21.1567 
G01 X40.8203 Y21.1430 
G01 X41.1609 Y21.1391 
G01 X41.2072 Y21.1576 
G01 X41.2438 Y21.1728 
G01 X41.2858 Y21.1728 
G01 X41.3426 Y21.1728 
G01 X41.3502 Y21.1804 
G01 X41.3790 Y21.2092 
G01 X41.4070 Y21.2372 
G01 X41.4458 Y21.2533 
G01 X41.4789 Y21.2670 
G01 X41.7225 Y21.5050 
G01 X41.7422 Y21.5510 
G01 X41.7573 Y21.5875 
G01 X41.7870 Y21.6171 
G01 X41.8272 Y21.6574 
G01 X41.8272 Y21.6681 
G01 X41.8272 Y21.7088 
G01 X41.8272 Y21.7484 
G01 X41.8433 Y21.7872 
G01 X41.8570 Y21.8203 
G01 X41.8766 Y23.5137 
G01 X41.8766 Y23.5532 
G01 X41.8790 Y23.5602 
G01 X41.8790 Y23.6844 
G01 X41.8790 Y23.7250 
G01 X41.8790 Y23.7647 
G01 X41.8809 Y23.8899 
G01 X41.8790 Y23.8945 
G01 X41.8786 Y23.9018 
G01 X41.8311 Y24.0166 
G01 X41.8155 Y24.0541 
G01 X41.8003 Y24.0908 
G01 X41.7542 Y24.2072 
G01 X41.7506 Y24.2107 
G01 X41.7475 Y24.2173 
G01 X41.6597 Y24.3051 
G01 X41.6309 Y24.3339 
G01 X41.6029 Y24.3619 
G01 X41.5157 Y24.4518 
G01 X41.5110 Y24.4537 
G01 X41.5056 Y24.4586 
G01 X41.3909 Y24.5061 
G01 X41.3532 Y24.5218 
G01 X41.3167 Y24.5369 
G01 X41.2017 Y24.5866 
G01 X41.1967 Y24.5866 
G01 X41.1898 Y24.5890 
G01 X41.0656 Y24.5890 
G01 X41.0250 Y24.5890 
G01 X40.9853 Y24.5890 
G01 X40.8342 Y24.5912 
G01 X40.7946 Y24.5912 
G01 X40.7558 Y24.6073 
G01 X40.7193 Y24.6224 
G01 X40.6896 Y24.6521 
G01 X40.6616 Y24.6801 
G01 X40.6455 Y24.7189 
G01 X40.6304 Y24.7554 
G01 X40.6304 Y24.7973 
G01 X40.6304 Y28.6254 
G01 X40.5344 Y28.8571 
G01 X40.3571 Y29.0344 
G01 X40.1254 Y29.1304 
G01 X29.5446 Y29.1304 
G01 X29.4693 Y29.1616 
G01 X29.4116 Y29.2193 
G01 X29.3804 Y29.2946 
G01 X29.3804 Y32.7456 
G01 X29.4116 Y32.8210 
G01 X29.4693 Y32.8786 
G01 X29.5446 Y32.9099 
G01 X29.6262 Y32.9099 
G01 X29.7015 Y32.8786 
G01 X29.7099 Y32.8702 
G01 X29.7592 Y32.8210 
G01 X30.1574 Y32.4228 
G01 X30.8426 Y32.4228 
G01 X31.3272 Y32.9074 
G01 X31.3272 Y33.5926 
G01 X30.8426 Y34.0772 
G01 X30.4648 Y34.0772 
G01 X30.3894 Y34.1084 
G01 X29.7560 Y34.7419 
G01 X29.5495 Y34.9483 
G01 X29.5446 Y34.9503 
G01 X29.5156 Y34.9624 
G01 X29.4693 Y34.9815 
G01 X29.4560 Y34.9948 
G01 X29.4116 Y35.0392 
G01 X29.3804 Y35.1145 
G01 X29.3804 Y41.4129 
G01 X29.3766 Y41.4280 
G01 X29.3804 Y41.4534 
G01 X29.3804 Y41.4790 
G01 X29.3863 Y41.4933 
G01 X29.3920 Y41.5312 
G01 X29.3902 Y41.5384 
G01 X29.3804 Y41.5621 
G01 X29.3804 Y41.5776 
G01 X29.3766 Y41.5927 
G01 X29.3804 Y41.6180 
G01 X29.3804 Y41.6254 
G01 X29.3657 Y41.6608 
G01 X29.3565 Y41.6733 
G01 X29.3503 Y41.6982 
G01 X29.3405 Y41.7218 
G01 X29.3405 Y41.7373 
G01 X29.1045 Y42.6813 
G01 X29.0953 Y42.7015 
G01 X29.0947 Y42.7205 
G01 X29.0901 Y42.7390 
G01 X29.0933 Y42.7609 
G01 X29.0926 Y42.7830 
G01 X29.0993 Y42.8008 
G01 X29.1021 Y42.8196 
G01 X29.1135 Y42.8386 
G01 X29.1212 Y42.8594 
G01 X29.1342 Y42.8733 
G01 X29.1440 Y42.8896 
G01 X29.1618 Y42.9027 
G01 X29.1770 Y42.9189 
G01 X29.1943 Y42.9268 
G01 X29.2095 Y42.9381 
G01 X29.2310 Y42.9435 
G01 X29.3597 Y43.0019 
G01 X29.5241 Y43.1776 
G01 X30.2985 Y45.2398 
G01 X30.2985 Y45.2433 
G01 X30.3128 Y45.2778 
G01 X30.3259 Y45.3128 
G01 X30.3284 Y45.3154 
G01 X30.3541 Y45.3774 
G01 X30.3538 Y45.3868 
G01 X30.3550 Y45.3901 
G01 X30.3550 Y45.3937 
G01 X30.3586 Y45.4024 
G01 X30.3564 Y45.4695 
G01 X30.3550 Y45.4727 
G01 X30.3550 Y45.5101 
G01 X30.3538 Y45.5474 
G01 X30.3550 Y45.5507 
G01 X30.3550 Y45.6179 
G01 X30.3511 Y45.6265 
G01 X30.3510 Y45.6300 
G01 X30.3496 Y45.6333 
G01 X30.3496 Y45.6427 
G01 X30.3219 Y45.7039 
G01 X30.3051 Y45.7409 
G01 X30.2896 Y45.7749 
G01 X30.2895 Y45.7785 
G01 X30.2638 Y45.8404 
G01 X30.2569 Y45.8469 
G01 X30.2555 Y45.8501 
G01 X30.2494 Y45.8613 
G01 X30.2003 Y45.9072 
G01 X30.1970 Y45.9086 
G01 X30.1706 Y45.9350 
G01 X30.1433 Y45.9605 
G01 X30.1419 Y45.9637 
G01 X28.2427 Y47.8629 
G01 X28.0203 Y47.9550 
G01 X26.4447 Y47.9550 
G01 X26.3694 Y47.9862 
G01 X25.2074 Y49.1482 
G01 X25.1832 Y49.1683 
G01 X25.1788 Y49.1768 
G01 X25.1720 Y49.1836 
G01 X25.1600 Y49.2127 
G01 X25.1453 Y49.2405 
G01 X25.1445 Y49.2501 
G01 X25.1408 Y49.2589 
G01 X25.1408 Y49.2904 
G01 X25.1380 Y49.3218 
G01 X25.1408 Y49.3309 
G01 X25.1408 Y49.3405 
G01 X25.1528 Y49.3696 
G01 X25.1622 Y49.3996 
G01 X25.1683 Y49.4070 
G01 X25.1720 Y49.4158 
G01 X25.1943 Y49.4381 
G01 X27.0366 Y51.6489 
G01 X27.0403 Y51.6577 
G01 X27.0625 Y51.6800 
G01 X27.0827 Y51.7042 
G01 X27.0911 Y51.7086 
G01 X27.0979 Y51.7154 
G01 X27.1270 Y51.7274 
G01 X27.1549 Y51.7421 
G01 X27.1644 Y51.7429 
G01 X27.1733 Y51.7466 
G01 X27.2048 Y51.7466 
G01 X27.2361 Y51.7494 
G01 X27.2452 Y51.7466 
G01 X33.6001 Y51.7466 
G01 X33.7852 Y51.8232 
G01 X33.9268 Y51.9648 
G01 X35.2275 Y53.2656 
G01 X35.4268 Y53.4648 
G01 X35.5034 Y53.6499 
G01 X35.5034 Y55.6808 
G01 X35.5346 Y55.7562 
G01 X35.7272 Y55.9488 
G01 X35.7272 Y56.5512 
G01 X35.3012 Y56.9772 
G01 X35.2500 Y56.9772 
G01 X35.2297 Y56.9732 
G01 X35.2096 Y56.9772 
G01 X35.1891 Y56.9772 
G01 X35.1700 Y56.9851 
G01 X35.1497 Y56.9892 
G01 X35.1327 Y57.0006 
G01 X35.1138 Y57.0084 
G01 X35.0992 Y57.0230 
G01 X35.0820 Y57.0346 
G01 X35.0706 Y57.0516 
G01 X35.0561 Y57.0661 
G01 X35.0482 Y57.0852 
G01 X34.9686 Y57.2046 
G01 X34.9541 Y57.2191 
G01 X34.9462 Y57.2382 
G01 X34.9347 Y57.2554 
G01 X34.9308 Y57.2755 
G01 X34.9268 Y57.2852 
G01 X34.9198 Y57.2922 
G01 X34.9026 Y57.3037 
G01 X34.8912 Y57.3207 
G01 X34.8767 Y57.3352 
G01 X34.8688 Y57.3543 
G01 X34.8633 Y57.3625 
G01 X34.8546 Y57.3684 
G01 X34.8357 Y57.3762 
G01 X34.8211 Y57.3908 
G01 X34.8039 Y57.4023 
G01 X34.7925 Y57.4194 
G01 X34.5352 Y57.6768 
G01 X34.3501 Y57.7534 
G01 X30.5343 Y57.7534 
G01 X30.4589 Y57.7846 
G01 X30.4013 Y57.8423 
G01 X30.3700 Y57.9176 
G01 X30.3700 Y58.6533 
G01 X30.1533 Y58.8700 
G01 X29.1974 Y58.8700 
G01 X29.1221 Y58.9013 
G01 X27.9193 Y60.1041 
G01 X27.8937 Y60.1264 
G01 X27.8906 Y60.1327 
G01 X27.8856 Y60.1377 
G01 X27.8748 Y60.1637 
G01 X27.7835 Y60.2437 
G01 X27.7770 Y60.2463 
G01 X27.7530 Y60.2704 
G01 X27.7274 Y60.2927 
G01 X27.7243 Y60.2990 
G01 X27.6384 Y60.3849 
G01 X27.6118 Y60.3939 
G01 X27.6064 Y60.3986 
G01 X27.5999 Y60.4013 
G01 X27.5759 Y60.4253 
G01 X27.5654 Y60.4344 
G01 X27.5589 Y60.4371 
G01 X27.5349 Y60.4612 
G01 X27.5094 Y60.4835 
G01 X27.5062 Y60.4898 
G01 X27.5013 Y60.4948 
G01 X27.4883 Y60.5262 
G01 X27.4732 Y60.5566 
G01 X27.4727 Y60.5637 
G01 X27.4700 Y60.5702 
G01 X27.4700 Y60.6041 
G01 X27.4678 Y60.6380 
G01 X27.4700 Y60.6447 
G01 X27.4700 Y61.8565 
G01 X27.4700 Y61.8972 
G01 X27.4700 Y61.9364 
G01 X27.4724 Y62.0509 
G01 X27.3924 Y62.1309 
G01 X27.3636 Y62.1597 
G01 X27.3359 Y62.1874 
G01 X26.4272 Y63.1251 
G01 X26.3989 Y63.1543 
G01 X26.3723 Y63.1817 
G01 X26.2944 Y63.2676 
G01 X26.1810 Y63.2693 
G01 X26.1403 Y63.2699 
G01 X26.1021 Y63.2705 
G01 X25.0102 Y63.3157 
G01 X24.9751 Y63.3152 
G01 X24.9697 Y63.3174 
G01 X24.9638 Y63.3176 
G01 X24.9319 Y63.3323 
G01 X24.9028 Y63.3439 
G01 X24.8694 Y63.3435 
G01 X24.8648 Y63.3444 
G01 X24.8348 Y63.3573 
G01 X24.8044 Y63.3694 
G01 X24.8005 Y63.3720 
G01 X24.7777 Y63.3954 
G01 X23.7966 Y64.3500 
G01 X23.7709 Y64.3253 
G01 X23.7460 Y64.3258 
G01 X22.7944 Y65.3181 
G01 X22.7948 Y65.3382 
G01 X22.1472 Y65.9859 
G01 X22.1315 Y65.9800 
G01 X21.3974 Y65.9800 
G01 X21.3221 Y66.0113 
G01 X17.8129 Y69.5204 
G01 X17.7552 Y69.5781 
G01 X17.7240 Y69.6535 
G01 X17.7240 Y70.5928 
G01 X17.5928 Y70.7240 
G01 X16.4565 Y70.7240 
G01 X16.3812 Y70.7552 
G01 X16.3235 Y70.8129 
G01 X16.2923 Y70.8882 
G01 X16.2923 Y70.9698 
G01 X16.3235 Y71.0451 
G01 X16.3311 Y71.0527 
G01 X16.3812 Y71.1028 
G01 X16.7272 Y71.4488 
G01 X16.7272 Y72.0512 
G01 X16.6445 Y72.1339 
G01 X16.6142 Y72.2071 
G01 X16.6133 Y72.2908 
G01 X16.6445 Y72.3661 
G01 X16.7022 Y72.4238 
G01 X16.8972 Y72.6188 
G01 X16.9549 Y72.6765 
G01 X17.0302 Y72.7077 
G01 X17.1118 Y72.7077 
G01 X17.1871 Y72.6765 
G01 X17.2448 Y72.6188 
G01 X17.2760 Y72.5435 
G01 X17.2760 Y72.2205 
G01 X17.2913 Y72.1635 
G01 X17.3208 Y72.1125 
G01 X17.3625 Y72.0708 
G01 X17.4135 Y72.0413 
G01 X17.4705 Y72.0260 
G01 X17.8950 Y72.0260 
G01 X17.8950 Y72.2200 
G01 X17.4876 Y72.2200 
G01 X17.4700 Y72.2376 
G01 X17.4700 Y73.5624 
G01 X17.4876 Y73.5800 
G01 X19.0124 Y73.5800 
G01 X19.0300 Y73.5624 
G01 X19.0300 Y73.2550 
G01 X19.2240 Y73.2550 
G01 X19.2240 Y73.5795 
G01 X19.2104 Y73.6301 
G01 X19.2054 Y73.6421 
G01 X19.1918 Y73.6658 
G01 X19.1900 Y73.6795 
G01 X19.1847 Y73.6922 
G01 X19.1847 Y73.7196 
G01 X19.1811 Y73.7467 
G01 X19.1847 Y73.7600 
G01 X19.1847 Y73.7738 
G01 X19.1952 Y73.7990 
G01 X19.2022 Y73.8254 
G01 X19.2106 Y73.8364 
G01 X19.2159 Y73.8491 
G01 X19.2240 Y73.8572 
G01 X19.2240 Y75.3428 
G01 X19.0928 Y75.4740 
G01 X18.0935 Y75.4740 
G01 X18.0181 Y75.5052 
G01 X17.4155 Y76.1079 
G01 X17.3913 Y76.1280 
G01 X17.3868 Y76.1365 
G01 X17.3800 Y76.1433 
G01 X17.3680 Y76.1724 
G01 X17.3655 Y76.1771 
G01 X17.2809 Y76.2476 
G01 X17.2721 Y76.2513 
G01 X17.2498 Y76.2735 
G01 X17.2256 Y76.2937 
G01 X17.2212 Y76.3022 
G01 X17.1433 Y76.3800 
G01 X17.1383 Y76.3821 
G01 X17.1083 Y76.3915 
G01 X17.1009 Y76.3976 
G01 X17.0921 Y76.4013 
G01 X17.0698 Y76.4235 
G01 X16.9809 Y76.4976 
G01 X16.9720 Y76.5013 
G01 X16.9498 Y76.5235 
G01 X16.9256 Y76.5437 
G01 X16.9212 Y76.5522 
G01 X16.8275 Y76.6458 
G01 X16.8073 Y76.6913 
G01 X16.7940 Y76.7234 
G01 X16.7940 Y80.3966 
G01 X16.8253 Y80.4719 
G01 X16.8829 Y80.5296 
G01 X16.9583 Y80.5608 
G01 X19.1838 Y80.5608 
G01 X19.3150 Y80.6920 
G01 X19.3150 Y82.8080 
G01 X19.1838 Y82.9392 
G01 X13.6642 Y82.9392 
G01 X13.5330 Y82.8080 
G01 X13.5330 Y80.6920 
G01 X13.6642 Y80.5608 
G01 X15.8897 Y80.5608 
G01 X15.9651 Y80.5296 
G01 X16.0227 Y80.4719 
G01 X16.0539 Y80.3966 
G01 X16.0539 Y76.9360 
G01 X16.0573 Y76.9073 
G01 X16.0539 Y76.8955 
G01 X16.0539 Y76.8834 
G01 X16.0429 Y76.8566 
G01 X16.0380 Y76.8396 
G01 X16.0493 Y76.7428 
G01 X16.0539 Y76.7315 
G01 X16.0539 Y76.7026 
G01 X16.0573 Y76.6739 
G01 X16.0539 Y76.6621 
G01 X16.0539 Y76.5633 
G01 X16.0799 Y76.5006 
G01 X16.0799 Y76.3406 
G01 X16.0867 Y76.3243 
G01 X16.0953 Y76.3088 
G01 X16.1718 Y76.2483 
G01 X16.1830 Y76.2436 
G01 X16.2035 Y76.2232 
G01 X16.2261 Y76.2052 
G01 X16.2321 Y76.1946 
G01 X16.2845 Y76.1421 
G01 X16.3087 Y76.1220 
G01 X16.3132 Y76.1135 
G01 X16.3199 Y76.1067 
G01 X16.3320 Y76.0776 
G01 X16.3345 Y76.0729 
G01 X16.4191 Y76.0024 
G01 X16.4279 Y75.9987 
G01 X16.4502 Y75.9765 
G01 X16.4744 Y75.9563 
G01 X16.4788 Y75.9478 
G01 X16.5567 Y75.8700 
G01 X16.5617 Y75.8679 
G01 X16.5917 Y75.8585 
G01 X16.5991 Y75.8524 
G01 X16.6079 Y75.8487 
G01 X16.6302 Y75.8265 
G01 X16.7191 Y75.7524 
G01 X16.7279 Y75.7487 
G01 X16.7502 Y75.7265 
G01 X16.7744 Y75.7063 
G01 X16.7788 Y75.6978 
G01 X17.2368 Y75.2398 
G01 X17.2448 Y75.2319 
G01 X17.2760 Y75.1565 
G01 X17.2760 Y74.9565 
G01 X17.2448 Y74.8812 
G01 X17.1871 Y74.8235 
G01 X17.1139 Y74.7932 
G01 X17.0302 Y74.7923 
G01 X16.9549 Y74.8235 
G01 X16.8972 Y74.8812 
G01 X16.8012 Y74.9772 
G01 X16.1988 Y74.9772 
G01 X15.7728 Y74.5512 
G01 X15.7728 Y73.9488 
G01 X15.8555 Y73.8661 
G01 X15.8773 Y73.8135 
G01 X15.8867 Y73.7908 
G01 X15.8867 Y73.7092 
G01 X15.8555 Y73.6339 
G01 X15.7978 Y73.5762 
G01 X15.7386 Y73.5170 
G01 X15.7067 Y73.5038 
G01 X15.6632 Y73.4858 
G01 X15.5817 Y73.4858 
G01 X15.5184 Y73.5120 
G01 X15.5063 Y73.5170 
G01 X15.4529 Y73.5704 
G01 X15.4487 Y73.5747 
G01 X14.9106 Y74.1127 
G01 X14.6533 Y74.3700 
G01 X12.2474 Y74.3700 
G01 X12.1721 Y74.4013 
G01 X10.3449 Y76.2284 
G01 X10.2872 Y76.2861 
G01 X10.2560 Y76.3615 
G01 X10.2560 Y77.1884 
G01 X9.6784 Y77.7660 
G01 X8.8616 Y77.7660 
G01 X8.2840 Y77.1884 
G01 X8.2840 Y76.3716 
G01 X8.8616 Y75.7940 
G01 X9.6885 Y75.7940 
G01 X9.7639 Y75.7628 
G01 X11.5911 Y73.9356 
G01 X11.6487 Y73.8779 
G01 X11.8967 Y73.6299 
G01 X13.6474 Y73.6299 
G01 X13.7227 Y73.5987 
G01 X13.7804 Y73.5411 
G01 X13.8116 Y73.4657 
G01 X13.8116 Y73.3842 
G01 X13.7804 Y73.3088 
G01 X13.7741 Y73.3025 
G01 X13.7227 Y73.2512 
G01 X13.3791 Y72.9075 
G01 X13.3728 Y72.9013 
G01 X13.2975 Y72.8700 
G01 X11.9590 Y72.8700 
G01 X11.9366 Y72.8661 
G01 X11.9187 Y72.8700 
G01 X11.9002 Y72.8700 
G01 X11.8792 Y72.8788 
G01 X11.8570 Y72.8837 
G01 X11.8419 Y72.8942 
G01 X11.8249 Y72.9013 
G01 X11.8088 Y72.9173 
G01 X10.3619 Y73.9284 
G01 X10.3449 Y73.9355 
G01 X10.3288 Y73.9516 
G01 X10.3101 Y73.9646 
G01 X10.3002 Y73.9801 
G01 X10.2872 Y73.9931 
G01 X10.2785 Y74.0142 
G01 X10.2663 Y74.0333 
G01 X10.2630 Y74.0515 
G01 X10.2560 Y74.0685 
G01 X10.2560 Y74.0912 
G01 X10.2520 Y74.1136 
G01 X10.2560 Y74.1316 
G01 X10.2560 Y74.6484 
G01 X9.6784 Y75.2260 
G01 X8.8616 Y75.2260 
G01 X8.2840 Y74.6484 
G01 X8.2840 Y73.8316 
G01 X8.3667 Y73.7488 
G01 X8.4244 Y73.6912 
G01 X8.4556 Y73.6158 
G01 X8.4556 Y73.5343 
G01 X8.4244 Y73.4589 
G01 X8.3667 Y73.4013 
G01 X8.2914 Y73.3700 
G01 X8.1674 Y73.3700 
G01 X8.0921 Y73.4013 
G01 X7.8049 Y73.6885 
G01 X7.7472 Y73.7461 
G01 X7.7160 Y73.8215 
G01 X7.7160 Y74.6484 
G01 X7.1384 Y75.2260 
G01 X6.3216 Y75.2260 
G01 X5.9988 Y74.9032 
G01 X5.9412 Y74.8456 
G01 X5.8658 Y74.8144 
G01 X5.7843 Y74.8144 
G01 X5.7089 Y74.8456 
G01 X5.6513 Y74.9032 
G01 X5.6200 Y74.9786 
G01 X5.6200 Y76.0414 
G01 X5.6513 Y76.1167 
G01 X5.7089 Y76.1744 
G01 X5.7843 Y76.2056 
G01 X5.8658 Y76.2056 
G01 X5.9412 Y76.1744 
G01 X5.9484 Y76.1672 
G01 X5.9988 Y76.1167 
G01 X6.3216 Y75.7940 
G01 X7.1384 Y75.7940 
G01 X7.7160 Y76.3716 
G01 X7.7160 Y77.1884 
G01 X7.1384 Y77.7660 
G01 X6.3216 Y77.7660 
G01 X5.9988 Y77.4432 
G01 X5.9412 Y77.3856 
G01 X5.8658 Y77.3544 
G01 X5.7843 Y77.3544 
G01 X5.7089 Y77.3856 
G01 X5.6513 Y77.4432 
G01 X5.6200 Y77.5186 
G01 X5.6200 Y78.5814 
G01 X5.6513 Y78.6568 
G01 X5.7089 Y78.7144 
G01 X5.7843 Y78.7456 
G01 X5.8658 Y78.7456 
G01 X5.9412 Y78.7144 
G01 X5.9484 Y78.7072 
G01 X5.9988 Y78.6568 
G01 X6.3216 Y78.3340 
G01 X7.1384 Y78.3340 
G01 X7.7160 Y78.9116 
G01 X7.7160 Y79.7284 
G01 X7.1384 Y80.3060 
G01 X6.3216 Y80.3060 
G01 X5.9988 Y79.9832 
G01 X5.9412 Y79.9256 
G01 X5.8658 Y79.8944 
G01 X5.7843 Y79.8944 
G01 X5.7089 Y79.9256 
G01 X5.6513 Y79.9832 
G01 X5.6200 Y80.0586 
G01 X5.6200 Y81.1214 
G01 X5.6513 Y81.1967 
G01 X5.7089 Y81.2544 
G01 X5.7843 Y81.2856 
G01 X5.8658 Y81.2856 
G01 X5.9412 Y81.2544 
G01 X5.9484 Y81.2472 
G01 X5.9988 Y81.1967 
G01 X6.3216 Y80.8740 
G01 X7.1384 Y80.8740 
G01 X7.7160 Y81.4516 
G01 X7.7160 Y82.2684 
G01 X7.1384 Y82.8460 
G01 X6.3216 Y82.8460 
G01 X5.9988 Y82.5232 
G01 X5.9412 Y82.4656 
G01 X5.8658 Y82.4344 
G01 X5.7843 Y82.4344 
G01 X5.7089 Y82.4656 
G01 X5.6513 Y82.5232 
G01 X5.6200 Y82.5986 
G01 X5.6200 Y83.6614 
G01 X5.6513 Y83.7368 
G01 X5.7089 Y83.7944 
G01 X5.7843 Y83.8256 
G01 X5.8658 Y83.8256 
G01 X5.9412 Y83.7944 
G01 X5.9484 Y83.7872 
G01 X5.9988 Y83.7368 
G01 X6.3216 Y83.4140 
G01 X7.1384 Y83.4140 
G01 X7.7160 Y83.9916 
G01 X7.7160 Y84.8084 
G01 X7.1384 Y85.3860 
G01 X6.3216 Y85.3860 
G01 X5.9988 Y85.0632 
G01 X5.9412 Y85.0056 
G01 X5.8658 Y84.9744 
G01 X5.7843 Y84.9744 
G01 X5.7089 Y85.0056 
G01 X5.6513 Y85.0632 
G01 X5.6200 Y85.1386 
G01 X5.6200 Y86.2014 
G01 X5.6513 Y86.2768 
G01 X5.7089 Y86.3344 
G01 X5.7843 Y86.3656 
G01 X5.8658 Y86.3656 
G01 X5.9412 Y86.3344 
G01 X5.9988 Y86.2768 
G01 X6.3216 Y85.9540 
G01 X7.1384 Y85.9540 
G01 X7.7160 Y86.5316 
G01 X7.7160 Y87.3585 
G01 X7.7472 Y87.4339 
G01 X8.0344 Y87.7211 
G01 X8.0921 Y87.7787 
G01 X8.1674 Y87.8099 
G01 X8.2914 Y87.8099 
G01 X8.3667 Y87.7787 
G01 X8.4244 Y87.7211 
G01 X8.4547 Y87.6479 
G01 X8.4556 Y87.5642 
G01 X8.4244 Y87.4888 
G01 X8.3667 Y87.4312 
G01 X8.2840 Y87.3484 
G01 X8.2840 Y86.5316 
G01 X8.8616 Y85.9540 
G01 X9.6784 Y85.9540 
G01 X9.9267 Y86.2023 
G01 X9.9844 Y86.2600 
G01 X10.0598 Y86.2912 
G01 X10.1413 Y86.2912 
G01 X10.2167 Y86.2600 
G01 X12.8467 Y83.6299 
G01 X28.8026 Y83.6299 
G01 X28.8779 Y83.5987 
G01 X29.0411 Y83.4356 
G01 X29.0987 Y83.3779 
G01 X29.1299 Y83.3026 
G01 X29.1299 Y83.1807 
G01 X29.1299 Y83.1398 
G01 X29.1299 Y83.0992 
G01 X29.1148 Y83.0626 
G01 X29.0987 Y83.0238 
G01 X29.0720 Y82.9971 
G01 X29.0411 Y82.9661 
G01 X29.0019 Y82.9499 
G01 X28.9657 Y82.9349 
G01 X28.9248 Y82.9349 
G01 X28.8842 Y82.9349 
G01 X28.8739 Y82.9392 
G01 X23.3162 Y82.9392 
G01 X23.1850 Y82.8080 
G01 X23.1850 Y80.6920 
G01 X23.3162 Y80.5608 
G01 X24.1967 Y80.5608 
G01 X24.2266 Y80.5639 
G01 X24.2372 Y80.5608 
G01 X24.2483 Y80.5608 
G01 X24.2760 Y80.5493 
G01 X24.3048 Y80.5408 
G01 X24.3134 Y80.5338 
G01 X24.3236 Y80.5296 
G01 X24.3449 Y80.5084 
G01 X24.3682 Y80.4895 
G01 X24.3735 Y80.4797 
G01 X24.3813 Y80.4719 
G01 X24.3928 Y80.4442 
G01 X24.4071 Y80.4178 
G01 X24.4083 Y80.4068 
G01 X24.4125 Y80.3966 
G01 X24.4125 Y80.3666 
G01 X24.4156 Y80.3367 
G01 X24.4125 Y80.3261 
G01 X24.4125 Y80.3150 
G01 X24.4010 Y80.2873 
G01 X24.3925 Y80.2585 
G01 X24.3855 Y80.2499 
G01 X24.3813 Y80.2397 
G01 X24.3601 Y80.2185 
G01 X21.7297 Y76.9691 
G01 X21.7254 Y76.9589 
G01 X21.7042 Y76.9377 
G01 X21.6853 Y76.9144 
G01 X21.6756 Y76.9091 
G01 X21.6678 Y76.9013 
G01 X21.6401 Y76.8898 
G01 X21.6137 Y76.8754 
G01 X21.6027 Y76.8743 
G01 X21.5924 Y76.8700 
G01 X21.5624 Y76.8700 
G01 X21.5326 Y76.8669 
G01 X21.5219 Y76.8700 
G01 X19.9474 Y76.8700 
G01 X19.8721 Y76.9013 
G01 X19.7089 Y77.0644 
G01 X19.4033 Y77.3700 
G01 X18.9525 Y77.3700 
G01 X18.8772 Y77.4013 
G01 X18.5512 Y77.7272 
G01 X17.9488 Y77.7272 
G01 X17.5228 Y77.3012 
G01 X17.5228 Y76.6988 
G01 X17.9488 Y76.2728 
G01 X18.5512 Y76.2728 
G01 X18.8195 Y76.5411 
G01 X18.8772 Y76.5987 
G01 X18.9525 Y76.6299 
G01 X19.0526 Y76.6299 
G01 X19.1279 Y76.5987 
G01 X19.2911 Y76.4356 
G01 X19.4534 Y76.2733 
G01 X19.4580 Y76.2711 
G01 X19.4821 Y76.2446 
G01 X19.5075 Y76.2192 
G01 X19.5094 Y76.2145 
G01 X19.9167 Y75.7665 
G01 X19.9421 Y75.7411 
G01 X19.9440 Y75.7365 
G01 X19.9474 Y75.7327 
G01 X19.9596 Y75.6989 
G01 X19.9733 Y75.6658 
G01 X19.9733 Y75.6607 
G01 X19.9750 Y75.6560 
G01 X19.9733 Y75.6201 
G01 X19.9733 Y75.5842 
G01 X19.9714 Y75.5796 
G01 X19.9711 Y75.5745 
G01 X19.9558 Y75.5420 
G01 X19.9421 Y75.5089 
G01 X19.9385 Y75.5053 
G01 X19.9364 Y75.5007 
G01 X19.9098 Y75.4766 
G01 X19.7760 Y75.3428 
G01 X19.7760 Y73.8572 
G01 X19.7841 Y73.8491 
G01 X19.7894 Y73.8364 
G01 X19.7978 Y73.8254 
G01 X19.8048 Y73.7990 
G01 X19.8153 Y73.7738 
G01 X19.8153 Y73.7600 
G01 X19.8189 Y73.7467 
G01 X19.8153 Y73.7196 
G01 X19.8153 Y73.6922 
G01 X19.8100 Y73.6795 
G01 X19.8082 Y73.6658 
G01 X19.7945 Y73.6421 
G01 X19.7896 Y73.6301 
G01 X19.7760 Y73.5795 
G01 X19.7760 Y73.2550 
G01 X19.9700 Y73.2550 
G01 X19.9700 Y73.5624 
G01 X19.9876 Y73.5800 
G01 X21.5124 Y73.5800 
G01 X21.5300 Y73.5624 
G01 X21.5300 Y73.2550 
G01 X21.7240 Y73.2550 
G01 X21.7240 Y73.5795 
G01 X21.7104 Y73.6301 
G01 X21.7054 Y73.6421 
G01 X21.6918 Y73.6658 
G01 X21.6900 Y73.6795 
G01 X21.6847 Y73.6922 
G01 X21.6847 Y73.7196 
G01 X21.6811 Y73.7467 
G01 X21.6847 Y73.7600 
G01 X21.6847 Y73.7738 
G01 X21.6952 Y73.7990 
G01 X21.7022 Y73.8254 
G01 X21.7106 Y73.8364 
G01 X21.7159 Y73.8491 
G01 X21.7240 Y73.8572 
G01 X21.7240 Y75.3428 
G01 X21.5928 Y75.4740 
G01 X21.2435 Y75.4740 
G01 X21.1681 Y75.5052 
G01 X21.0466 Y75.6267 
G01 X21.0420 Y75.6289 
G01 X21.0179 Y75.6554 
G01 X20.9925 Y75.6808 
G01 X20.9906 Y75.6855 
G01 X20.9015 Y75.7834 
G01 X20.8761 Y75.8088 
G01 X20.8742 Y75.8135 
G01 X20.8708 Y75.8172 
G01 X20.8587 Y75.8510 
G01 X20.8449 Y75.8842 
G01 X20.8449 Y75.8892 
G01 X20.8432 Y75.8940 
G01 X20.8449 Y75.9298 
G01 X20.8449 Y75.9657 
G01 X20.8469 Y75.9704 
G01 X20.8471 Y75.9754 
G01 X20.8624 Y76.0079 
G01 X20.8761 Y76.0411 
G01 X20.8797 Y76.0446 
G01 X20.8819 Y76.0492 
G01 X20.9084 Y76.0733 
G01 X20.9338 Y76.0987 
G01 X20.9385 Y76.1007 
G01 X20.9422 Y76.1041 
G01 X20.9760 Y76.1162 
G01 X21.0091 Y76.1299 
G01 X21.0142 Y76.1299 
G01 X21.0189 Y76.1317 
G01 X21.0548 Y76.1299 
G01 X21.6117 Y76.1299 
G01 X21.6415 Y76.1331 
G01 X21.6521 Y76.1299 
G01 X21.6632 Y76.1299 
G01 X21.6909 Y76.1185 
G01 X21.7028 Y76.1149 
G01 X21.8052 Y76.1257 
G01 X21.8154 Y76.1299 
G01 X21.8454 Y76.1299 
G01 X21.8753 Y76.1331 
G01 X21.8859 Y76.1299 
G01 X21.9888 Y76.1299 
G01 X22.0003 Y76.1347 
G01 X22.0112 Y76.1406 
G01 X22.0759 Y76.2206 
G01 X22.0802 Y76.2308 
G01 X22.1014 Y76.2521 
G01 X22.1203 Y76.2754 
G01 X22.1300 Y76.2807 
G01 X22.2028 Y76.3535 
G01 X22.2075 Y76.3649 
G01 X22.2161 Y76.3937 
G01 X22.2230 Y76.4023 
G01 X22.2273 Y76.4125 
G01 X22.2485 Y76.4338 
G01 X25.5092 Y80.4617 
G01 X25.5134 Y80.4719 
G01 X25.5347 Y80.4931 
G01 X25.5535 Y80.5165 
G01 X25.5633 Y80.5218 
G01 X25.5711 Y80.5296 
G01 X25.5988 Y80.5411 
G01 X25.6252 Y80.5554 
G01 X25.6362 Y80.5566 
G01 X25.6464 Y80.5608 
G01 X25.6764 Y80.5608 
G01 X25.7063 Y80.5639 
G01 X25.7169 Y80.5608 
G01 X27.0833 Y80.5608 
G01 X27.1587 Y80.5296 
G01 X27.2163 Y80.4719 
G01 X27.2476 Y80.3966 
G01 X27.2476 Y80.3150 
G01 X27.2163 Y80.2397 
G01 X27.0424 Y80.0658 
G01 X23.1299 Y76.1533 
G01 X23.1299 Y69.9114 
G01 X23.0987 Y69.8361 
G01 X23.0411 Y69.7784 
G01 X22.9657 Y69.7472 
G01 X22.7614 Y69.7472 
G01 X22.6861 Y69.7784 
G01 X22.6284 Y69.8361 
G01 X22.5972 Y69.9114 
G01 X22.5972 Y70.4012 
G01 X22.1712 Y70.8272 
G01 X21.8914 Y70.8272 
G01 X21.8161 Y70.8584 
G01 X21.7584 Y70.9161 
G01 X21.7272 Y70.9914 
G01 X21.7272 Y71.3012 
G01 X21.3812 Y71.6472 
G01 X21.3235 Y71.7049 
G01 X21.2923 Y71.7802 
G01 X21.2923 Y71.8618 
G01 X21.3235 Y71.9371 
G01 X21.3812 Y71.9948 
G01 X21.4565 Y72.0260 
G01 X21.5295 Y72.0260 
G01 X21.5865 Y72.0413 
G01 X21.6375 Y72.0708 
G01 X21.6792 Y72.1125 
G01 X21.7087 Y72.1635 
G01 X21.7240 Y72.2205 
G01 X21.7240 Y72.5450 
G01 X21.5300 Y72.5450 
G01 X21.5300 Y72.2376 
G01 X21.5124 Y72.2200 
G01 X19.9876 Y72.2200 
G01 X19.9700 Y72.2376 
G01 X19.9700 Y72.5450 
G01 X19.7760 Y72.5450 
G01 X19.7760 Y72.2205 
G01 X19.7913 Y72.1635 
G01 X19.8208 Y72.1125 
G01 X19.8625 Y72.0708 
G01 X19.9135 Y72.0413 
G01 X19.9705 Y72.0260 
G01 X20.5435 Y72.0260 
G01 X20.6188 Y71.9948 
G01 X20.6765 Y71.9371 
G01 X20.7077 Y71.8618 
G01 X20.7077 Y71.7802 
G01 X20.6765 Y71.7049 
G01 X20.6689 Y71.6973 
G01 X20.6188 Y71.6472 
G01 X20.2728 Y71.3012 
G01 X20.2728 Y70.6988 
G01 X20.5411 Y70.4305 
G01 X20.5987 Y70.3728 
G01 X20.6299 Y70.2975 
G01 X20.6299 Y67.9357 
G01 X20.8779 Y67.6877 
G01 X22.2068 Y66.3588 
G01 X22.2291 Y66.3366 
G01 X22.3213 Y66.2931 
G01 X22.3497 Y66.2813 
G01 X22.3528 Y66.2782 
G01 X22.3568 Y66.2763 
G01 X22.3775 Y66.2535 
G01 X23.0467 Y65.5844 
G01 X23.0655 Y65.6024 
G01 X23.0903 Y65.6019 
G01 X24.0419 Y64.6096 
G01 X24.0418 Y64.6027 
G01 X24.1900 Y64.4585 
G01 X24.5060 Y64.7615 
G01 X24.5334 Y64.7889 
G01 X24.5370 Y64.7913 
G01 X24.8669 Y65.1076 
G01 X24.8942 Y65.1349 
G01 X24.8979 Y65.1373 
G01 X25.0244 Y65.2586 
G01 X25.0537 Y65.2867 
G01 X25.0817 Y65.3136 
G01 X25.0854 Y65.3159 
G01 X25.1216 Y65.3291 
G01 X25.1577 Y65.3432 
G01 X25.1619 Y65.3439 
G01 X25.2006 Y65.3423 
G01 X25.2392 Y65.3415 
G01 X25.2434 Y65.3405 
G01 X25.2785 Y65.3242 
G01 X25.3139 Y65.3087 
G01 X25.3174 Y65.3062 
G01 X25.3435 Y65.2778 
G01 X25.3703 Y65.2498 
G01 X25.6999 Y64.8903 
G01 X25.7074 Y64.8861 
G01 X25.7274 Y64.8605 
G01 X25.7493 Y64.8366 
G01 X25.7523 Y64.8286 
G01 X25.9788 Y64.5382 
G01 X25.9987 Y64.5183 
G01 X26.0037 Y64.5064 
G01 X26.0117 Y64.4962 
G01 X26.0192 Y64.4690 
G01 X26.0273 Y64.4494 
G01 X26.0937 Y64.3830 
G01 X26.1049 Y64.3766 
G01 X26.1222 Y64.3544 
G01 X26.1422 Y64.3345 
G01 X26.1471 Y64.3225 
G01 X26.2048 Y64.2486 
G01 X26.2233 Y64.2381 
G01 X26.2494 Y64.2273 
G01 X26.2585 Y64.2181 
G01 X26.2698 Y64.2118 
G01 X26.2871 Y64.1895 
G01 X28.2911 Y62.1856 
G01 X28.3487 Y62.1279 
G01 X28.3799 Y62.0526 
G01 X28.3799 Y61.9525 
G01 X28.3487 Y61.8772 
G01 X28.3423 Y61.8708 
G01 X28.2911 Y61.8195 
G01 X28.0228 Y61.5512 
G01 X28.0228 Y60.9488 
G01 X28.4488 Y60.5228 
G01 X29.0512 Y60.5228 
G01 X29.2012 Y60.6728 
G01 X29.2589 Y60.7305 
G01 X29.3342 Y60.7617 
G01 X29.4158 Y60.7617 
G01 X29.4911 Y60.7305 
G01 X29.6988 Y60.5228 
G01 X30.3012 Y60.5228 
G01 X30.7272 Y60.9488 
G01 X30.7272 Y61.5512 
G01 X30.3012 Y61.9772 
G01 X30.2880 Y61.9772 
G01 X30.2839 Y61.9781 
G01 X30.2485 Y61.9936 
G01 X30.2127 Y62.0084 
G01 X30.2092 Y62.0108 
G01 X30.1824 Y62.0387 
G01 X30.1550 Y62.0661 
G01 X30.1527 Y62.0696 
G01 X30.1386 Y62.1057 
G01 X30.1238 Y62.1414 
G01 X30.1031 Y62.1666 
G01 X30.0785 Y62.1923 
G01 X30.0765 Y62.1973 
G01 X30.0729 Y62.2014 
G01 X30.0617 Y62.2351 
G01 X30.0506 Y62.2634 
G01 X30.0089 Y62.2843 
G01 X29.9763 Y62.2985 
G01 X29.9726 Y62.3024 
G01 X29.9678 Y62.3048 
G01 X29.9445 Y62.3317 
G01 X28.1262 Y64.2243 
G01 X28.0988 Y64.2517 
G01 X28.0965 Y64.2552 
G01 X28.0824 Y64.2913 
G01 X28.0676 Y64.3270 
G01 X28.0668 Y64.3311 
G01 X28.0676 Y64.3699 
G01 X28.0676 Y64.4086 
G01 X28.0684 Y64.4127 
G01 X28.0840 Y64.4482 
G01 X28.0988 Y64.4839 
G01 X28.1011 Y64.4874 
G01 X28.1290 Y64.5142 
G01 X28.1564 Y64.5416 
G01 X28.1600 Y64.5439 
G01 X28.1960 Y64.5580 
G01 X28.2318 Y64.5728 
G01 X28.2359 Y64.5736 
G01 X28.2746 Y64.5728 
G01 X28.6597 Y64.5728 
G01 X28.7351 Y64.5416 
G01 X30.4339 Y62.8427 
G01 X30.4916 Y62.7851 
G01 X30.5228 Y62.7097 
G01 X30.5228 Y62.4488 
G01 X30.9488 Y62.0228 
G01 X31.5512 Y62.0228 
G01 X31.9772 Y62.4488 
G01 X31.9772 Y63.0512 
G01 X31.5512 Y63.4772 
G01 X30.8903 Y63.4772 
G01 X30.8149 Y63.5084 
G01 X30.1793 Y64.1440 
G01 X30.1216 Y64.2017 
G01 X30.0904 Y64.2770 
G01 X30.0904 Y64.3586 
G01 X30.1216 Y64.4339 
G01 X30.1793 Y64.4916 
G01 X30.2547 Y64.5228 
G01 X30.3012 Y64.5228 
G01 X30.7272 Y64.9488 
G01 X30.7272 Y65.5512 
G01 X30.3012 Y65.9772 
G01 X29.9789 Y65.9772 
G01 X29.9726 Y65.9750 
G01 X29.9384 Y65.9772 
G01 X29.9040 Y65.9772 
G01 X29.8979 Y65.9797 
G01 X29.8912 Y65.9802 
G01 X29.8604 Y65.9953 
G01 X29.8287 Y66.0084 
G01 X29.8240 Y66.0131 
G01 X29.8180 Y66.0160 
G01 X29.7953 Y66.0418 
G01 X29.7710 Y66.0661 
G01 X29.7685 Y66.0722 
G01 X28.9255 Y67.0285 
G01 X28.9013 Y67.0527 
G01 X28.8987 Y67.0589 
G01 X28.8943 Y67.0639 
G01 X28.8856 Y67.0893 
G01 X28.7986 Y67.1763 
G01 X28.7926 Y67.1793 
G01 X28.7699 Y67.2050 
G01 X28.7456 Y67.2293 
G01 X28.7431 Y67.2354 
G01 X28.6617 Y67.3278 
G01 X28.6369 Y67.3380 
G01 X28.6322 Y67.3427 
G01 X28.6262 Y67.3457 
G01 X28.6035 Y67.3714 
G01 X28.1052 Y67.8697 
G01 X28.0765 Y67.8984 
G01 X28.0491 Y67.9258 
G01 X28.0467 Y67.9294 
G01 X28.0327 Y67.9654 
G01 X28.0179 Y68.0011 
G01 X28.0171 Y68.0054 
G01 X28.0179 Y68.0440 
G01 X28.0179 Y68.0827 
G01 X28.0188 Y68.0870 
G01 X28.0344 Y68.1224 
G01 X28.0491 Y68.1580 
G01 X28.0516 Y68.1616 
G01 X28.0795 Y68.1884 
G01 X28.1068 Y68.2157 
G01 X28.1148 Y68.2223 
G01 X28.1422 Y68.2496 
G01 X28.4757 Y68.5683 
G01 X28.5031 Y68.5957 
G01 X28.5067 Y68.5981 
G01 X28.8366 Y68.9144 
G01 X28.8639 Y68.9417 
G01 X28.8676 Y68.9441 
G01 X29.3179 Y69.3759 
G01 X29.3457 Y69.4026 
G01 X29.3731 Y69.4300 
G01 X29.6469 Y69.6914 
G01 X29.6508 Y69.8770 
G01 X29.5101 Y70.0236 
G01 X29.4829 Y70.0509 
G01 X29.4805 Y70.0545 
G01 X29.4664 Y70.0906 
G01 X29.4517 Y70.1262 
G01 X29.4509 Y70.1305 
G01 X29.4517 Y70.1691 
G01 X29.4517 Y70.2078 
G01 X29.4526 Y70.2121 
G01 X29.4681 Y70.2474 
G01 X29.4829 Y70.2831 
G01 X29.4853 Y70.2867 
G01 X29.5132 Y70.3135 
G01 X30.8507 Y71.6509 
G01 X31.1200 Y71.9203 
G01 X31.1200 Y72.7975 
G01 X31.1513 Y72.8728 
G01 X31.4772 Y73.1988 
G01 X31.4772 Y73.8012 
G01 X31.0512 Y74.2272 
G01 X30.4488 Y74.2272 
G01 X30.0377 Y73.8161 
G01 X29.9800 Y73.7584 
G01 X29.9047 Y73.7272 
G01 X29.1988 Y73.7272 
G01 X29.1912 Y73.7196 
G01 X29.1578 Y73.7058 
G01 X29.1158 Y73.6884 
G01 X29.0746 Y73.6884 
G01 X29.0343 Y73.6884 
G01 X28.9589 Y73.7196 
G01 X28.9013 Y73.7772 
G01 X28.8874 Y73.8106 
G01 X28.8700 Y73.8526 
G01 X28.8700 Y73.8938 
G01 X28.8700 Y73.9341 
G01 X28.8700 Y75.0475 
G01 X28.9013 Y75.1228 
G01 X29.2272 Y75.4488 
G01 X29.2272 Y76.0512 
G01 X28.7772 Y76.5012 
G01 X28.7196 Y76.5588 
G01 X28.6884 Y76.6342 
G01 X28.6884 Y76.7157 
G01 X28.7196 Y76.7911 
G01 X28.7772 Y76.8487 
G01 X28.8526 Y76.8799 
G01 X31.8618 Y76.8799 
G01 X31.9371 Y76.8487 
G01 X31.9948 Y76.7911 
G01 X32.0260 Y76.7157 
G01 X32.0260 Y76.6072 
G01 X32.0341 Y76.5991 
G01 X32.0394 Y76.5864 
G01 X32.0478 Y76.5754 
G01 X32.0548 Y76.5490 
G01 X32.0653 Y76.5238 
G01 X32.0653 Y76.5100 
G01 X32.0689 Y76.4967 
G01 X32.0653 Y76.4696 
G01 X32.0653 Y76.4422 
G01 X32.0600 Y76.4295 
G01 X32.0582 Y76.4158 
G01 X32.0445 Y76.3921 
G01 X32.0396 Y76.3801 
G01 X32.0260 Y76.3295 
G01 X32.0260 Y76.0050 
G01 X32.2200 Y76.0050 
G01 X32.2200 Y76.3124 
G01 X32.2376 Y76.3300 
G01 X33.7624 Y76.3300 
G01 X33.7800 Y76.3124 
G01 X33.7800 Y76.0050 
G01 X33.9740 Y76.0050 
G01 X33.9740 Y76.3295 
G01 X33.9604 Y76.3801 
G01 X33.9554 Y76.3921 
G01 X33.9418 Y76.4158 
G01 X33.9400 Y76.4295 
G01 X33.9347 Y76.4422 
G01 X33.9347 Y76.4696 
G01 X33.9311 Y76.4967 
G01 X33.9347 Y76.5100 
G01 X33.9347 Y76.5238 
G01 X33.9452 Y76.5490 
G01 X33.9522 Y76.5754 
G01 X33.9606 Y76.5864 
G01 X33.9659 Y76.5991 
G01 X33.9740 Y76.6072 
G01 X33.9740 Y78.0928 
G01 X33.8428 Y78.2240 
G01 X33.6412 Y78.2240 
G01 X33.6037 Y78.2228 
G01 X33.6005 Y78.2240 
G01 X33.5971 Y78.2240 
G01 X33.5625 Y78.2384 
G01 X33.5274 Y78.2516 
G01 X33.5218 Y78.2552 
G01 X33.4953 Y78.2817 
G01 X33.4679 Y78.3074 
G01 X33.4665 Y78.3105 
G01 X33.4498 Y78.3475 
G01 X33.4343 Y78.3817 
G01 X33.4342 Y78.3851 
G01 X33.4329 Y78.3882 
G01 X33.4329 Y78.4257 
G01 X33.4154 Y78.9771 
G01 X33.4141 Y78.9802 
G01 X33.4141 Y79.0177 
G01 X33.4129 Y79.0553 
G01 X33.4141 Y79.0584 
G01 X33.4141 Y79.0618 
G01 X33.4285 Y79.0964 
G01 X33.4417 Y79.1316 
G01 X33.4453 Y79.1371 
G01 X33.4718 Y79.1636 
G01 X33.4975 Y79.1910 
G01 X33.5006 Y79.1924 
G01 X33.5376 Y79.2091 
G01 X33.5718 Y79.2246 
G01 X33.5752 Y79.2247 
G01 X33.5783 Y79.2260 
G01 X33.6158 Y79.2260 
G01 X33.6534 Y79.2272 
G01 X33.6565 Y79.2260 
G01 X33.7428 Y79.2260 
G01 X33.8740 Y79.3572 
G01 X33.8740 Y80.9833 
G01 X33.8700 Y81.0023 
G01 X33.8740 Y81.0237 
G01 X33.8740 Y81.0454 
G01 X33.8814 Y81.0634 
G01 X33.8850 Y81.0825 
G01 X33.8969 Y81.1007 
G01 X33.9052 Y81.1208 
G01 X33.9190 Y81.1345 
G01 X33.9296 Y81.1508 
G01 X33.9475 Y81.1631 
G01 X33.9629 Y81.1784 
G01 X33.9808 Y81.1859 
G01 X33.9969 Y81.1969 
G01 X34.0182 Y81.2013 
G01 X34.0382 Y81.2096 
G01 X34.0577 Y81.2096 
G01 X34.0767 Y81.2137 
G01 X34.0980 Y81.2096 
G01 X34.1198 Y81.2096 
G01 X34.1377 Y81.2022 
G01 X34.1569 Y81.1986 
G01 X34.1750 Y81.1867 
G01 X34.1951 Y81.1784 
G01 X34.2089 Y81.1647 
G01 X34.2252 Y81.1541 
G01 X34.2374 Y81.1361 
G01 X34.2528 Y81.1208 
G01 X34.2602 Y81.1028 
G01 X35.8045 Y78.8458 
G01 X35.8198 Y78.8305 
G01 X35.8273 Y78.8125 
G01 X35.8383 Y78.7965 
G01 X35.8427 Y78.7752 
G01 X35.8510 Y78.7551 
G01 X35.8510 Y78.7357 
G01 X35.8550 Y78.7167 
G01 X35.8510 Y78.6953 
G01 X35.8510 Y78.6736 
G01 X35.8436 Y78.6556 
G01 X35.8400 Y78.6365 
G01 X35.8281 Y78.6183 
G01 X35.8198 Y78.5982 
G01 X35.8061 Y78.5845 
G01 X35.7955 Y78.5682 
G01 X35.7775 Y78.5559 
G01 X35.5228 Y78.3012 
G01 X35.5228 Y77.6988 
G01 X35.9488 Y77.2728 
G01 X36.5512 Y77.2728 
G01 X36.8195 Y77.5411 
G01 X36.8772 Y77.5987 
G01 X36.9525 Y77.6299 
G01 X37.1118 Y77.6299 
G01 X37.1871 Y77.5987 
G01 X37.2448 Y77.5411 
G01 X37.2760 Y77.4657 
G01 X37.2760 Y77.1072 
G01 X37.2841 Y77.0991 
G01 X37.2894 Y77.0864 
G01 X37.2978 Y77.0754 
G01 X37.3048 Y77.0490 
G01 X37.3153 Y77.0238 
G01 X37.3153 Y77.0100 
G01 X37.3189 Y76.9967 
G01 X37.3153 Y76.9696 
G01 X37.3153 Y76.9422 
G01 X37.3100 Y76.9295 
G01 X37.3082 Y76.9158 
G01 X37.2945 Y76.8921 
G01 X37.2896 Y76.8801 
G01 X37.2760 Y76.8295 
G01 X37.2760 Y76.5050 
G01 X37.4700 Y76.5050 
G01 X37.4700 Y76.8124 
G01 X37.4876 Y76.8300 
G01 X39.0124 Y76.8300 
G01 X39.0300 Y76.8124 
G01 X39.0300 Y76.5050 
G01 X39.2240 Y76.5050 
G01 X39.2240 Y76.8295 
G01 X39.2104 Y76.8801 
G01 X39.2054 Y76.8921 
G01 X39.1918 Y76.9158 
G01 X39.1900 Y76.9295 
G01 X39.1847 Y76.9422 
G01 X39.1847 Y76.9696 
G01 X39.1811 Y76.9967 
G01 X39.1847 Y77.0100 
G01 X39.1847 Y77.0238 
G01 X39.1952 Y77.0490 
G01 X39.2022 Y77.0754 
G01 X39.2106 Y77.0864 
G01 X39.2159 Y77.0991 
G01 X39.2240 Y77.1072 
G01 X39.2240 Y78.5928 
G01 X39.0928 Y78.7240 
G01 X37.4072 Y78.7240 
G01 X37.2760 Y78.5928 
G01 X37.2760 Y78.5343 
G01 X37.2448 Y78.4589 
G01 X37.1871 Y78.4013 
G01 X37.1118 Y78.3700 
G01 X36.9525 Y78.3700 
G01 X36.8772 Y78.4013 
G01 X36.7089 Y78.5695 
G01 X36.6513 Y78.6272 
G01 X36.6200 Y78.7025 
G01 X36.6200 Y78.7752 
G01 X36.6160 Y78.7943 
G01 X36.6200 Y78.8156 
G01 X36.6200 Y78.8373 
G01 X36.6275 Y78.8553 
G01 X36.6420 Y78.9325 
G01 X36.6328 Y78.9458 
G01 X36.6284 Y78.9670 
G01 X36.6200 Y78.9871 
G01 X36.6200 Y79.0033 
G01 X36.5645 Y79.0588 
G01 X36.5482 Y79.0694 
G01 X36.5360 Y79.0873 
G01 X36.5206 Y79.1027 
G01 X36.5132 Y79.1207 
G01 X33.9206 Y82.9099 
G01 X33.9052 Y82.9252 
G01 X33.8978 Y82.9432 
G01 X33.8868 Y82.9592 
G01 X33.8823 Y82.9805 
G01 X33.8740 Y83.0006 
G01 X33.8740 Y83.0200 
G01 X33.8700 Y83.0391 
G01 X33.8740 Y83.0604 
G01 X33.8740 Y84.4657 
G01 X33.9052 Y84.5411 
G01 X33.9629 Y84.5987 
G01 X34.0382 Y84.6299 
G01 X37.4618 Y84.6299 
G01 X37.5371 Y84.5987 
G01 X37.5948 Y84.5411 
G01 X37.6260 Y84.4657 
G01 X37.6260 Y82.5572 
G01 X37.7572 Y82.4260 
G01 X39.2428 Y82.4260 
G01 X39.3740 Y82.5572 
G01 X39.3740 Y84.4657 
G01 X39.4052 Y84.5411 
G01 X39.4629 Y84.5987 
G01 X39.5382 Y84.6299 
G01 X41.1533 Y84.6299 
G01 X42.2073 Y85.6839 
G01 X42.2649 Y85.7416 
G01 X42.3403 Y85.7728 
G01 X42.8012 Y85.7728 
G01 X43.2272 Y86.1988 
G01 X43.2272 Y86.8012 
G01 X42.8012 Y87.2272 
G01 X42.1988 Y87.2272 
G01 X41.7728 Y86.8012 
G01 X41.7728 Y86.3403 
G01 X41.7416 Y86.2649 
G01 X40.9356 Y85.4589 
G01 X40.8779 Y85.4013 
G01 X40.8026 Y85.3700 
G01 X40.0975 Y85.3700 
G01 X40.0222 Y85.4013 
G01 X39.9645 Y85.4589 
G01 X39.9333 Y85.5343 
G01 X39.9333 Y85.6158 
G01 X39.9645 Y85.6912 
G01 X39.9977 Y85.7244 
G01 X40.0222 Y85.7488 
G01 X42.0888 Y87.8155 
G01 X42.1221 Y87.8487 
G01 X42.1974 Y87.8799 
G01 X42.7975 Y87.8799 
G01 X42.8728 Y87.8487 
G01 X43.1988 Y87.5228 
G01 X43.8012 Y87.5228 
G01 X44.2272 Y87.9488 
G01 X44.2272 Y88.5512 
G01 X43.8812 Y88.8972 
G01 X43.8235 Y88.9549 
G01 X43.7923 Y89.0302 
G01 X43.7923 Y89.1118 
G01 X43.8235 Y89.1871 
G01 X43.8812 Y89.2448 
G01 X43.9565 Y89.2760 
G01 X45.4928 Y89.2760 
G01 X45.6240 Y89.4072 
G01 X45.6240 Y91.0928 
G01 X45.5046 Y91.2122 
G01 X45.4831 Y91.2285 
G01 X45.4760 Y91.2408 
G01 X45.4660 Y91.2508 
G01 X45.4557 Y91.2757 
G01 X45.4421 Y91.2990 
G01 X45.4402 Y91.3130 
G01 X45.4348 Y91.3261 
G01 X45.4348 Y91.3531 
G01 X45.4312 Y91.3798 
G01 X45.4348 Y91.3935 
G01 X45.4348 Y91.4077 
G01 X45.4451 Y91.4326 
G01 X45.5680 Y91.8976 
G01 X45.5680 Y91.9118 
G01 X45.5783 Y91.9367 
G01 X45.5852 Y91.9628 
G01 X45.5938 Y91.9740 
G01 X45.5992 Y91.9871 
G01 X45.6182 Y92.0062 
G01 X45.6346 Y92.0277 
G01 X45.6468 Y92.0348 
G01 X45.6568 Y92.0448 
G01 X45.6818 Y92.0551 
G01 X45.7051 Y92.0687 
G01 X45.7191 Y92.0706 
G01 X45.7322 Y92.0760 
G01 X45.7592 Y92.0760 
G01 X45.7859 Y92.0796 
G01 X45.7996 Y92.0760 
G01 X46.1428 Y92.0760 
G01 X46.2740 Y92.2072 
G01 X46.2740 Y93.7131 
G01 X46.3052 Y93.7884 
G01 X46.3740 Y93.8572 
G01 X46.3740 Y95.3118 
G01 X46.4052 Y95.3871 
G01 X46.4629 Y95.4448 
G01 X46.5382 Y95.4760 
G01 X47.1428 Y95.4760 
G01 X47.2740 Y95.6072 
G01 X47.2740 Y97.2928 
G01 X47.1428 Y97.4240 
G01 X45.6446 Y97.4240 
G01 X45.6151 Y97.4118 
G01 X45.5908 Y97.4017 
G01 X45.5495 Y97.4017 
G01 X45.5092 Y97.4017 
G01 X45.4554 Y97.4240 
G01 X43.9572 Y97.4240 
G01 X43.8060 Y97.2728 
G01 X43.7483 Y97.2151 
G01 X43.6730 Y97.1839 
G01 X43.5914 Y97.1839 
G01 X43.5161 Y97.2151 
G01 X43.4584 Y97.2728 
G01 X43.4272 Y97.3481 
G01 X43.4272 Y97.9012 
G01 X43.1932 Y98.1352 
G01 X43.1355 Y98.1929 
G01 X43.1043 Y98.2682 
G01 X43.1043 Y98.3498 
G01 X43.1355 Y98.4251 
G01 X43.1932 Y98.4828 
G01 X43.2685 Y98.5140 
G01 X58.8498 Y98.5140 
G01 X58.9251 Y98.4828 
G01 X58.9828 Y98.4251 
G01 X59.0140 Y98.3498 
G01 X59.0140 Y20.4206 
G01 X59.0140 Y20.3793 
G01 X59.0068 Y20.3620 
G01 X58.9828 Y20.3040 
G01 X58.9544 Y20.2756 
G01 X58.9251 Y20.2463 
G01 X58.8854 Y20.2299 
G01 X58.8498 Y20.2151 
G01 X58.8095 Y20.2151 
G01 X58.7682 Y20.2151 
G01 X58.7524 Y20.2217 
G01 X58.7352 Y20.2288 
G01 X58.6826 Y20.2506 
G01 X58.6598 Y20.2600 
G01 X58.6174 Y20.3024 
G01 X58.6021 Y20.3177 
G01 X58.5926 Y20.3272 
G01 X58.4976 Y20.3272 
G01 X58.4223 Y20.3584 
G01 X56.4733 Y20.3590 
G01 X56.3979 Y20.3902 
G01 X56.3402 Y20.4479 
G01 X56.1859 Y20.8205 
G01 X55.9085 Y21.0979 
G01 X55.5461 Y21.2480 
G01 X55.1539 Y21.2480 
G01 X54.7915 Y21.0979 
G01 X54.5141 Y20.8205 
G01 X54.3640 Y20.4581 
G01 X54.3640 Y18.5419 
G01 X54.5141 Y18.1795 
G01 X54.7915 Y17.9021 
G01 X55.1539 Y17.7520 
G01 X55.5461 Y17.7520 
G01 X55.9085 Y17.9021 
G01 X56.1859 Y18.1795 
G01 X56.3344 Y18.5379 
G01 X56.3402 Y18.5521 
G01 X56.3979 Y18.6098 
G01 X56.4733 Y18.6410 
G01 X58.4209 Y18.6410 
G01 X58.4976 Y18.6728 
G01 X58.5926 Y18.6728 
G01 X58.6021 Y18.6823 
G01 X58.6180 Y18.6982 
G01 X58.6598 Y18.7400 
G01 X58.6842 Y18.7501 
G01 X58.7351 Y18.7712 
G01 X58.7507 Y18.7776 
G01 X58.7682 Y18.7849 
G01 X58.8086 Y18.7849 
G01 X58.8498 Y18.7849 
G01 X58.8842 Y18.7706 
G01 X58.9251 Y18.7537 
G01 X58.9535 Y18.7253 
G01 X58.9828 Y18.6960 
G01 X59.0061 Y18.6398 
G01 X59.0140 Y18.6207 
G01 X59.0140 Y18.5803 
G01 X59.0140 Y7.7753 
G01 X59.0140 Y7.7340 
G01 X59.0140 Y7.6937 
G01 X58.9946 Y7.6470 
G01 X58.9828 Y7.6184 
G01 X58.9537 Y7.5893 
G01 X58.9251 Y7.5607 
G01 X58.8897 Y7.5460 
G01 X58.8498 Y7.5295 
G01 X58.8085 Y7.5295 
G01 X58.7682 Y7.5295 
G01 X58.7215 Y7.5489 
G01 X58.6929 Y7.5607 
G01 X58.6624 Y7.5912 
G01 X58.6574 Y7.5961 
G01 X58.4898 Y7.7179 
G01 X58.4650 Y7.7306 
G01 X58.4650 Y7.4962 
G01 X58.5311 Y7.4482 
G01 X58.6560 Y7.3233 
G01 X58.7598 Y7.1804 
G01 X58.8400 Y7.0230 
G01 X58.8946 Y6.8550 
G01 X58.9222 Y6.6805 
G01 X58.9222 Y4.3195 
G01 X58.8946 Y4.1450 
G01 X58.8400 Y3.9770 
G01 X58.7598 Y3.8196 
G01 X58.6560 Y3.6767 
G01 X58.5311 Y3.5518 
G01 X58.4650 Y3.5038 
G01 X58.4650 Y3.2694 
G01 X58.4898 Y3.2821 
G01 X58.6574 Y3.4038 
G01 X58.6628 Y3.4092 
G01 X58.6929 Y3.4393 
G01 X58.7222 Y3.4514 
G01 X58.7682 Y3.4705 
G01 X58.8094 Y3.4705 
G01 X58.8498 Y3.4705 
G01 X58.8906 Y3.4536 
G01 X58.9251 Y3.4393 
G01 X58.9542 Y3.4102 
G01 X58.9828 Y3.3816 
G01 X58.9949 Y3.3523 
G01 X59.0140 Y3.3063 
G01 X59.0140 Y3.2651 
G01 X59.0140 Y3.2247 
G01 X59.0140 Y0.6502 
G01 X58.9828 Y0.5749 
G01 X58.9251 Y0.5172 
G01 X58.8498 Y0.4860 
G01 X34.5882 Y0.4860 
G01 X34.5129 Y0.5172 
G01 X34.4552 Y0.5749 
G01 X34.4240 Y0.6502 
G01 X34.4240 Y3.3428 
G01 X34.2928 Y3.4740 
G01 X32.1072 Y3.4740 
G01 X31.9760 Y3.3428 
G01 X31.9760 Y0.6502 
G01 X31.9448 Y0.5749 
G01 X31.8871 Y0.5172 
G01 X31.8118 Y0.4860 
G01 X25.6882 Y0.4860 
G01 X25.6129 Y0.5172 
G01 X25.5552 Y0.5749 
G01 X25.5240 Y0.6502 
G01 X25.5240 Y3.3428 
G01 X25.3928 Y3.4740 
G01 X23.2072 Y3.4740 
G01 X23.0760 Y3.3428 
G01 X23.0760 Y0.6502 
G01 X23.0448 Y0.5749 
G01 X22.9871 Y0.5172 
G01 X22.9118 Y0.4860 
G01 X20.3382 Y0.4860 
G01 X20.2629 Y0.5172 
G01 X20.2052 Y0.5749 
G01 X20.1740 Y0.6502 
G01 X20.1740 Y1.7200 
G01 X19.9800 Y1.7200 
G01 X19.9800 Y0.5876 
G01 X19.9624 Y0.5700 
G01 X18.5376 Y0.5700 
G01 X18.5200 Y0.5876 
G01 X18.5200 Y1.4350 
G01 X18.3260 Y1.4350 
G01 X18.3260 Y0.6502 
G01 X18.2948 Y0.5749 
G01 X18.2371 Y0.5172 
G01 X18.1618 Y0.4860 
G01 X13.3382 Y0.4860 
G01 X13.2629 Y0.5172 
G01 X13.2052 Y0.5749 
G01 X13.1740 Y0.6502 
G01 X13.1740 Y1.4350 
G01 X12.9800 Y1.4350 
G01 X12.9800 Y0.5876 
G01 X12.9624 Y0.5700 
G01 X11.5376 Y0.5700 
G01 X11.5200 Y0.5876 
G01 X11.5200 Y1.4350 
G01 X11.3260 Y1.4350 
G01 X11.3260 Y0.6502 
G01 X11.2948 Y0.5749 
G01 X11.2371 Y0.5172 
G01 X11.1618 Y0.4860 
G01 X1.1502 Y0.4860 
G01 X1.0749 Y0.5172 
G01 X1.0172 Y0.5749 
G00 Z2.5400 
G00 X4.2335 Y3.3261 
G01 Z-0.1778 F254.00 
G01 X4.1607 Y3.4350 F508.00 
G01 X4.1106 Y3.5560 
G01 X4.0850 Y3.6845 
G01 X4.0850 Y8.7245 
G01 X3.8261 Y8.9835 
G01 X3.7335 Y9.0761 
G01 X3.6607 Y9.1850 
G01 X3.6106 Y9.3060 
G01 X3.5850 Y9.4345 
G01 X3.5850 Y14.6200 
G01 X1.2876 Y14.6200 
G01 X1.2700 Y14.6376 
G01 X1.2700 Y20.8624 
G01 X1.2876 Y20.8800 
G01 X6.7124 Y20.8800 
G01 X6.7300 Y20.8624 
G01 X6.7300 Y14.6376 
G01 X6.7124 Y14.6200 
G01 X4.9150 Y14.6200 
G01 X4.9150 Y9.7754 
G01 X5.2665 Y9.4239 
G01 X5.3393 Y9.3150 
G01 X5.3894 Y9.1940 
G01 X5.4150 Y9.0655 
G01 X5.4150 Y4.4150 
G01 X6.0200 Y4.4150 
G01 X6.0200 Y4.9624 
G01 X6.0376 Y4.9800 
G01 X8.4624 Y4.9800 
G01 X8.4800 Y4.9624 
G01 X8.4800 Y4.5975 
G01 X8.7991 Y4.6430 
G01 X9.6960 Y5.0915 
G01 X9.7377 Y5.1332 
G01 X9.7945 Y5.1332 
G01 X9.8875 Y5.1587 
G01 X10.0182 Y5.1680 
G01 X10.1482 Y5.1516 
G01 X10.2033 Y5.1332 
G01 X10.2623 Y5.1332 
G01 X10.3024 Y5.0931 
G01 X10.3862 Y5.0453 
G01 X10.4852 Y4.9595 
G01 X10.5655 Y4.8560 
G01 X10.5915 Y4.8040 
G01 X10.6332 Y4.7623 
G01 X10.6332 Y4.7055 
G01 X10.6587 Y4.6125 
G01 X10.6680 Y4.4818 
G01 X10.6516 Y4.3518 
G01 X10.6332 Y4.2967 
G01 X10.6332 Y4.2377 
G01 X10.5931 Y4.1976 
G01 X10.5453 Y4.1138 
G01 X10.4595 Y4.0148 
G01 X10.3560 Y3.9345 
G01 X10.3040 Y3.9085 
G01 X10.2623 Y3.8668 
G01 X10.2206 Y3.8668 
G01 X9.3185 Y3.4158 
G01 X9.2825 Y3.3944 
G01 X9.2600 Y3.3865 
G01 X9.2388 Y3.3759 
G01 X9.1984 Y3.3649 
G01 X9.1589 Y3.3509 
G01 X9.1354 Y3.3476 
G01 X9.1125 Y3.3413 
G01 X9.0707 Y3.3383 
G01 X8.4800 Y3.2540 
G01 X8.4800 Y2.5376 
G01 X8.4624 Y2.5200 
G01 X6.0376 Y2.5200 
G01 X6.0200 Y2.5376 
G01 X6.0200 Y3.0850 
G01 X4.6845 Y3.0850 
G01 X4.5560 Y3.1106 
G01 X4.4350 Y3.1607 
G01 X4.3261 Y3.2335 
G01 X4.2335 Y3.3261 
G00 Z2.5400 
G00 X6.0200 Y6.2876 
G01 Z-0.1778 F254.00 
G01 X6.0200 Y8.7124 F508.00 
G01 X6.0376 Y8.7300 
G01 X6.5396 Y8.7300 
G01 X7.1580 Y9.3484 
G01 X7.1607 Y9.3550 
G01 X7.2335 Y9.4639 
G01 X7.2797 Y9.5101 
G01 X7.3107 Y9.5850 
G01 X7.3150 Y9.5915 
G01 X7.3150 Y13.0455 
G01 X7.3406 Y13.1740 
G01 X7.3907 Y13.2950 
G01 X7.4635 Y13.4039 
G01 X7.7335 Y13.6739 
G01 X7.8261 Y13.7665 
G01 X7.9350 Y13.8393 
G01 X8.0560 Y13.8894 
G01 X8.1845 Y13.9150 
G01 X8.4745 Y13.9150 
G01 X9.1796 Y14.6200 
G01 X9.0376 Y14.6200 
G01 X9.0200 Y14.6376 
G01 X9.0200 Y20.8624 
G01 X9.0376 Y20.8800 
G01 X11.0850 Y20.8800 
G01 X11.0850 Y21.5655 
G01 X11.1106 Y21.6940 
G01 X11.1607 Y21.8150 
G01 X11.2335 Y21.9239 
G01 X11.3261 Y22.0165 
G01 X12.0761 Y22.7665 
G01 X12.1850 Y22.8393 
G01 X12.2001 Y22.8456 
G01 X12.2377 Y22.8832 
G01 X12.2910 Y22.8832 
G01 X12.3060 Y22.8894 
G01 X12.4345 Y22.9150 
G01 X12.5655 Y22.9150 
G01 X12.6940 Y22.8894 
G01 X12.7090 Y22.8832 
G01 X12.7623 Y22.8832 
G01 X12.7999 Y22.8456 
G01 X12.8150 Y22.8393 
G01 X12.9239 Y22.7665 
G01 X13.0165 Y22.6739 
G01 X13.0893 Y22.5650 
G01 X13.0956 Y22.5499 
G01 X13.1332 Y22.5123 
G01 X13.1332 Y22.4590 
G01 X13.1394 Y22.4440 
G01 X13.1650 Y22.3155 
G01 X13.1650 Y22.1845 
G01 X13.1394 Y22.0560 
G01 X13.1332 Y22.0410 
G01 X13.1332 Y21.9877 
G01 X13.0956 Y21.9501 
G01 X13.0893 Y21.9350 
G01 X13.0165 Y21.8261 
G01 X12.4150 Y21.2246 
G01 X12.4150 Y20.8800 
G01 X14.4624 Y20.8800 
G01 X14.4800 Y20.8624 
G01 X14.4800 Y14.6376 
G01 X14.4624 Y14.6200 
G01 X13.3204 Y14.6200 
G01 X15.2754 Y12.6650 
G01 X16.4655 Y12.6650 
G01 X16.5940 Y12.6394 
G01 X16.7150 Y12.5893 
G01 X16.7289 Y12.5800 
G01 X17.2624 Y12.5800 
G01 X17.2800 Y12.5624 
G01 X17.2800 Y11.2376 
G01 X17.2624 Y11.2200 
G01 X15.7376 Y11.2200 
G01 X15.7200 Y11.2376 
G01 X15.7200 Y11.3350 
G01 X14.9345 Y11.3350 
G01 X14.8060 Y11.3606 
G01 X14.6850 Y11.4107 
G01 X14.5761 Y11.4835 
G01 X14.4835 Y11.5761 
G01 X11.7245 Y14.3350 
G01 X10.7754 Y14.3350 
G01 X9.1739 Y12.7335 
G01 X9.0650 Y12.6607 
G01 X8.9440 Y12.6106 
G01 X8.8155 Y12.5850 
G01 X8.6450 Y12.5850 
G01 X8.6450 Y9.2845 
G01 X8.6194 Y9.1560 
G01 X8.5693 Y9.0350 
G01 X8.5332 Y8.9810 
G01 X8.4893 Y8.8750 
G01 X8.4165 Y8.7661 
G01 X8.3804 Y8.7300 
G01 X8.4624 Y8.7300 
G01 X8.4800 Y8.7124 
G01 X8.4800 Y6.2876 
G01 X8.4624 Y6.2700 
G01 X6.0376 Y6.2700 
G01 X6.0200 Y6.2876 
G00 Z2.5400 
G00 X9.2718 Y6.5134 
G01 Z-0.1778 F254.00 
G01 X9.5134 Y6.2718 F508.00 
G01 X9.5902 Y6.2400 
G01 X9.6574 Y6.1728 
G01 X9.7524 Y6.1728 
G01 X9.7672 Y6.1666 
G01 X9.8277 Y6.1416 
G01 X11.1618 Y6.1410 
G01 X11.2371 Y6.1098 
G01 X11.2948 Y6.0521 
G01 X11.3260 Y5.9768 
G01 X11.3260 Y5.3072 
G01 X11.4572 Y5.1760 
G01 X12.6827 Y5.1760 
G01 X12.7155 Y5.1785 
G01 X12.7232 Y5.1760 
G01 X12.7313 Y5.1760 
G01 X12.7617 Y5.1634 
G01 X12.7930 Y5.1532 
G01 X12.7992 Y5.1479 
G01 X12.8067 Y5.1448 
G01 X12.8300 Y5.1215 
G01 X13.5707 Y4.4866 
G01 X13.5968 Y4.4781 
G01 X13.6030 Y4.4728 
G01 X13.6105 Y4.4697 
G01 X13.6338 Y4.4464 
G01 X13.6587 Y4.4250 
G01 X13.7253 Y4.4228 
G01 X13.7582 Y4.4253 
G01 X13.7659 Y4.4228 
G01 X13.7740 Y4.4228 
G01 X13.8044 Y4.4102 
G01 X13.8955 Y4.3804 
G01 X14.2362 Y4.4066 
G01 X14.2607 Y4.4191 
G01 X14.2689 Y4.4197 
G01 X14.2764 Y4.4228 
G01 X14.3092 Y4.4228 
G01 X14.3421 Y4.4253 
G01 X14.3907 Y4.4709 
G01 X14.4121 Y4.4959 
G01 X14.4194 Y4.4995 
G01 X14.4251 Y4.5053 
G01 X14.4555 Y4.5179 
G01 X14.5410 Y4.5612 
G01 X14.7634 Y4.8207 
G01 X14.7719 Y4.8468 
G01 X14.7772 Y4.8530 
G01 X14.7803 Y4.8605 
G01 X14.8036 Y4.8838 
G01 X14.8250 Y4.9087 
G01 X14.8272 Y4.9753 
G01 X14.8247 Y5.0082 
G01 X14.8272 Y5.0159 
G01 X14.8272 Y5.0240 
G01 X14.8398 Y5.0544 
G01 X14.8696 Y5.1455 
G01 X14.8434 Y5.4862 
G01 X14.8309 Y5.5107 
G01 X14.8303 Y5.5189 
G01 X14.8272 Y5.5264 
G01 X14.8272 Y5.5592 
G01 X14.8247 Y5.5921 
G01 X14.7791 Y5.6407 
G01 X14.7541 Y5.6621 
G01 X14.7505 Y5.6694 
G01 X14.7447 Y5.6751 
G01 X14.7321 Y5.7055 
G01 X14.6888 Y5.7910 
G01 X13.2704 Y7.0068 
G01 X13.2629 Y7.0099 
G01 X13.2396 Y7.0331 
G01 X13.2146 Y7.0545 
G01 X13.2110 Y7.0618 
G01 X13.2052 Y7.0675 
G01 X13.1926 Y7.0979 
G01 X13.1777 Y7.1273 
G01 X13.1771 Y7.1354 
G01 X13.1740 Y7.1429 
G01 X13.1740 Y7.1758 
G01 X13.1715 Y7.2086 
G01 X13.1740 Y7.2163 
G01 X13.1740 Y8.4928 
G01 X13.0428 Y8.6240 
G01 X11.4572 Y8.6240 
G01 X11.3260 Y8.4928 
G01 X11.3260 Y8.0232 
G01 X11.2948 Y7.9479 
G01 X11.2371 Y7.8902 
G01 X11.1618 Y7.8590 
G01 X9.8291 Y7.8590 
G01 X9.7524 Y7.8272 
G01 X9.6574 Y7.8272 
G01 X9.5902 Y7.7600 
G01 X9.5148 Y7.7288 
G01 X9.2718 Y7.4866 
G01 X9.2400 Y7.4098 
G01 X9.1728 Y7.3426 
G01 X9.1728 Y7.2476 
G01 X9.1666 Y7.2328 
G01 X9.1416 Y7.1723 
G01 X9.1410 Y6.8291 
G01 X9.1728 Y6.7524 
G01 X9.1728 Y6.6574 
G01 X9.2400 Y6.5902 
G01 X9.2712 Y6.5148 
G00 Z2.5400 
G00 X9.4835 Y6.5761 
G01 Z-0.1778 F254.00 
G01 X9.4107 Y6.6850 F508.00 
G01 X9.4044 Y6.7001 
G01 X9.3668 Y6.7377 
G01 X9.3668 Y6.7910 
G01 X9.3606 Y6.8060 
G01 X9.3350 Y6.9345 
G01 X9.3350 Y7.0655 
G01 X9.3606 Y7.1940 
G01 X9.3668 Y7.2090 
G01 X9.3668 Y7.2623 
G01 X9.4044 Y7.2999 
G01 X9.4107 Y7.3150 
G01 X9.4835 Y7.4239 
G01 X9.5761 Y7.5165 
G01 X9.6850 Y7.5893 
G01 X9.7001 Y7.5956 
G01 X9.7377 Y7.6332 
G01 X9.7910 Y7.6332 
G01 X9.8060 Y7.6394 
G01 X9.9345 Y7.6650 
G01 X11.5200 Y7.6650 
G01 X11.5200 Y8.4124 
G01 X11.5376 Y8.4300 
G01 X12.9624 Y8.4300 
G01 X12.9800 Y8.4124 
G01 X12.9800 Y7.0001 
G01 X14.4825 Y5.7123 
G01 X14.5634 Y5.6093 
G01 X14.5914 Y5.5540 
G01 X14.6332 Y5.5123 
