(.../pcb-gcode-3.6.2.4/pcb-gcode.ulp)
(Copyright 2005 - 2012 by John Johnson)
(See readme.txt for licensing terms.)
(This file generated from the board:)
(.../Stm32f4/STM32_SHIELD/untitled.brd)
(Current profile is .../pcb-gcode-3.6.2.4/profiles/generic.pp  )
(This file generated 17.05.2017 17:22)
(Settings from pcb-machine.h)
(spindle on time = 3.0000)
(spindle speed = 20000.0000)
(tool change at 0.0000 0.0000 25.4000 )
(feed rate xy = F0.00  )
(feed rate z  = F508.00 )
(Z Axis Settings)
(  High     Up        Down     Drill)
(12.7000 	2.5400 	-0.1778 	-0.8128 )
(Settings from pcb-defaults.h)
(isolate min = 0.0000)
(isolate max = 0.2000)
(isolate step = 0.0080)
(Generated top outlines, top drill, bottom outlines, bottom drill, )
(Unit of measure: mm)
( Tool|       Size       |  Min Sub |  Max Sub |   Count )
( T01  0.600mm 0.0236in 0.0000in 0.0000in )
( T02  0.800mm 0.0315in 0.0000in 0.0000in )
( T03  0.900mm 0.0354in 0.0000in 0.0000in )
( T04  1.000mm 0.0394in 0.0000in 0.0000in )
( T05  1.016mm 0.0400in 0.0000in 0.0000in )
(Metric Mode)
G21
(Absolute Coordinates)
G90
S20000
G00 Z12.7000 
G00 X0.0000 Y0.0000 
M03
G04 P3.000000
M05
G00 Z25.4000 
M06 T01  ; 0.6000 
G01 Z0.0000 F508.00 
M06 
G00 Z2.5400 
M03
G04 P3.000000
G00 Z2.540000
G00 X-1.9000 Y75.5000 
G01 Z-0.8128 F508.00 
G01 Z2.540000
(R2.5400  P1.000000)
G00 X-14.0000 Y72.5000 
G01 Z-0.812800
G01 Z2.540000
G00 X-16.0000 Y71.7500 
G01 Z-0.812800
G01 Z2.540000
G00 X-16.2500 Y73.0000 
G01 Z-0.812800
G01 Z2.540000
G00 X-16.5000 Y74.2500 
G01 Z-0.812800
G01 Z2.540000
G00 X-18.2500 Y77.0000 
G01 Z-0.812800
G01 Z2.540000
G00 X-21.0000 Y71.0000 
G01 Z-0.812800
G01 Z2.540000
G00 X-21.8700 Y70.1000 
G01 Z-0.812800
G01 Z2.540000
G00 X-22.6400 Y69.0200 
G01 Z-0.812800
G01 Z2.540000
G00 X-25.0000 Y72.0000 
G01 Z-0.812800
G01 Z2.540000
G00 X-27.5000 Y72.7500 
G01 Z-0.812800
G01 Z2.540000
G00 X-27.5000 Y74.0000 
G01 Z-0.812800
G01 Z2.540000
G00 X-28.5000 Y75.7500 
G01 Z-0.812800
G01 Z2.540000
G00 X-29.5000 Y73.0000 
G01 Z-0.812800
G01 Z2.540000
G00 X-30.7500 Y73.5000 
G01 Z-0.812800
G01 Z2.540000
G00 X-31.1000 Y79.0000 
G01 Z-0.812800
G01 Z2.540000
G00 X-36.2500 Y78.0000 
G01 Z-0.812800
G01 Z2.540000
G00 X-36.5000 Y74.2500 
G01 Z-0.812800
G01 Z2.540000
G00 X-36.0000 Y82.2500 
G01 Z-0.812800
G01 Z2.540000
G00 X-37.0000 Y87.5000 
G01 Z-0.812800
G01 Z2.540000
G00 X-35.5000 Y88.0000 
G01 Z-0.812800
G01 Z2.540000
G00 X-34.2500 Y88.0000 
G01 Z-0.812800
G01 Z2.540000
G00 X-28.6500 Y89.1500 
G01 Z-0.812800
G01 Z2.540000
G00 X-27.5000 Y93.0000 
G01 Z-0.812800
G01 Z2.540000
G00 X-31.2500 Y93.0000 
G01 Z-0.812800
G01 Z2.540000
G00 X-31.0000 Y97.9500 
G01 Z-0.812800
G01 Z2.540000
G00 X-37.5000 Y95.0000 
G01 Z-0.812800
G01 Z2.540000
G00 X-39.4200 Y94.6500 
G01 Z-0.812800
G01 Z2.540000
G00 X-40.7700 Y95.0900 
G01 Z-0.812800
G01 Z2.540000
G00 X-41.4500 Y96.8500 
G01 Z-0.812800
G01 Z2.540000
G00 X-42.7000 Y97.6000 
G01 Z-0.812800
G01 Z2.540000
G00 X-41.7500 Y92.7500 
G01 Z-0.812800
G01 Z2.540000
G00 X-43.5000 Y88.2500 
G01 Z-0.812800
G01 Z2.540000
G00 X-42.5000 Y86.5000 
G01 Z-0.812800
G01 Z2.540000
G00 X-57.7000 Y93.6000 
G01 Z-0.812800
G01 Z2.540000
G00 X-57.4500 Y78.1500 
G01 Z-0.812800
G01 Z2.540000
G00 X-37.5000 Y61.2500 
G01 Z-0.812800
G01 Z2.540000
G00 X-35.8800 Y58.7500 
G01 Z-0.812800
G01 Z2.540000
G00 X-35.0000 Y56.2500 
G01 Z-0.812800
G01 Z2.540000
G00 X-38.0000 Y52.2500 
G01 Z-0.812800
G01 Z2.540000
G00 X-40.5000 Y55.7500 
G01 Z-0.812800
G01 Z2.540000
G00 X-40.0000 Y57.7500 
G01 Z-0.812800
G01 Z2.540000
G00 X-44.7500 Y53.7500 
G01 Z-0.812800
G01 Z2.540000
G00 X-45.7500 Y52.5000 
G01 Z-0.812800
G01 Z2.540000
G00 X-33.0000 Y48.5000 
G01 Z-0.812800
G01 Z2.540000
G00 X-31.2500 Y48.5000 
G01 Z-0.812800
G01 Z2.540000
G00 X-29.2000 Y54.7000 
G01 Z-0.812800
G01 Z2.540000
G00 X-29.0000 Y57.5000 
G01 Z-0.812800
G01 Z2.540000
G00 X-27.7500 Y57.5000 
G01 Z-0.812800
G01 Z2.540000
G00 X-26.5000 Y57.5000 
G01 Z-0.812800
G01 Z2.540000
G00 X-24.5000 Y56.7500 
G01 Z-0.812800
G01 Z2.540000
G00 X-24.8600 Y59.3100 
G01 Z-0.812800
G01 Z2.540000
G00 X-23.9400 Y60.3917 
G01 Z-0.812800
G01 Z2.540000
G00 X-20.7400 Y56.7700 
G01 Z-0.812800
G01 Z2.540000
G00 X-18.0200 Y57.6400 
G01 Z-0.812800
G01 Z2.540000
G00 X-14.7500 Y59.0000 
G01 Z-0.812800
G01 Z2.540000
G00 X-18.0000 Y61.7500 
G01 Z-0.812800
G01 Z2.540000
G00 X-19.1800 Y62.8700 
G01 Z-0.812800
G01 Z2.540000
G00 X-20.0200 Y64.1200 
G01 Z-0.812800
G01 Z2.540000
G00 X-14.2500 Y65.7500 
G01 Z-0.812800
G01 Z2.540000
G00 X-15.2500 Y54.0000 
G01 Z-0.812800
G01 Z2.540000
G00 X-22.0000 Y53.7500 
G01 Z-0.812800
G01 Z2.540000
G00 X-23.2500 Y52.5000 
G01 Z-0.812800
G01 Z2.540000
G00 X-24.0000 Y51.2500 
G01 Z-0.812800
G01 Z2.540000
G00 X-15.2500 Y45.2500 
G01 Z-0.812800
G01 Z2.540000
G00 X-17.6400 Y39.1200 
G01 Z-0.812800
G01 Z2.540000
G00 X-18.2500 Y36.5000 
G01 Z-0.812800
G01 Z2.540000
G00 X-14.7000 Y32.0500 
G01 Z-0.812800
G01 Z2.540000
G00 X-42.2500 Y28.5000 
G01 Z-0.812800
G01 Z2.540000
G00 X-34.2500 Y61.5000 
G01 Z-0.812800
G01 Z2.540000
G00 X-32.2500 Y61.5000 
G01 Z-0.812800
G01 Z2.540000
G00 X-31.2500 Y62.7500 
G01 Z-0.812800
G01 Z2.540000
G00 X-30.0000 Y61.2500 
G01 Z-0.812800
G01 Z2.540000
G00 X-28.7500 Y61.2500 
G01 Z-0.812800
G01 Z2.540000
G00 X-28.5000 Y65.3000 
G01 Z-0.812800
G01 Z2.540000
G00 X-30.0000 Y65.2500 
G01 Z-0.812800
G01 Z2.540000
G00 X-32.2500 Y66.7500 
G01 Z-0.812800
G01 Z2.540000
G00 X-31.1500 Y67.9700 
G01 Z-0.812800
G01 Z2.540000
G00 X-34.0200 Y65.0800 
G01 Z-0.812800
G01 Z2.540000
G00 X-17.9500 Y89.0500 
G01 Z-0.812800
G01 Z2.540000
G00 X-20.7500 Y93.8500 
G01 Z-0.812800
G01 Z2.540000
G00 X-23.4000 Y92.0500 
G01 Z-0.812800
G01 Z2.540000
G00 X-2.5000 Y93.4500 
G01 Z-0.812800
G01 Z2.540000
M05
G00 Z25.4000 
G00 X0.0000 Y0.0000 
M06 T02  ; 0.8000 
G01 Z0.0000 F508.00 
M06 
G00 Z2.5400 
M03
G04 P3.000000
G00 Z2.540000
G00 X-3.2500 Y22.2500 
G01 Z-0.8128 F508.00 
G01 Z2.540000
(R2.5400  P1.000000)
G00 X-6.2500 Y13.7500 
G01 Z-0.812800
G01 Z2.540000
G00 X-10.5000 Y9.0000 
G01 Z-0.812800
G01 Z2.540000
G00 X-10.0000 Y7.0000 
G01 Z-0.812800
G01 Z2.540000
G00 X-10.0000 Y4.5000 
G01 Z-0.812800
G01 Z2.540000
G00 X-14.0000 Y5.2500 
G01 Z-0.812800
G01 Z2.540000
G00 X-17.2500 Y9.0000 
G01 Z-0.812800
G01 Z2.540000
G00 X-21.0000 Y7.0000 
G01 Z-0.812800
G01 Z2.540000
G00 X-21.7500 Y9.0000 
G01 Z-0.812800
G01 Z2.540000
G00 X-30.2500 Y14.7500 
G01 Z-0.812800
G01 Z2.540000
G00 X-41.0000 Y22.0000 
G01 Z-0.812800
G01 Z2.540000
G00 X-30.5000 Y33.2500 
G01 Z-0.812800
G01 Z2.540000
G00 X-16.5000 Y27.0000 
G01 Z-0.812800
G01 Z2.540000
G00 X-12.5000 Y22.2500 
G01 Z-0.812800
G01 Z2.540000
G00 X-16.0000 Y20.0000 
G01 Z-0.812800
G01 Z2.540000
G00 X-18.2500 Y20.7500 
G01 Z-0.812800
G01 Z2.540000
G00 X-4.5000 Y1.2500 
G01 Z-0.812800
G01 Z2.540000
G00 X-49.2900 Y6.6600 
G01 Z-0.812800
G01 Z2.540000
G00 X-53.0000 Y2.5000 
G01 Z-0.812800
G01 Z2.540000
G00 X-57.8000 Y5.5000 
G01 Z-0.812800
G01 Z2.540000
G00 X-58.2500 Y19.5000 
G01 Z-0.812800
G01 Z2.540000
M05
G00 Z25.4000 
G00 X0.0000 Y0.0000 
M06 T03  ; 0.9000 
G01 Z0.0000 F508.00 
M06 
G00 Z2.5400 
M03
G04 P3.000000
G00 Z2.540000
G00 X-18.5500 Y94.1500 
G01 Z-0.8128 F508.00 
G01 Z2.540000
(R2.5400  P1.000000)
G00 X-22.9500 Y94.1500 
G01 Z-0.812800
G01 Z2.540000
G00 X-26.5500 Y5.0000 
G01 Z-0.812800
G01 Z2.540000
G00 X-30.9500 Y5.0000 
G01 Z-0.812800
G01 Z2.540000
M05
G00 Z25.4000 
G00 X0.0000 Y0.0000 
M06 T04  ; 1.0000 
G01 Z0.0000 F508.00 
M06 
G00 Z2.5400 
M03
G04 P3.000000
G00 Z2.540000
G00 X-53.0000 Y8.5000 
G01 Z-0.8128 F508.00 
G01 Z2.540000
(R2.5400  P1.000000)
M05
G00 Z25.4000 
G00 X0.0000 Y0.0000 
M06 T05  ; 1.0160 
G01 Z0.0000 F508.00 
M06 
G00 Z2.5400 
M03
G04 P3.000000
G00 Z2.540000
G00 X-6.7300 Y23.4400 
G01 Z-0.8128 F508.00 
G01 Z2.540000
(R2.5400  P1.000000)
G00 X-6.7300 Y25.9800 
G01 Z-0.812800
G01 Z2.540000
G00 X-6.7300 Y28.5200 
G01 Z-0.812800
G01 Z2.540000
G00 X-6.7300 Y31.0600 
G01 Z-0.812800
G01 Z2.540000
G00 X-9.2700 Y31.0600 
G01 Z-0.812800
G01 Z2.540000
G00 X-9.2700 Y28.5200 
G01 Z-0.812800
G01 Z2.540000
G00 X-9.2700 Y25.9800 
G01 Z-0.812800
G01 Z2.540000
G00 X-9.2700 Y23.4400 
G01 Z-0.812800
G01 Z2.540000
G00 X-9.2700 Y33.6000 
G01 Z-0.812800
G01 Z2.540000
G00 X-6.7300 Y33.6000 
G01 Z-0.812800
G01 Z2.540000
G00 X-6.7300 Y36.1400 
G01 Z-0.812800
G01 Z2.540000
G00 X-6.7300 Y38.6800 
G01 Z-0.812800
G01 Z2.540000
G00 X-6.7300 Y41.2200 
G01 Z-0.812800
G01 Z2.540000
G00 X-6.7300 Y43.7600 
G01 Z-0.812800
G01 Z2.540000
G00 X-6.7300 Y46.3000 
G01 Z-0.812800
G01 Z2.540000
G00 X-9.2700 Y46.3000 
G01 Z-0.812800
G01 Z2.540000
G00 X-9.2700 Y43.7600 
G01 Z-0.812800
G01 Z2.540000
G00 X-9.2700 Y41.2200 
G01 Z-0.812800
G01 Z2.540000
G00 X-9.2700 Y38.6800 
G01 Z-0.812800
G01 Z2.540000
G00 X-9.2700 Y36.1400 
G01 Z-0.812800
G01 Z2.540000
G00 X-9.2700 Y48.8400 
G01 Z-0.812800
G01 Z2.540000
G00 X-6.7300 Y48.8400 
G01 Z-0.812800
G01 Z2.540000
G00 X-6.7300 Y51.3800 
G01 Z-0.812800
G01 Z2.540000
G00 X-6.7300 Y53.9200 
G01 Z-0.812800
G01 Z2.540000
G00 X-6.7300 Y56.4600 
G01 Z-0.812800
G01 Z2.540000
G00 X-6.7300 Y59.0000 
G01 Z-0.812800
G01 Z2.540000
G00 X-6.7300 Y61.5400 
G01 Z-0.812800
G01 Z2.540000
G00 X-6.7300 Y64.0800 
G01 Z-0.812800
G01 Z2.540000
G00 X-9.2700 Y64.0800 
G01 Z-0.812800
G01 Z2.540000
G00 X-9.2700 Y61.5400 
G01 Z-0.812800
G01 Z2.540000
G00 X-9.2700 Y59.0000 
G01 Z-0.812800
G01 Z2.540000
G00 X-9.2700 Y56.4600 
G01 Z-0.812800
G01 Z2.540000
G00 X-9.2700 Y53.9200 
G01 Z-0.812800
G01 Z2.540000
G00 X-9.2700 Y51.3800 
G01 Z-0.812800
G01 Z2.540000
G00 X-9.2700 Y66.6200 
G01 Z-0.812800
G01 Z2.540000
G00 X-9.2700 Y69.1600 
G01 Z-0.812800
G01 Z2.540000
G00 X-6.7300 Y69.1600 
G01 Z-0.812800
G01 Z2.540000
G00 X-6.7300 Y66.6200 
G01 Z-0.812800
G01 Z2.540000
G00 X-6.7300 Y71.7000 
G01 Z-0.812800
G01 Z2.540000
G00 X-6.7300 Y74.2400 
G01 Z-0.812800
G01 Z2.540000
G00 X-9.2700 Y74.2400 
G01 Z-0.812800
G01 Z2.540000
G00 X-9.2700 Y71.7000 
G01 Z-0.812800
G01 Z2.540000
G00 X-9.2700 Y76.7800 
G01 Z-0.812800
G01 Z2.540000
G00 X-9.2700 Y79.3200 
G01 Z-0.812800
G01 Z2.540000
G00 X-6.7300 Y79.3200 
G01 Z-0.812800
G01 Z2.540000
G00 X-6.7300 Y76.7800 
G01 Z-0.812800
G01 Z2.540000
G00 X-6.7300 Y81.8600 
G01 Z-0.812800
G01 Z2.540000
G00 X-9.2700 Y81.8600 
G01 Z-0.812800
G01 Z2.540000
G00 X-9.2700 Y84.4000 
G01 Z-0.812800
G01 Z2.540000
G00 X-9.2700 Y86.9400 
G01 Z-0.812800
G01 Z2.540000
G00 X-6.7300 Y86.9400 
G01 Z-0.812800
G01 Z2.540000
G00 X-6.7300 Y84.4000 
G01 Z-0.812800
G01 Z2.540000
G00 X-6.7300 Y89.4800 
G01 Z-0.812800
G01 Z2.540000
G00 X-6.7300 Y92.0200 
G01 Z-0.812800
G01 Z2.540000
G00 X-9.2700 Y92.0200 
G01 Z-0.812800
G01 Z2.540000
G00 X-9.2700 Y89.4800 
G01 Z-0.812800
G01 Z2.540000
G00 X-9.2700 Y94.5600 
G01 Z-0.812800
G01 Z2.540000
G00 X-9.2700 Y97.1000 
G01 Z-0.812800
G01 Z2.540000
G00 X-6.7300 Y97.1000 
G01 Z-0.812800
G01 Z2.540000
G00 X-6.7300 Y94.5600 
G01 Z-0.812800
G01 Z2.540000
G00 X-50.7300 Y94.5600 
G01 Z-0.812800
G01 Z2.540000
G00 X-50.7300 Y97.1000 
G01 Z-0.812800
G01 Z2.540000
G00 X-53.2700 Y97.1000 
G01 Z-0.812800
G01 Z2.540000
G00 X-53.2700 Y94.5600 
G01 Z-0.812800
G01 Z2.540000
G00 X-53.2700 Y92.0200 
G01 Z-0.812800
G01 Z2.540000
G00 X-53.2700 Y89.4800 
G01 Z-0.812800
G01 Z2.540000
G00 X-53.2700 Y86.9400 
G01 Z-0.812800
G01 Z2.540000
G00 X-53.2700 Y84.4000 
G01 Z-0.812800
G01 Z2.540000
G00 X-53.2700 Y81.8600 
G01 Z-0.812800
G01 Z2.540000
G00 X-53.2700 Y79.3200 
G01 Z-0.812800
G01 Z2.540000
G00 X-53.2700 Y76.7800 
G01 Z-0.812800
G01 Z2.540000
G00 X-53.2700 Y74.2400 
G01 Z-0.812800
G01 Z2.540000
G00 X-53.2700 Y71.7000 
G01 Z-0.812800
G01 Z2.540000
G00 X-53.2700 Y69.1600 
G01 Z-0.812800
G01 Z2.540000
G00 X-53.2700 Y66.6200 
G01 Z-0.812800
G01 Z2.540000
G00 X-53.2700 Y64.0800 
G01 Z-0.812800
G01 Z2.540000
G00 X-53.2700 Y61.5400 
G01 Z-0.812800
G01 Z2.540000
G00 X-53.2700 Y59.0000 
G01 Z-0.812800
G01 Z2.540000
G00 X-53.2700 Y56.4600 
G01 Z-0.812800
G01 Z2.540000
G00 X-53.2700 Y53.9200 
G01 Z-0.812800
G01 Z2.540000
G00 X-53.2700 Y51.3800 
G01 Z-0.812800
G01 Z2.540000
G00 X-53.2700 Y48.8400 
G01 Z-0.812800
G01 Z2.540000
G00 X-53.2700 Y46.3000 
G01 Z-0.812800
G01 Z2.540000
G00 X-53.2700 Y43.7600 
G01 Z-0.812800
G01 Z2.540000
G00 X-53.2700 Y41.2200 
G01 Z-0.812800
G01 Z2.540000
G00 X-53.2700 Y38.6800 
G01 Z-0.812800
G01 Z2.540000
G00 X-53.2700 Y36.1400 
G01 Z-0.812800
G01 Z2.540000
G00 X-53.2700 Y33.6000 
G01 Z-0.812800
G01 Z2.540000
G00 X-53.2700 Y31.0600 
G01 Z-0.812800
G01 Z2.540000
G00 X-53.2700 Y28.5200 
G01 Z-0.812800
G01 Z2.540000
G00 X-53.2700 Y25.9800 
G01 Z-0.812800
G01 Z2.540000
G00 X-53.2700 Y23.4400 
G01 Z-0.812800
G01 Z2.540000
G00 X-50.7300 Y23.4400 
G01 Z-0.812800
G01 Z2.540000
G00 X-50.7300 Y25.9800 
G01 Z-0.812800
G01 Z2.540000
G00 X-50.7300 Y28.5200 
G01 Z-0.812800
G01 Z2.540000
G00 X-50.7300 Y31.0600 
G01 Z-0.812800
G01 Z2.540000
G00 X-50.7300 Y33.6000 
G01 Z-0.812800
G01 Z2.540000
G00 X-50.7300 Y36.1400 
G01 Z-0.812800
G01 Z2.540000
G00 X-50.7300 Y38.6800 
G01 Z-0.812800
G01 Z2.540000
G00 X-50.7300 Y41.2200 
G01 Z-0.812800
G01 Z2.540000
G00 X-50.7300 Y43.7600 
G01 Z-0.812800
G01 Z2.540000
G00 X-50.7300 Y46.3000 
G01 Z-0.812800
G01 Z2.540000
G00 X-50.7300 Y48.8400 
G01 Z-0.812800
G01 Z2.540000
G00 X-50.7300 Y51.3800 
G01 Z-0.812800
G01 Z2.540000
G00 X-50.7300 Y53.9200 
G01 Z-0.812800
G01 Z2.540000
G00 X-50.7300 Y56.4600 
G01 Z-0.812800
G01 Z2.540000
G00 X-50.7300 Y59.0000 
G01 Z-0.812800
G01 Z2.540000
G00 X-50.7300 Y61.5400 
G01 Z-0.812800
G01 Z2.540000
G00 X-50.7300 Y64.0800 
G01 Z-0.812800
G01 Z2.540000
G00 X-50.7300 Y66.6200 
G01 Z-0.812800
G01 Z2.540000
G00 X-50.7300 Y69.1600 
G01 Z-0.812800
G01 Z2.540000
G00 X-50.7300 Y71.7000 
G01 Z-0.812800
G01 Z2.540000
G00 X-50.7300 Y74.2400 
G01 Z-0.812800
G01 Z2.540000
G00 X-50.7300 Y76.7800 
G01 Z-0.812800
G01 Z2.540000
G00 X-50.7300 Y79.3200 
G01 Z-0.812800
G01 Z2.540000
G00 X-50.7300 Y81.8600 
G01 Z-0.812800
G01 Z2.540000
G00 X-50.7300 Y84.4000 
G01 Z-0.812800
G01 Z2.540000
G00 X-50.7300 Y86.9400 
G01 Z-0.812800
G01 Z2.540000
G00 X-50.7300 Y89.4800 
G01 Z-0.812800
G01 Z2.540000
G00 X-50.7300 Y92.0200 
G01 Z-0.812800
G01 Z2.540000
G00 X-37.8700 Y26.2700 
G01 Z-0.812800
G01 Z2.540000
G00 X-37.8700 Y23.7300 
G01 Z-0.812800
G01 Z2.540000
G00 X-35.3300 Y23.7300 
G01 Z-0.812800
G01 Z2.540000
G00 X-32.7900 Y23.7300 
G01 Z-0.812800
G01 Z2.540000
G00 X-30.2500 Y23.7300 
G01 Z-0.812800
G01 Z2.540000
G00 X-27.7100 Y23.7300 
G01 Z-0.812800
G01 Z2.540000
G00 X-25.1700 Y23.7300 
G01 Z-0.812800
G01 Z2.540000
G00 X-25.1700 Y26.2700 
G01 Z-0.812800
G01 Z2.540000
G00 X-27.7100 Y26.2700 
G01 Z-0.812800
G01 Z2.540000
G00 X-30.2500 Y26.2700 
G01 Z-0.812800
G01 Z2.540000
G00 X-32.7900 Y26.2700 
G01 Z-0.812800
G01 Z2.540000
G00 X-35.3300 Y26.2700 
G01 Z-0.812800
G01 Z2.540000
G00 X-35.3300 Y20.0000 
G01 Z-0.812800
G01 Z2.540000
G00 X-37.8700 Y20.0000 
G01 Z-0.812800
G01 Z2.540000
G00 X-42.6500 Y19.5000 
G01 Z-0.812800
G01 Z2.540000
G00 X-45.1900 Y19.5000 
G01 Z-0.812800
G01 Z2.540000
G00 X-47.7300 Y19.5000 
G01 Z-0.812800
G01 Z2.540000
G00 X-50.2700 Y19.5000 
G01 Z-0.812800
G01 Z2.540000
G00 X-52.8100 Y19.5000 
G01 Z-0.812800
G01 Z2.540000
G00 X-55.3500 Y19.5000 
G01 Z-0.812800
G01 Z2.540000
G00 X-46.2500 Y10.7900 
G01 Z-0.812800
G01 Z2.540000
G00 X-46.2500 Y8.2500 
G01 Z-0.812800
G01 Z2.540000
G00 X-46.2500 Y5.7100 
G01 Z-0.812800
G01 Z2.540000
G00 X-42.7500 Y5.7300 
G01 Z-0.812800
G01 Z2.540000
G00 X-42.7500 Y8.2700 
G01 Z-0.812800
G01 Z2.540000
G00 X-42.7500 Y10.8100 
G01 Z-0.812800
G01 Z2.540000
G00 X-42.7500 Y3.1900 
G01 Z-0.812800
G01 Z2.540000
G00 X-32.7900 Y20.0000 
G01 Z-0.812800
G01 Z2.540000
G00 X-30.2500 Y20.0000 
G01 Z-0.812800
G01 Z2.540000
G00 X-27.7100 Y20.0000 
G01 Z-0.812800
G01 Z2.540000
G00 X-25.1700 Y20.0000 
G01 Z-0.812800
G01 Z2.540000
G00 X-22.6300 Y20.0000 
G01 Z-0.812800
G01 Z2.540000
G00 X-22.6300 Y23.7300 
G01 Z-0.812800
G01 Z2.540000
G00 X-22.6300 Y26.2700 
G01 Z-0.812800
G01 Z2.540000
T01 
G00 Z12.7000 
M05
M02
